hisham246/franka_example_controllers/results/tau_nom.csv
Solve Time,Joint 1,Joint 2,Joint 3,Joint 4,Joint 5,Joint 6,Joint 7
0.048686027,0.0,0.0,0.0,0.0,0.0,0.0,0.0
0.105273246,-0.08101213409133096,-0.12141701751437793,-0.07297348924935576,0.07946428178755377,-0.03927426221242751,0.1442484576953997,-0.024088360983353645
0.159219264,0.0821735225694466,-0.2677868846270542,0.034827787044226025,0.2868308055085666,0.03460290613638081,0.2411889796966607,0.03434322752045743
0.211295127,0.034561269447866236,-0.2405967187894673,-0.013730006871963678,0.3015489736017068,0.02270959598053037,0.23610870261080713,0.032775710662553956
0.263267278,0.014720843301839686,-0.21275659018791637,0.0041214034374366,0.2044843575862163,-0.006614274326858349,0.2043038738976178,-0.008219948169151496
0.316767454,-0.053147113207248825,-0.15188033670895815,-0.04184918408985325,0.1094358894519909,-0.05121421805703033,0.15260867743224368,-0.03927272519812762
0.362943411,-0.05314711320867181,-0.15188033670926931,-0.04184918409242415,0.10943588945094987,-0.05121421805640888,0.15260867743282863,-0.03927272519830559
0.414828539,-0.0531471132105823,-0.1518803367058588,-0.041849184095594294,0.10943588944590471,-0.05121421805531598,0.15260867743147918,-0.03927272519735314
0.466189146,0.034561269460066796,-0.2405967187970795,-0.01373000686941589,0.30154897361650823,0.022709595987765868,0.23610870262058486,0.03277571066435438
0.5170540809999999,-0.08101213410376273,-0.12141701749594891,-0.07297348926883945,0.07946428176202494,-0.039274262201582616,0.144248457693329,-0.024088360976703378
0.5676460269999999,-0.08101213410536506,-0.12141701749415602,-0.07297348927093468,0.07946428175948159,-0.039274262200877534,0.1442484576932818,-0.024088360976621877
0.5997848519999999,0.014720843298737456,-0.21275659018861476,0.004121403427868674,0.20448435758858552,-0.006614274326741842,0.2043038739000172,-0.008219948174156076
0.6409256469999999,0.08217352258485275,-0.2677868846376112,0.03482778704389124,0.28683080553647244,0.03460290614111427,0.24118897970685543,0.03434322751695809
0.6928658489999999,-0.05314711321929458,-0.15188033669738935,-0.04184918411119709,0.10943588943105495,-0.05121421805086556,0.1526086774293635,-0.03927272519579247
0.7268199929999999,0.01472084329663782,-0.21275659018706194,0.004121403423585003,0.2044843575874491,-0.006614274326366836,0.20430387389948923,-0.008219948175249903
0.7793822289999999,-0.053147113222140635,-0.15188033669448472,-0.04184918411619579,0.10943588942637683,-0.05121421804935131,0.15260867742874787,-0.039272725194909625
0.8316922179999999,-0.08101213411373047,-0.12141701748369652,-0.07297348928310247,0.07946428174560227,-0.03927426219534342,0.1442484576919678,-0.024088360973169902
0.884006738,0.08217352259147742,-0.2677868846429854,0.03482778704340238,0.2868308055481447,0.03460290614381554,0.24118897971183842,0.03434322751627794
0.9221043579999999,-0.053147113227479156,-0.15188033668856465,-0.04184918412421994,0.10943588941725818,-0.05121421804822658,0.1526086774261756,-0.039272725195405506
0.9737458219999999,-0.08101213411628866,-0.12141701747891727,-0.07297348928746236,0.07946428173890796,-0.03927426219274861,0.14424845769184114,-0.024088360971731546
1.012613534,0.08217352259564621,-0.26778688464532535,0.034827787044167405,0.2868308055545636,0.03460290614428471,0.24118897971414502,0.03434322751500202
1.045573234,0.03456126948316386,-0.24059671880727465,-0.013730006864758927,0.30154897364242345,0.02270959600065363,0.23610870263746447,0.03277571066704446
1.084233045,-0.05314711323173807,-0.15188033668481166,-0.041849184131793435,0.10943588940961044,-0.051214218046382626,0.15260867742571627,-0.039272725194891084
1.11905527,0.08217352259751057,-0.2677868846491647,0.03482778704273651,0.28683080556116064,0.03460290614524847,0.24118897971748257,0.034343227514655086
1.170874117,-0.08101213412225675,-0.1214170174721123,-0.07297348929613397,0.07946428172921374,-0.03927426218873252,0.14424845769106007,-0.024088360969070518
1.212940214,-0.05314711323383903,-0.1518803366840342,-0.04184918413664586,0.10943588940674992,-0.05121421804468524,0.15260867742717873,-0.03927272519428323
1.267159221,-0.05314711323631423,-0.15188033667915615,-0.041849184139863466,0.10943588940100946,-0.051214218043749565,0.15260867742393844,-0.039272725193622966
1.311647174,0.08217352260303758,-0.267786884652064,0.034827787043402184,0.28683080556891344,0.034602906147583413,0.24118897972055547,0.03434322751462864
1.36425018,-0.08101213412783023,-0.12141701746438557,-0.0729734893039205,0.07946428171945655,-0.03927426218530029,0.14424845768938802,-0.024088360967004386
1.416157004,-0.053147113239704086,-0.15188033667576198,-0.0418491841458514,0.10943588939452234,-0.05121421804268701,0.15260867742319412,-0.0392727251938015
1.449284311,0.0147208432906909,-0.2127565901888158,0.004121403408613639,0.20448435759148675,-0.0066142743295405475,0.20430387390312507,-0.008219948187379422
1.503697153,0.014720843289930091,-0.2127565901876493,0.004121403408155824,0.20448435758982078,-0.006614274330703128,0.20430387390217983,-0.008219948188948632
1.5499086340000001,-0.05314711324331292,-0.15188033667362016,-0.041849184151839455,0.10943588938979987,-0.05121421804170809,0.1526086774232642,-0.039272725193832146
1.601671453,-0.0531471132444723,-0.15188033667170006,-0.04184918415416354,0.10943588938733437,-0.051214218040248734,0.15260867742252904,-0.03927272519295155
1.653240438,0.014720843289574105,-0.21275659019010454,0.004121403405641023,0.204484357593231,-0.006614274330652436,0.20430387390449567,-0.008219948190567358
1.6920561740000002,-0.08101213413455162,-0.12141701745481286,-0.072973489313935,0.07946428170624417,-0.039274262180138214,0.1442484576884154,-0.024088360964527242
1.7234134630000002,0.034561269504540956,-0.24059671881849584,-0.01373000686189552,0.30154897366914846,0.022709596014647865,0.23610870265466943,0.032775710671775496
1.7546656090000001,0.03456126950493882,-0.24059671881861608,-0.013730006862494766,0.3015489736701684,0.022709596015422426,0.23610870265539116,0.03277571067219742
1.7880299050000001,0.014720843287686945,-0.21275659018944554,0.004121403402489298,0.2044843575925181,-0.006614274331784745,0.20430387390438925,-0.008219948193355989
1.8275377710000003,0.08217352261357197,-0.2677868846588259,0.03482778704203976,0.2868308055884472,0.03460290615199296,0.24118897972727846,0.03434322751362838
1.8664131120000003,-0.0810121341362512,-0.12141701745134297,-0.0729734893178188,0.0794642817012497,-0.03927426217673492,0.1442484576890288,-0.024088360962081588
1.8982751330000003,0.03456126950988282,-0.2405967188187934,-0.013730006861159515,0.30154897367248323,0.022709596019298464,0.23610870265705902,0.032775710674163225
1.9298200570000004,0.01472084328757918,-0.2127565901914116,0.004121403400815977,0.20448435759484762,-0.00661427433220816,0.20430387390633561,-0.008219948195131936
1.9709289040000004,-0.08101213413937286,-0.12141701744802981,-0.07297348932176512,0.07946428169667744,-0.0392742621758995,0.14424845768845374,-0.024088360961829515
2.0047547780000006,0.08217352261658768,-0.26778688466225725,0.034827787040697056,0.2868308055957217,0.03460290615392521,0.24118897973073525,0.03434322751382514
2.0487179720000004,0.01472084328630175,-0.21275659018927548,0.004121403398845699,0.2044843575925152,-0.00661427433270053,0.20430387390504054,-0.008219948196906801
2.0804281200000005,-0.05314711325402263,-0.15188033666113643,-0.04184918417054034,0.10943588936816437,-0.05121421803711112,0.15260867741948717,-0.03927272519363429
2.1152760950000005,-0.05314711325591978,-0.1518803366604817,-0.041849184172848886,0.10943588936673035,-0.05121421803741001,0.15260867741942982,-0.03927272519391688
2.1501097650000003,0.082173522618939,-0.26778688466408734,0.03482778704012485,0.2868308056007294,0.03460290615523616,0.2411889797327321,0.03434322751380693
2.1916408510000003,0.014720843285370884,-0.2127565901920075,0.004121403396344602,0.20448435759614578,-0.006614274333429104,0.20430387390756863,-0.00821994819885953
2.233820435,-0.08101213414448084,-0.12141701744142336,-0.07297348932944565,0.07946428168774097,-0.03927426217194663,0.14424845768767144,-0.024088360959201888
2.284814116,0.08217352262062252,-0.267786884665893,0.03482778703888725,0.2868308056052292,0.034602906157036525,0.24118897973400263,0.03434322751465686
2.340366121,0.08217352262007056,-0.2677868846655308,0.03482778703794202,0.28683080560550295,0.03460290615646064,0.2411889797340045,0.03434322751391701
2.391832109,-0.0810121341463938,-0.1214170174392213,-0.07297348933311737,0.0794642816844168,-0.03927426216928885,0.14424845768819688,-0.0240883609573502
2.44353294,0.03456126952301537,-0.2405967188265388,-0.013730006859939366,0.3015489736899496,0.022709596029102455,0.23610870266872974,0.032775710678564524
2.49271011,-0.08101213414908454,-0.12141701743591055,-0.07297348933648298,0.07946428168024222,-0.03927426216863688,0.1442484576874568,-0.024088360956920577
2.5269801579999998,-0.08101213415027166,-0.1214170174333744,-0.07297348933816446,0.07946428167720584,-0.03927426216742292,0.14424845768608593,-0.024088360956217476
2.578380819,0.014720843284628287,-0.21275659019202628,0.004121403393368594,0.20448435759668546,-0.006614274335711268,0.20430387390800453,-0.008219948204793034
2.629425283,0.08217352262554012,-0.2677868846699037,0.034827787037793656,0.2868308056151923,0.03460290615897183,0.24118897973801515,0.03434322751392367
2.6806812239999998,-0.05314711326336219,-0.1518803366496032,-0.041849184186067256,0.10943588934787049,-0.05121421803510749,0.15260867741592565,-0.03927272519565973
2.731819387,0.03456126952740797,-0.2405967188281785,-0.01373000686168828,0.3015489736962397,0.022709596034319574,0.23610870267273476,0.03277571068159319
2.783048387,0.034561269528719574,-0.2405967188288867,-0.013730006861733805,0.30154897369765904,0.022709596036133504,0.23610870267369974,0.032775710683025934
2.831446643,-0.08101213415408968,-0.1214170174289085,-0.07297348934445083,0.07946428167027733,-0.03927426216409059,0.1442484576868306,-0.02408836095397159
2.865736718,-0.0531471132673203,-0.15188033664617767,-0.04184918419156279,0.10943588934146173,-0.05121421803513421,0.15260867741479167,-0.039272725196981904
2.900104041,0.08217352262988561,-0.26778688467258416,0.03482778703718481,0.2868308056232913,0.03460290616182274,0.24118897974050635,0.03434322751475852
2.9515595390000002,0.014720843283005484,-0.21275659019329013,0.004121403389664484,0.2044843575981704,-0.006614274338294444,0.2043038739095389,-0.008219948210611908
3.002701516,-0.08101213415673225,-0.12141701742575868,-0.07297348934819123,0.07946428166589828,-0.03927426216254899,0.14424845768649217,-0.024088360953168575
3.053961033,0.08217352263133748,-0.2677868846734467,0.034827787036259855,0.286830805625872,0.03460290616314779,0.24118897974185122,0.034343227515220724
3.10611462,0.08217352263101288,-0.2677868846733709,0.034827787035103586,0.2868308056266379,0.034602906163456564,0.2411889797419569,0.034343227515586106
3.151727193,0.03456126953412511,-0.2405967188311923,-0.013730006863273213,0.3015489737055646,0.022709596041900593,0.23610870267871548,0.032775710686208964
3.2024247580000003,0.034561269535473976,-0.24059671883256367,-0.01373000686274636,0.30154897370779654,0.02270959604247716,0.23610870267985504,0.03277571068658447
3.253878825,0.034561269536500766,-0.24059671883325603,-0.013730006862875881,0.3015489737086641,0.02270959604382875,0.236108702680999,0.03277571068739129
3.303012126,0.014720843281282144,-0.21275659019367255,0.004121403386701777,0.20448435759898023,-0.006614274341430623,0.20430387391027974,-0.008219948216179392
3.339228862,-0.05314711327321023,-0.15188033664267192,-0.041849184201259715,0.10943588933265011,-0.051214218035361345,0.1526086774150199,-0.039272725200063585
3.381505721,0.03456126953921519,-0.24059671883490608,-0.013730006862376323,0.3015489737126191,0.022709596046084607,0.2361087026832567,0.03277571068886781
3.4264709879999997,-0.08101213416267827,-0.12141701741702489,-0.07297348935726167,0.07946428165486166,-0.039274262157266655,0.1442484576848275,-0.02408836094962649
3.471671098,-0.08101213416188427,-0.12141701741831554,-0.07297348935742312,0.07946428165609143,-0.03927426215574247,0.14424845768671235,-0.02408836094800234
3.514589542,0.014720843281679458,-0.2127565901929707,0.004121403387104143,0.20448435759804637,-0.006614274343787807,0.20430387390987612,-0.008219948220512183
3.546389812,0.08217352263701613,-0.2677868846769686,0.03482778703400086,0.2868308056367871,0.0346029061675268,0.24118897974599127,0.03434322751713577
3.587482208,-0.05314711327536417,-0.15188033663918474,-0.04184918420493211,0.10943588932692294,-0.05121421803509474,0.15260867741352852,-0.03927272520128233
3.6393871239999998,-0.05314711327637292,-0.15188033663769976,-0.041849184206089116,0.10943588932476969,-0.051214218035258115,0.15260867741296474,-0.03927272520168123
3.691822045,0.03456126954344044,-0.24059671883599396,-0.013730006863232128,0.3015489737168288,0.022709596051105743,0.23610870268652973,0.03277571069218972
3.743935101,0.08217352263859015,-0.26778688467936496,0.034827787032920374,0.2868308056418315,0.03460290616933112,0.24118897974809836,0.034343227517913785
3.797047847,0.03456126954407501,-0.2405967188361443,-0.01373000686450715,0.3015489737184756,0.022709596053090253,0.2361087026874183,0.03277571069391019
3.849837059,0.08217352263958405,-0.26778688468009415,0.03482778703217687,0.2868308056437562,0.034602906170410015,0.24118897974888612,0.03434322751866209
3.902745718,0.01472084327964792,-0.2127565901920069,0.004121403383469658,0.20448435759704697,-0.00661427434546339,0.20430387390938282,-0.008219948224722579
3.955621952,-0.05314711327892879,-0.15188033663369852,-0.04184918421028491,0.10943588931748441,-0.0512142180354375,0.1526086774115859,-0.039272725203470735
4.007530445,-0.08101213416962308,-0.12141701740843117,-0.07297348936801387,0.07946428164338232,-0.0392742621514882,0.1442484576842205,-0.02408836094535664
4.058963532000001,-0.053147113280419364,-0.15188033663318862,-0.04184918421213295,0.10943588931588508,-0.05121421803601414,0.1526086774115938,-0.03927272520455528
4.111220116000001,-0.053147113279709904,-0.1518803366330958,-0.04184918421164102,0.10943588931532305,-0.051214218035818396,0.1526086774118072,-0.039272725204723434
4.163086408000001,-0.08101213416996877,-0.12141701740640938,-0.07297348936955968,0.07946428164055433,-0.03927426214914584,0.1442484576843961,-0.024088360943629032
4.214748614,-0.0531471132818028,-0.15188033663228714,-0.04184918421415615,0.10943588931390286,-0.05121421803655707,0.15260867741139064,-0.03927272520585743
4.26667475,0.03473856211879085,-0.23981845890307774,-0.013564550899453583,0.3008744735610445,0.022836246563877283,0.2351490075542708,0.03281465415657349
4.318028443,0.08567461554387128,-0.2658344753787481,0.0370272454312896,0.28753573508204394,0.03584962848736619,0.23375057577413583,0.034656017832564265
4.365468734,0.09033003680545393,-0.2777588485629651,0.03824900414183237,0.3048451781468349,0.03673341604868175,0.23288174943115783,0.03466488678441547
4.417688125000001,0.04834092186783877,-0.2658070937184392,-0.009614501248179853,0.3426553568699323,0.026589638107230196,0.22416257769519582,0.033246808994878904
4.469197028000001,-0.03520055599126942,-0.20461020422808082,-0.04066249158967768,0.18801958413833822,-0.04557428310036521,0.1426287738024294,-0.03806965069555823
4.510708087000001,-0.03356327532659481,-0.22827312622586995,-0.04544638510958157,0.22097982361145227,-0.044004625972884404,0.14416780510563534,-0.037643505268391456
4.5422439510000014,0.05475762573872593,-0.33416599430077204,-0.021063687437211584,0.43840267422980783,0.030194292976882614,0.22980492595945057,0.032259033171534494
4.5737421450000015,0.03490651783521088,-0.3175895533437063,-0.007771779218743929,0.35891977903111566,0.0031197379768745682,0.19903516387625364,-0.006839042104626235
4.609905237000001,-0.03423679737678925,-0.26805006493232075,-0.05900163576985401,0.28195239766069774,-0.041163960521124754,0.14973149153540455,-0.03635797332990162
4.643793100000002,-0.06213878021629453,-0.24285705206406008,-0.09273390916539022,0.2635110377506395,-0.029688589938143488,0.14068940636667468,-0.021942682171905235
4.693465226000002,0.10098631124144992,-0.3847645901736048,0.012279914320047144,0.4793366923887115,0.04659792176748641,0.2279749231735834,0.031426012841924936
4.740176194000002,-0.06619792644464936,-0.24682150850865983,-0.10583816851678172,0.29541126579232896,-0.02788069027863762,0.13616147603953416,-0.020709206236290568
4.789587014000002,-0.04585527263382368,-0.2696176444071747,-0.08628990061732311,0.33604091264322206,-0.03675350956497074,0.1455958996881895,-0.03253990460865325
4.841184133000002,-0.0835065623013924,-0.2233979282621313,-0.12667000340463047,0.30697722099961655,-0.02912871703426309,0.14179081063527582,-0.01954806538063928
4.892387622000002,-0.07166646563478808,-0.20993877815290898,-0.1089984713212471,0.31199885714357267,-0.038611061508480864,0.14842278422391447,-0.029887284154274024
4.943844788000002,0.004703357580015402,-0.23375873567189404,-0.07897917287804344,0.454808718152174,0.02841878231419992,0.22245830121423094,0.023447609775410206
4.995328419000002,-0.006440035151664844,-0.1664511259370905,-0.08011942752478622,0.40160385405782867,0.02569527196810878,0.2153672125417365,0.021868647145842655
5.047885649000001,-0.03512794576801243,-0.07592245122589172,-0.06715896774414148,0.2564135326086235,0.004751060815898656,0.18390166547024744,-0.0026000318893960317
5.0993809630000015,-0.11295176457738651,0.05223942354048722,-0.1116182989492688,0.10476123473933036,-0.04892650575800777,0.12529197539357906,-0.023202488476997674
5.148309462000001,-0.022877616340666262,0.034091772209941765,-0.06156818155924279,0.22956590987456457,0.0172928527340859,0.18863189296521898,0.017269983797762085
5.202739232000001,-0.11615003954320116,0.15583091946131442,-0.0948821548496618,0.010863356114225842,-0.053843793126399364,0.10932822305485164,-0.019841477209669223
5.254386180000001,0.033701722341312024,0.08377517277966834,0.012299593072363349,0.13789259048119468,0.03484648891250849,0.17488548462062892,0.009726661971794276
5.306250565000001,-0.11059150502479542,0.20244993917760853,-0.07613649270727912,-0.04319056301860004,-0.05776548066766078,0.09770505116708197,-0.01658045144003114
5.357277863000001,-0.030404894034558896,0.14205751479217377,-0.015718469262787742,0.03698295895850663,0.00010788828739329882,0.14533592504451617,0.0011890012622736475
5.3974986010000015,-0.1253494647590029,0.21469132034919103,-0.08623214178480001,-0.08869907536025244,-0.06131841298376944,0.09010960218031085,-0.007862042215412368
5.449856990000002,-0.1198398500170359,0.19839065629733554,-0.07972444074012462,-0.09172905139752233,-0.06259590897029402,0.08762309508656638,-0.007007759526947337
5.5017087400000015,0.06695772746198594,0.03670605324820317,0.056790802306408456,0.0931749875837448,0.037066114772771025,0.15647642901080516,0.0014126380515195177
5.547582859000001,0.019263969776303777,0.032305302560870136,0.0077370442166850295,0.11124487313441392,0.012259211611398674,0.14842239117545,0.008288265960432608
5.599832529000001,-0.0985122931544299,0.10492862389236723,-0.06068629254944,-0.0821717009445416,-0.06528098465918336,0.07669292382734956,-0.003929524010288828
5.651467318000002,0.08944559667744105,-0.072262585463159,0.07285811764989474,0.11459716057912624,0.042189411194311896,0.14628877119895015,-0.0022786199585374117
5.703558439000002,0.036588320694313184,-0.07766865752701005,0.01804807413786093,0.13830085833169292,0.014126597267373808,0.1407515136723202,0.006215616806864228
5.755352730000002,0.02105402479967902,-0.08854499758360851,0.02874324711352806,0.0652010922524055,0.007729357543798706,0.122345452780909,0.004198306099122749
5.808041329000002,-0.07999384181101078,-0.021529301060656952,-0.04902006039276739,-0.053204681604567594,-0.06786929868828948,0.06485287489054284,-0.00027229946247766396
5.860196823000002,-0.05150430935525488,-0.07188085818780586,-0.017065236004814494,-0.019906690671850857,-0.06509993890474221,0.06416632194307148,-0.004737926708277171
5.9096682010000015,0.029854835610882847,-0.14719189914896819,0.03372557907927584,0.0767092736324806,0.011178311694849598,0.11332646820134212,0.004622502918531155
5.940987819000002,0.046222928208309116,-0.18093221975951435,0.01987309532110136,0.15800447597287087,0.017112906543722772,0.12419366774086057,0.0047196787749729146
5.9927179750000015,0.03176193953714894,-0.16075088397859663,0.03400499336305119,0.07811734338462975,0.013404870794965761,0.10646041515770953,0.0047675655357777855
6.045013421000001,0.11002744673966951,-0.22334962350377696,0.08069607978026996,0.14739929112189093,0.05417220960777805,0.12422843128588107,-0.010270044313636822
6.097616905000001,-0.0436027224234766,-0.09511170678702399,-0.01008808259616005,-0.017877714992889204,-0.06429811196145463,0.049616597475204305,-0.002908496329722666
6.150029177,0.03122313933690532,-0.1549257338231615,0.03276060548560501,0.07378749104561232,0.016164232555120537,0.09802872643439886,0.004641657690826603
6.202312225,0.10800742941555327,-0.2122764744241371,0.07763135049482463,0.14012740612160227,0.05769701150685673,0.11556410460151605,-0.013046374480956467
6.253733629,-0.04052915003157351,-0.07413038066354061,-0.006143376975902393,-0.027394624730502914,-0.06269530326824398,0.03954388419404102,-0.0024397044074638326
6.297801727,0.03389602300379772,-0.15635726557153348,0.005711955551481317,0.14336128047763935,0.018357567241664235,0.10551338708032196,0.004804157974852055
6.339990849,0.03189251840084546,-0.1491568172793467,0.003699842036610255,0.14066857370823455,0.018395002704693894,0.10294085855157416,0.004821776778141871
6.374142164,0.028103304994851683,-0.11781014585885405,0.029041871315683275,0.06095854132389772,0.020668341032948703,0.08378251237213284,0.00413230934202773
6.409232848,-0.04027713228656865,-0.0472568354651863,-0.0054521161323097395,-0.033301617011927076,-0.0610967869427496,0.03129309447637853,-0.001447773635101214
6.459159368,0.10096571498732508,-0.1772030984871692,0.06869931387594802,0.12924438777700076,0.0630654115163838,0.10264579843463197,-0.016245417066788045
6.4918589529999995,-0.08892093850208535,0.012243813531054554,-0.059700134250671756,-0.08451573368534934,-0.07477900071170507,0.012460841521086202,0.011495724761171482
6.5233855179999995,0.09941259409139196,-0.17198044442933824,0.06661569420483329,0.12814367527054543,0.06441828623744793,0.09955818391187171,-0.016942455068259137
6.555665486,0.09888773840793538,-0.1700341964880363,0.06588377883932316,0.12731938208730154,0.06500677813353548,0.09784226816181558,-0.017165317847620164
6.606746665999999,0.02235163876935685,-0.12446628691896963,-0.005808587781488174,0.13309915984848425,0.017823707821028836,0.09174435539791662,0.0052324971374731995
6.657986632999999,0.027806885823023264,-0.09942081008550363,0.027678432713197868,0.05871592519117022,0.025141597922760515,0.07290090586395663,0.003112265038762512
6.690937987999999,0.02814326240744289,-0.09679811730153763,0.02773803535015897,0.057217352793405465,0.02630253106100194,0.06923341512634187,0.0029600255594980592
6.722718468999999,0.09630260693878112,-0.16438095509171918,0.06226170628181253,0.12447829882310588,0.06768591914284958,0.08977799143689304,-0.01815803109582933
6.7641398829999995,0.01730212976763172,-0.11463217707848108,-0.010866424991962269,0.12783812738978423,0.01765241760395811,0.08284366964243989,0.005904561564095772
6.796944373,0.026493044939468247,-0.08500510286098566,0.025102476399883673,0.054265084232101884,0.028305349784097013,0.06326034830105112,0.002588918958319083
6.848346941,0.09194904614002232,-0.15134754925073504,0.05690383750141742,0.12087405124365515,0.06921637442078707,0.08438324991354255,-0.018688433426727206
6.895916455,0.08957000513938015,-0.14460185860648,0.054108882202519804,0.11997946706719669,0.06966073373623237,0.08311049047490565,-0.01897730284327723
6.947082989,0.00849485012428218,-0.09194499489481482,-0.01977407462965986,0.12303138713029074,0.016731305914029992,0.07714651499468704,0.006474164997367014
6.998330586,0.023112044812103005,-0.06376926811038248,0.020626480454369177,0.052594766711318644,0.03084872570607411,0.05796861409458958,0.0016941985033327982
7.050411931999999,-0.09406572700440578,0.07567561042580828,-0.06612501440264548,-0.10616730921549426,-0.07527617867372557,-0.019816283138262926,0.01640137037242457
7.101693621999999,0.08273880984953769,-0.12038363949297695,0.04672294746550883,0.11162969014844497,0.07166605589646845,0.07459851507005967,-0.019651043909447805
7.153305998999999,0.0003432553557326107,-0.059980751763728926,-0.027109376293775866,0.10921613632263484,0.016116735475013674,0.06684316912797261,0.006972716561230666
7.201646319999999,0.01764647133158894,-0.018784929077297847,0.014041853191805731,0.03511965609979413,0.03463431146135101,0.044404299266503716,0.0008772692741821153
7.237428656999999,-0.03914720299495092,0.05880081292387557,-0.007550633129877873,-0.05589020625097438,-0.0480974082086304,-0.0035551317816939904,0.0009053427644072944
7.2791066089999985,-0.03959935656321373,0.06413660491347564,-0.008063553107121771,-0.05486254867061938,-0.047851104677821846,-0.002381368849186785,0.0009364328113885025
7.327234736999999,0.013825481980011014,0.003250453955740737,0.009966748999178543,0.034526724649043675,0.03545992840673426,0.045424437294995505,-0.0001130167435337854
7.376627674999998,-0.0109866810616022,-0.017756638606989034,-0.0368238536593605,0.09747443064262354,0.013907554015372761,0.062186889678547824,0.007619338929897591
7.428446998999998,-0.033376428486786805,0.06393995332235103,-0.0015940906248812226,-0.052224443523711445,-0.044991242701965015,-0.004689643328879278,0.0009658709214902736
7.480300417999999,-0.010492027685189462,-0.01839675687889447,-0.03492022579528436,0.09122080304487565,0.01362847794638157,0.05544958035129977,0.008378171534138888
7.530140390999999,-0.09407226294217223,0.1476786921973022,-0.06607707820326891,-0.1381097455880591,-0.07460327727894886,-0.04747503276731604,0.020131261660253634
7.561879148999999,0.06788920447853346,-0.06188285403510657,0.03271797964596364,0.07907383485357997,0.0751777201688516,0.050754756805484115,-0.02128357083181212
7.593574275999999,-0.026341543446170138,0.07250056334472338,0.004811160424312164,-0.06368212756664102,-0.03972886171693671,-0.01601844417840336,0.0009110216846031222
7.630407800999999,0.018424284290517248,0.012064131759581202,0.01468752611863998,0.020889675683577733,0.04105460735613654,0.029398305181485552,-0.0020414822874839714
7.662805785999999,0.018685833713469432,0.011340908040780286,0.014941377776428635,0.0213997105053845,0.041484913210690845,0.029073262267098988,-0.002336435804320875
7.696196784999999,-0.022312052394758253,0.0692781906626104,0.00845005110353645,-0.06119257680454526,-0.0373029218372458,-0.016635716839288932,0.0005898073074646244
7.727952469999999,-0.08990458886482228,0.15894439689361758,-0.06217634417071704,-0.15044775909827632,-0.07369963047996445,-0.06112015627161197,0.02187816425575486
7.770699489999999,-0.018411034151111935,0.0633745128678346,0.012003795583967945,-0.05987030392477283,-0.035222614913915776,-0.01873610981116726,0.00039992997862509094
7.809648263999999,-0.016025050130219688,-0.016426508768952297,-0.035769133471993564,0.07300441917957254,0.010280428234054687,0.04028074681535747,0.011353950300196335
7.862371193999999,-0.016074596056792203,-0.01977757860096019,-0.03518570585233495,0.07197110906760659,0.009868725290912678,0.03875646181990768,0.011760176349092369
7.893897758999999,-0.010657369385655327,0.050736170941242525,0.018931163809391967,-0.0585468468712492,-0.030843073300569887,-0.023505337465836537,-8.490774132389328e-05
7.9329531059999985,0.025249990264749365,-0.010757392528400293,0.021436424169516036,0.021956737772521315,0.04626783840836318,0.01857764861118199,-0.004249793639112065
7.965394721999998,-0.07902674649927048,0.14270851353429312,-0.05202610474682741,-0.15534320967081078,-0.07165310864593219,-0.07597484814304446,0.023448285371209604
7.997441754999999,-0.0036174628818016613,0.03423616962060916,0.025217067114898552,-0.05415796229466209,-0.027241207725208508,-0.02604617086323683,-0.0006289211095976688
8.038906799,-0.065490142712958,0.1084541345306259,-0.035836897976789496,-0.1415498015197642,-0.07334105838892704,-0.07421345466355078,0.02285608874345526
8.070429311,-0.015816135720358466,-0.040770515009072375,-0.031232129045539063,0.06458454738491894,0.007906200706575273,0.027741303501753287,0.01438438254140189
8.105175719,0.04094836367116982,-0.04770430748315717,0.03708362401351884,0.030884896605675116,0.05646324874000552,0.014813343706827452,-0.004936288441292901
8.157388195,0.041165365293939084,-0.0487383182319813,0.037241189774742015,0.030252291665926828,0.057245534526930875,0.013571018133061568,-0.005189468482812443
8.209014877,0.041325606089988774,-0.04942883841957189,0.03720942970266907,0.029367029841295855,0.05842671721188393,0.011959871680521726,-0.0055391143374350395
8.255459293,0.021966623774577615,-0.058362833657862656,0.0013131788573404052,0.0618327925012373,0.040102971775007476,0.02282417877373985,-0.011075523499335868
8.298412069,0.021204720899300998,-0.058994434375751165,0.0012741846971479204,0.060028661041778175,0.039982396093833736,0.021186442521513804,-0.010877192136773389
8.332718834,0.020744171602115558,-0.06046980447679831,0.0015157096175584528,0.05872442605084352,0.0399358002974981,0.01945966066479314,-0.010666569759541382
8.372061953,-0.05591801919111948,0.11013617767845742,-0.02889508423637345,-0.1553717916737147,-0.07107105402613015,-0.09462140715903583,0.025031284000731735
8.42412661,-0.05480395511494373,0.1109466465377264,-0.02820974751977616,-0.1569541562788757,-0.07067882339486631,-0.09702883638087124,0.025262936776841948
8.4702432,-0.05292037158429227,0.1086285659016453,-0.02687305565081105,-0.15651207349821916,-0.07024576103314019,-0.09888276925573557,0.02549281798791545
8.52184604,0.043844722421670874,-0.06561218596880047,0.038726116969208205,0.03362301154932114,0.06522891978885781,0.005289532551265772,-0.007622174314305269
8.575155957,0.04456012120503269,-0.0709594694261006,0.039323418003598926,0.035693240221514204,0.06622675120799479,0.004755577796524778,-0.007944972461819917
8.627814754,-0.04639592657455842,0.09869792624206437,-0.022087108766262964,-0.15536804082440275,-0.06836487202220426,-0.10592885752209288,0.02608188911470658
8.661395771999999,-0.04391420105808648,0.09394730611146983,-0.020240116092601672,-0.15449903836467363,-0.06762856765036618,-0.10828318258416719,0.026230268674010855
8.691597207,0.04697226872366921,-0.08692842088144478,0.04147355695680843,0.04058237705231404,0.06909100164871246,0.0016344923910254685,-0.008654005059199022
8.743025048,0.0191145468055183,-0.08545203683478673,0.006386996483111092,0.05080768083328327,0.03937883783110381,0.004192161795139038,-0.008215667059965164
8.783048613,0.04732364855079084,-0.09218407320886536,0.04170494269359401,0.04151864429985642,0.070427589376331,0.000229125039675958,-0.009029634094840444
8.816279395,0.018404421467537825,-0.08924643661381453,0.007101526349096096,0.048371039973597874,0.03910822653443517,0.001100784841324351,-0.0075768517331957115
8.849694713,0.0474959471415354,-0.09608350541010513,0.04179689667329575,0.04250426483082529,0.0715556776454616,-0.0009611093127550937,-0.00932935651544363
8.885546191,0.017759456464828356,-0.09092373730608357,0.00749426452145463,0.046328761046093625,0.038931858555003,-0.0012702124726808872,-0.007082358153217963
8.919029219999999,0.017354352197166814,-0.091233842458885,0.0076144837397028944,0.04509354683385133,0.03883807432852422,-0.002496496177629065,-0.006824273062371607
8.95182298,0.047264607223288395,-0.09877965915496342,0.041490228360934765,0.04286915827384017,0.07298125065738806,-0.0026933030138221337,-0.009687418917551614
8.994856341,0.016426273861366275,-0.09066182523906026,0.007667883344528514,0.04235890406599219,0.038647011317877816,-0.004811697496562448,-0.006329926402332597
9.047001107,-0.03229562966274028,0.09022950865892121,-0.013258168940199634,-0.15993582445710225,-0.06249017675140474,-0.1241646558179451,0.02666647022315062
9.088670238,0.04615627786330471,-0.0970790538544248,0.04035162222696293,0.04146366965180008,0.07443438944140765,-0.004755963264480115,-0.010043177469960123
9.140109523000001,0.014052786294362275,-0.08526314678995646,0.0071360157288035825,0.0357640111851284,0.03822497881686612,-0.009148717687605848,-0.005365141552140754
9.179391606000001,-0.029841698140044587,0.09880457355266148,-0.01246748453696573,-0.1644663273947032,-0.06066143026699683,-0.1289362480533523,0.026610014257371403
9.211670859000002,0.012237665555711638,-0.0793061842022701,0.006442826174353128,0.03094148845310188,0.03793562239921587,-0.011741702921362882,-0.0047561211683498986
9.243573411000002,0.011557070712116702,-0.07685711330649383,0.0061517600496723,0.029175913972672662,0.03783188402729522,-0.012626818145620056,-0.004541276795952783
9.295865520000001,-0.028593682688828864,0.10712975085210505,-0.01231707729723655,-0.1680968476570106,-0.059431349897779207,-0.13188637041684595,0.026529154461829355
9.340241416000001,-0.028072449195036833,0.111006263349867,-0.01231414281294678,-0.16934927384579693,-0.058907761608286896,-0.13271605023128832,0.02646121509403319
9.376261695000002,0.009310064700115181,-0.06955738733579096,0.005322704156580385,0.024462648280530686,0.03741077498868625,-0.015017112194913682,-0.003763613918705992
9.427638038000001,0.04179443615751033,-0.08126441888941688,0.03613169443151624,0.03567775092799595,0.07696863913823322,-0.008382573471992522,-0.010662849044617543
9.473580345000002,-0.026007003338898528,0.11767767699798483,-0.011501944369274958,-0.171579380172326,-0.057285489106022075,-0.13583856034780295,0.02631387645199903
9.506651624000002,0.040589463196264546,-0.07599125525759423,0.03501257061965224,0.03329453456102795,0.07756231363228615,-0.009712114216870786,-0.010759511458388566
9.538292631000001,-0.02528074642223347,0.12344840465308976,-0.011435936754262514,-0.1740345000835259,-0.05644164894547002,-0.13762165347959418,0.026219997905737598
9.570981249,0.006102433483971045,-0.056790626683601464,0.004063145039194253,0.015454662041636785,0.03705474419998754,-0.019827428205062503,-0.0025913516097109054
9.602391705,0.005509953911727587,-0.0543012935771017,0.003755882630915707,0.01396283998082054,0.03698118642882653,-0.02046133005484009,-0.002418249497036666
9.656504139,0.03860334048190249,-0.06696909307756066,0.03316792110453622,0.029601361041357403,0.0781521764288051,-0.011112972804657286,-0.010872158478343323
9.689253077,0.003944305504504475,-0.04765365140030753,0.002909763612558668,0.01022608712401793,0.036793659844069196,-0.021988276992839284,-0.0019784872521797225
9.725823626,0.03730009369986155,-0.0609410719684825,0.03196538361516359,0.027395682931298987,0.07846730712366137,-0.01183722706279421,-0.010938350386484339
9.776907190000001,0.03707042755602821,-0.06112306250498878,0.031761113017478144,0.028503805544569966,0.07851634877856101,-0.011161054451916008,-0.010998411781716427
9.823331340000001,0.002675609865589644,-0.0438089112526851,0.0025249631876291187,0.008532188800336238,0.03660836346560975,-0.023071982430331622,-0.001433562738341207
9.855796321000001,0.002221816994662087,-0.04200810345166506,0.0023836550350638565,0.00722318205270564,0.03659415003544303,-0.023897683647367995,-0.0012238453754849464
9.903750641000002,0.036187323802966756,-0.05706013635107269,0.031013114192949845,0.026881612083240438,0.07911250189421949,-0.012591143188817398,-0.011048079059600145
9.956788046000002,0.0012332968441731498,-0.03792354147178953,0.0019160759062859158,0.0045478025980359715,0.036510175523200086,-0.02516719261347672,-0.0008760118001436522
10.008525116000001,0.000538805279231655,-0.03496926024032515,0.0015308437568537017,0.0028249182932840178,0.03644031670682761,-0.025852829991627066,-0.0006695713550644404
10.054103834000001,0.03450422903373082,-0.049052598328254926,0.02950788866335816,0.02347315988094721,0.07950177704090479,-0.013771432107563321,-0.011109946774066248
10.103423578000001,-0.000807720527181234,-0.0291344465754807,0.0007267557395744181,-0.00024128829522632178,0.036304132614008375,-0.026947887115437053,-0.00030541850186059996
10.155342800000001,-0.021886631580968555,0.15727407612396727,-0.011526780889872443,-0.18495061127971985,-0.05152820584520844,-0.14525903594281264,0.02553587295983851
10.206831438000002,-0.0021133307394886024,-0.02344108923779739,-7.85036454244055e-05,-0.002967059400758504,0.03618140194304115,-0.02786701929893423,3.5732192210494174e-05
10.258842690000002,-0.02179280319454025,0.16311321968464706,-0.01182101382271903,-0.18660802142531124,-0.05090822460042939,-0.14602736387404402,0.025451974205526053
10.309961064000001,-0.0032819897260917344,-0.018427499012014487,-0.0007892538365872198,-0.0052504651041457295,0.036085496406991296,-0.02866285598562965,0.00035562394146600174
10.361758931,-0.021650583040401135,0.16762385608908675,-0.01200074732887325,-0.1877246372582565,-0.05036051778344963,-0.14662407320368892,0.02538762802977209
10.413073524000001,0.031193476037488663,-0.03267155404475321,0.02657784809962179,0.017895124847032005,0.08017088221560313,-0.0153410563603111,-0.011290931743085162
10.464475378000001,-0.004642234383261504,-0.0129208183931947,-0.0015657343535152562,-0.007733359590180788,0.035999373359027226,-0.029654155785787492,0.0007791102259081147
10.514924272000002,-0.02131415523347618,0.17237948483035775,-0.012071443642343367,-0.1886833238604983,-0.04961602228325611,-0.14734558795554975,0.02531605475453216
10.566767677000001,0.03038676405695829,-0.02877768626467146,0.025908206805896287,0.016724009596767668,0.08045974911420785,-0.01586260776817654,-0.011377854749109436
10.618098244000002,-0.005651383845625172,-0.009297301213433695,-0.0020819102802820677,-0.009450982566075822,0.03595922311614111,-0.03049578129209679,0.0011544895469670496
10.653096423000003,0.02999910901616148,-0.02697584680560148,0.02560257015173603,0.016171580439073647,0.0806446697413858,-0.016186093772249444,-0.01143601655463247
10.704508291000003,-0.006096444878563229,-0.007857048208766093,-0.002294102891907124,-0.010185935812941138,0.03594744643025452,-0.030898520332861945,0.0013384989121960622
10.740622983000003,-0.020653204843391195,0.1767696246856112,-0.011919753542168197,-0.18927890737427377,-0.04860318022351105,-0.1482242813503564,0.0252453990892738
10.774124131000002,-0.0065507792717928726,-0.006458852924140002,-0.0025073719735175214,-0.010938260300162622,0.035937210410180026,-0.03131942901905266,0.0015341247389041301
10.826467262000003,0.02952216271096763,-0.02477942258003501,0.0252428777662324,0.01543010304965152,0.08091406280590863,-0.01666352023061942,-0.011527556137717125
10.869264112000003,0.02938656359145761,-0.02413748164348392,0.025143030798346823,0.015191099091789784,0.08099574856082849,-0.016811949931829967,-0.011557564927945
10.921380268000004,-0.00712312787594074,-0.004726977078687966,-0.002782089808630709,-0.011911285258256188,0.03592384663884379,-0.03184422832166192,0.0017839082980965967
10.972266184000004,-0.02015111381076616,0.17948009076314592,-0.011764760636691074,-0.18961807597712102,-0.04786488617241193,-0.14881719863617432,0.025212408511395883
11.023057210000005,-0.020054394367146462,0.18008497192164546,-0.011738417285522704,-0.18970946180011206,-0.04770981406484001,-0.14893645260342775,0.025207738580306876
11.073249804000005,0.028925901571388073,-0.021805860258856637,0.0248071909439124,0.01424619370914152,0.08127618621090835,-0.017337438741306124,-0.011671038583978709
11.107646691000005,-0.01989117709758234,0.18123081809100744,-0.01169944814811344,-0.18989646969642232,-0.047430016304528574,-0.14914535457336564,0.02520166473190988
11.152797210000005,-0.01984088746088599,0.1816214384724002,-0.011689066836240256,-0.18996302812799018,-0.047338157121140756,-0.14921184566259132,0.025200391634579097
11.204781282000004,-0.008245604554502434,-0.0011838331763242282,-0.0033697377032797775,-0.013929610985840779,0.03588992915994316,-0.032797184575190874,0.0022625287358546305
11.256644952000004,-0.008430928315118312,-0.0005812763462135773,-0.0034731230350019664,-0.014270326571426684,0.03588368052680732,-0.03294379896503169,0.002340245009867851
11.309573399000003,-0.008609727359978961,-1.671831048877248e-07,-0.003574249447826295,-0.014598462795367334,0.03587765595014186,-0.03308284257203871,0.0024152559462837613
11.362024056000003,-0.008781862812171573,0.0005566775403660351,-0.003672756367549516,-0.014912846647463618,0.035871921631053114,-0.03321468340066008,0.002487670659515877
11.413788068000002,-0.00894727265282946,0.001087162752280102,-0.003768370571190857,-0.01521269461132757,0.03586652011779247,-0.03333968308052526,0.002557593498415691
11.463720071000003,-0.01952694033177802,0.18373299608069737,-0.011652070739989012,-0.18967774120123318,-0.04676645083705319,-0.1489472000942702,0.02517484949722879
11.515938747000003,-0.01866317738252199,0.17814292600658116,-0.010906234384423154,-0.18561276636176194,-0.046718379393079074,-0.1475183967974913,0.025120051767700536
11.569587458000003,-0.016625973673436906,0.16535615285712815,-0.009050349159350237,-0.17768165210304113,-0.046541666415129634,-0.14527267832446533,0.025021823194365925
11.622032631000003,-0.004352730751631563,-0.02915880019647002,0.0007143403951994209,0.0017396012948889539,0.03621569569017609,-0.029515026109369,0.002673900768686819
11.673722017000003,-0.0030860000426644087,-0.034901178785944786,0.0019797648035767296,0.0020918375036177717,0.03654125904306438,-0.03097862180724051,0.0027898046306340553
11.709665525000004,-0.012408369868018215,0.14663123627614166,-0.005061911642800784,-0.17373006138079244,-0.04540386509863839,-0.148109468132457,0.02497105474046369
11.762082565000004,-0.0029788554587394656,-0.03458216814486684,0.00213582570434738,-0.001627864887167152,0.0365544881014937,-0.03268531647354708,0.002947040520419889
11.814392317000003,0.034041646203325046,-0.04964452241302886,0.029871289317501448,0.023196613192470926,0.08256913753433955,-0.018040533364583854,-0.011826801672965091
11.865555752000002,0.03379449496634587,-0.049792199907959744,0.029596747581395196,0.024283250214778864,0.08226076901368495,-0.01636377599934452,-0.011863621637089502
11.916666496000003,-0.00390672999844488,-0.03088514576739415,0.0011697497212918486,-0.0031013980028208044,0.036043049931692495,-0.03116119182348029,0.00303951537055034
11.955541123000003,0.034155999264358,-0.05217927790979158,0.0299043743558173,0.02662347587415194,0.08209993956246099,-0.014608206817768756,-0.011863440092531074
12.004147757000004,0.03480299543486805,-0.055442541803671655,0.030487330180351064,0.028660978678801154,0.08212122733633094,-0.014013210291562345,-0.011847920251878492
12.056479920000005,-0.0023752927202096586,-0.03952112277182668,0.002437778779589601,0.002292127473680017,0.03599463514449748,-0.028990869647950862,0.003066620007079593
12.109528054000005,-0.0021390450572958686,-0.0391244123780955,0.002604838561075835,0.0008412622332093778,0.03609351522936738,-0.029813153930349223,0.0031268780110874535
12.154468764000006,0.03597684100744046,-0.05831348657866453,0.031570101338389875,0.0280618194592272,0.08222823010516667,-0.014516010436072837,-0.011658504136197628
12.187662352000006,-0.012228484541861713,0.14051890689717042,-0.004548417916505905,-0.17096139362235002,-0.04622109967565664,-0.14345020685847185,0.024185444055147352
12.226368655000005,-0.0014962066967710297,-0.04362616145185794,0.0028992099543483606,0.0039251791512418255,0.03569669386726168,-0.026974814577835904,0.003077054518656225
12.277577389000005,0.03753478357825349,-0.0667375746357529,0.03295922807753626,0.033117805700547794,0.08206130332696915,-0.012082321012710392,-0.011576118782894312
12.316961515000004,0.0003485210857653905,-0.05427567857972965,0.004371317174709163,0.01011288570766572,0.03564345095963828,-0.024512860678562107,0.0030102947770330978
12.365573395000004,0.04005603873537131,-0.08060449295883924,0.03527261417906808,0.040383309452499155,0.08206773438753512,-0.009777822150048666,-0.01148286936690954
12.418186415000005,0.00411633833861413,-0.07700905240790834,0.007593661961556034,0.02298859739946335,0.035654571492944265,-0.02014515601402926,0.002863270236170657
12.449819315000004,-0.005138948759406743,0.08620819306256121,0.0028064148566112196,-0.14201095235787398,-0.04669989288617522,-0.13366844692557586,0.023263077351590424
12.482098568000005,-0.003221684762159893,0.07246511489068266,0.0047289957013844225,-0.13526101943289862,-0.04680186761330389,-0.13156085059539804,0.023069830142790994
12.515418757000004,0.011872128026491593,-0.11836452431168912,0.014450121155088957,0.04155141901528092,0.036328456336243084,-0.016718066018602873,0.002744490177426534
12.548985471000005,0.05233663193548502,-0.14868403352357581,0.04672242791295859,0.07133893197933881,0.08248767992335641,-0.00244957377942708,-0.011065850359686085
12.582131137000005,0.01543359698010391,-0.13553384348636505,0.017511261294122414,0.046460289424574586,0.03657097958343054,-0.01609086757359751,0.0027064751082239505
12.632833709000005,0.0017415669880861129,0.03929073144964984,0.010193648346079165,-0.1268815795340293,-0.04684904657258507,-0.13091841151362998,0.022437362659878682
12.684974421000005,0.0014685779312642658,0.041851568584261395,0.010303619784696343,-0.13294739049889648,-0.046886111778883105,-0.1339640012803451,0.022304644407518726
12.741166580000005,-0.0007400199818159217,0.049243038293081465,0.008588038033553444,-0.13879252029460087,-0.04789908249278273,-0.13298302114298838,0.021999185999864092
12.781918753000005,-0.002802404712786165,0.05165669558971331,0.006986084618595428,-0.13857826634492307,-0.0492717119951995,-0.12829046953830342,0.02157733482421484
12.813485849000005,-0.003250485764928701,0.049599126402115945,0.006959463492374356,-0.13665732592932506,-0.049823802910710036,-0.12627619869074272,0.021281486265377014
12.867123830000004,0.055328074412474185,-0.15898908094644323,0.04935683198412926,0.07018371606204334,0.07961054070586711,0.0069653083197013695,-0.00988017868453395
12.900354135000004,-0.001982135842410332,0.030624755951634913,0.00903088591668997,-0.12560150433720088,-0.050974655267453706,-0.12018058238357789,0.02060138659373619
12.952182520000004,0.05940589318573151,-0.17420883330297365,0.05325517829972952,0.07588288704516016,0.07946094923405095,0.008592269303514656,-0.009363577533421296
13.003914583000004,0.06106209780559413,-0.17861044994452382,0.0548706951632311,0.0753436299526315,0.07914445638466536,0.008924329912600512,-0.009009957379400359
13.056503046000003,0.06257215684010808,-0.1833833203136253,0.05635384841789435,0.07543508730508115,0.07858600500504068,0.01016435139986829,-0.008662430753954517
13.108973968000003,-0.0030248470631204782,0.008182117377810078,0.010573145246389831,-0.12188425454817554,-0.054354898957272926,-0.11217617830899573,0.019056685378430326
13.156630027000002,-0.004179978877974638,0.004689403542380122,0.010288252986562663,-0.12240485968728682,-0.05553719957802167,-0.10958886883780716,0.018576720874005713
13.190986144000002,0.027745445902863444,-0.17068517288278567,0.023610438258616886,0.05570853353399158,0.03351575881035043,0.007400766303767972,0.0009670574922790477
13.243739831000001,0.029039154053908348,-0.17908204163640487,0.024380795695103416,0.06170850259104933,0.03281995470584825,0.013252944363607494,0.0006584767802293653
13.296740758,0.03237659542795864,-0.19281690548369187,0.026944107868927394,0.06876563999662948,0.03259991036540734,0.017528839806340568,0.0003805370483300624
13.333250987,0.035091541994403355,-0.19900982663032363,0.02891602841630052,0.06818490861056671,0.032732793300203844,0.017878961914383124,0.0002486362723884278
13.365144717,-0.008123752569929837,-0.02112877839128574,0.010797525610659879,-0.12278068806758015,-0.06093685224564073,-0.09818846261894537,0.016243247419094026
13.396565425,0.0707393266249062,-0.19995803331000364,0.06538056729855195,0.06052053714327226,0.07245917692172778,0.0186720396720147,-0.0057198621924734695
13.431452977000001,0.06835874310600225,-0.18392003546711586,0.06322749453112304,0.048281483727307506,0.07153944990927501,0.01655443963779036,-0.0053352685526639266
13.481865155000001,-0.021727884492963936,0.02509231508496987,-0.0003371470660835166,-0.15712753977742755,-0.0644859183447482,-0.09973337611002224,0.015324931639033864
13.532470929,-0.030734022818629442,0.05464224677998403,-0.008221229230885946,-0.17270555516523595,-0.06659953312639671,-0.09805911485091465,0.014842694440601554
13.584978329,0.01786282463860594,-0.08640489493456262,0.007878536640703971,0.003065904166839356,0.03020518603511227,0.015589922263973877,-0.00023788145394832566
13.638744341,0.04716939061562856,-0.08193104984312412,0.04303920577611682,0.0002460215854537505,0.06357992201463553,0.02184749118819835,-0.004008701200462016
13.677652584,0.04262635093303418,-0.061348087683784275,0.03864061865403959,-0.006304316211577083,0.06173059307023371,0.02316504253942592,-0.0036668849154254017
13.710089432,0.039901572273308254,-0.05065800788895141,0.03601353042962204,-0.008353301919072489,0.060320638258797805,0.02501138288109369,-0.0034751598149059186
13.741983639,-0.06425706690181611,0.13194885571513829,-0.037847537988212526,-0.19115909515885524,-0.07439665222244601,-0.07775769350531014,0.012623688067926546
13.7784469,-0.06842945965870054,0.13996446268186163,-0.04169957541675183,-0.19200691705892448,-0.07508761378045986,-0.07540749561425122,0.012365852079468359
13.815302836,0.03185179446611376,-0.018811148525472582,0.027986584658696814,-0.01608507424150823,0.05681261991566283,0.02718832089169607,-0.002901168059632014
13.856446015000001,0.0004958936107094386,0.00019330867930247853,-0.01659098373137958,-0.002513467513475115,0.028829283280574935,0.03290764176038037,-0.001354289896978991
13.889192091000002,-0.0014402563000226881,0.008625397032224341,-0.019707313887937,0.0007253533364365572,0.028802332151307994,0.035743023882189195,-0.0014982358744791788
13.921232687000002,-0.002706562586982486,0.014042379411946693,-0.02192382077681708,0.004514504601415642,0.028800727028573905,0.038237445885016375,-0.0016165416715370647
13.960194574,-0.0035699121440542214,0.016006793485607212,-0.02370957799929694,0.011235472513859146,0.028539059178385673,0.04255431362621865,-0.001801656453637699
14.009892927000001,-0.04323138302740597,0.0329651464112561,-0.058577154010129855,0.014667408949972913,-0.00013858130792234608,0.04283087422425342,0.0186259864345745
14.061031566,-0.04147693046150537,0.027466292646842513,-0.05730490735570041,0.027814613125088025,0.0006126659843430776,0.0485473321063409,0.017970599394412694
14.113020406,0.006046145625775962,0.022469186477224616,0.000966017307831045,0.008214131532015528,0.039130092798767536,0.04634026598578217,-0.0004543794550306776
14.148968444000001,-0.1041677079180137,0.16907508403955746,-0.0799794700074502,-0.14609979227556075,-0.07818575830531228,-0.03685593645151034,0.011030671496469807
14.201858029000002,-0.028404927658611245,0.06225400734979933,7.683886364151862e-05,-0.04296683411163224,-0.04029797042655994,0.01566543656109827,-0.01224153220877335
14.253958211000002,0.009845540780607911,0.006976342420233701,0.0047994334253402895,0.03117855962109596,0.03658034931244925,0.05604227456636603,-2.8561457237404053e-05
14.306182370000002,0.05138013090744378,-0.05582690495895232,0.019736489145002367,0.07909728514863776,0.06576888919616147,0.072867125332885,-0.007810183874338168
14.359468207000003,-0.03311432794478619,0.0516934845762744,-0.0034591171556424827,-0.02601473510170771,-0.046896649233899954,0.023721594521793808,-0.011848030545119735
14.410469279000003,-0.10549569173831953,0.13752362625103248,-0.0811368642760874,-0.10410545039947386,-0.07919369539442522,-0.011930059426071948,0.009248954553276572
14.455629811000003,-0.10640173157386981,0.13355337471318723,-0.08216103794595503,-0.09631214825029416,-0.07956052771608582,-0.006009582930268084,0.008778484621138541
14.504166112000004,-0.10645070828425574,0.12752981343719288,-0.08210902648891188,-0.0885867323550553,-0.07985299444749001,-0.0007355729225007324,0.008335344847284838
14.555183635000004,-0.01784558467016517,-0.021663283076458414,-0.041736756570854044,0.11441021340832558,0.006898290084201002,0.08662901615775713,0.013094755159785105
14.607582317000004,0.06575229221265724,-0.08262544824882642,0.034262521209050684,0.11990737534389141,0.06294338754300159,0.09731678084073785,-0.007503910447458455
14.660772548000004,-0.10044019992630646,0.08814478101949048,-0.0743610054658142,-0.06583852304090938,-0.08075546042846168,0.016025237489927804,0.006735308633014592
14.709617124000005,-0.035276044136681436,0.0027079066317570732,-0.0014614408907886942,0.004873926933906078,-0.060079153717746,0.04806155156564982,-0.012551014841088353
14.741730437000005,0.07889604287461606,-0.11862168747826916,0.050454116397450954,0.12792953460427095,0.059875074785326915,0.10677029711403803,-0.006823206778242577
14.781687484000004,0.0010988205955460226,-0.07206539550906965,-0.02118206891869552,0.12727081706271912,0.0076129612677482555,0.09861494524458175,0.012638366130051789
14.818380580000005,-0.033363233174653575,-0.01614868843817069,0.0021821948267875813,-0.0005830745608531307,-0.06290048989331012,0.05067153207973225,-0.013630181313753804
14.854216800000005,0.003922217819186967,-0.07792564997334979,-0.018314298772333364,0.12318419430356278,0.008170614510703944,0.09882600279065692,0.012902727197009722
14.889477001000005,0.004238738458486116,-0.07955225521211456,-0.018284709009503856,0.12330493208657883,0.008148337091847785,0.10062509263467344,0.012910400829191008
14.934407697000005,0.004256676294827871,-0.07891182083016517,-0.018643205008878335,0.12255717047810907,0.008462628584096063,0.10104560159559926,0.012997971588244298
14.966868148000005,0.003966156616081906,-0.079326340545384,-0.019455764167093496,0.12442582621278726,0.008485521597492107,0.10361738425591717,0.01305211438148044
15.010013089000005,0.020990764178202326,-0.07336169275902865,0.021650283252265118,0.0732001799275221,0.01662877443858903,0.10159194282771176,0.0026240642539147752
15.056114182000005,-0.045187726962389096,-0.017746630386440088,-0.01107287152334055,-0.001856359763633686,-0.06734861962920577,0.0590055429959239,-0.015257763515349002
15.094320759000006,-0.04808138975792267,-0.019258668820925015,-0.014257160509882155,0.001598861669199092,-0.0685030146907305,0.06285471627092204,-0.01547254808355813
15.131683096000005,-0.05031399738110656,-0.019165896268817928,-0.016685650543149175,0.0030867862376787736,-0.06916802673566677,0.06486656816039486,-0.01565634772825513
15.184302315000005,0.004548210457639451,-0.08523266252904066,-0.01992285289384547,0.14080612499679296,0.00734242478832027,0.12022483414174151,0.012689020321188592
15.235453829000006,-0.09949443773789185,0.02616903207153133,-0.07336975260683078,-0.040568481044224,-0.07841507692007332,0.05654359595826892,-0.0017273601929327824
15.287572608000007,0.07853406961946692,-0.12977332924781734,0.05249489064180671,0.13765246582359622,0.048084532882941,0.13360024853711205,0.0010736201904534438
15.335204587000007,-0.056964570264759984,-0.021418515812037145,-0.023327902851033575,0.006933475515618931,-0.07178042241711009,0.07544195142336102,-0.01725345184743858
15.367909655000007,0.006497460153071483,-0.08224847051598198,-0.01774771219234314,0.145039720011145,0.007386651069223135,0.12886319030421198,0.013602026403719096
15.406372294000008,-0.09864843828397987,0.023885865267065612,-0.07352119321799214,-0.03071944607642213,-0.07552553119422982,0.06794874134074586,-0.005106940233430123
15.444411025000008,0.006011207155290743,-0.0823773653573601,-0.01866433613100392,0.15234304469760035,0.006994912926799074,0.1346607416576086,0.013883435661317622
15.494272933000008,0.0740112110191877,-0.12352687466481997,0.04787526396294167,0.15013519083892585,0.04368358665072014,0.14580389303634167,0.0056306702254718295
15.528902040000009,0.009980222105371328,-0.07309647565888194,0.011034464492728088,0.10220521258744203,0.004506044841247566,0.13435094778681897,0.0021721171932658143
15.566366659000009,0.004495163912715719,-0.08052934842102702,-0.02175196469645514,0.16741106397332195,0.007546386264009705,0.1428137960463044,0.015297347521286475
15.618364320000008,0.07054988033619244,-0.12136846395902258,0.04334717917187786,0.16652688226917323,0.04120782285585031,0.154852124517537,0.008102240437846612
15.66050480400001,-0.06801128349898587,-0.017041469146484217,-0.0392968912745139,0.03705299125436845,-0.07084006575060593,0.09359705498658424,-0.021473745232054437
15.703260408000009,0.003300635739303115,-0.08145073181807076,-0.024603352639032836,0.1856104978911676,0.008115023245676076,0.15141858420795073,0.016781103106780458
15.73546312900001,0.0056429295897949695,-0.07430974633555705,0.00457787151130884,0.1296265482772918,0.0016058729954498965,0.14691977438662626,0.0013153244071737562
15.77270864100001,-0.10212491152082107,0.01525877481630282,-0.08264179152870638,0.020174406383991858,-0.06819280583122966,0.09290188441327994,-0.010728781805795935
15.804677950000011,0.06665470276091959,-0.12323634749301976,0.03698681616566052,0.19673327432284166,0.038356594029911414,0.1681533585006952,0.012029896146078509
15.83754538100001,-0.06967858494795508,-0.021455362845277395,-0.04492491842795983,0.06379682233377387,-0.06840358667360263,0.10316435202079757,-0.024102368317782313
15.87034891700001,0.004373473763034345,-0.07979534928148112,0.001351201300869461,0.1513183032452686,0.00031879848090583807,0.15445325571816873,0.0006159593420844156
15.90294192900001,0.0657188006135951,-0.12828979239448873,0.03434247794719966,0.2142813234439908,0.0373771388324971,0.17466971798512126,0.013898367658834426
15.936563478000009,0.003609292330111799,-0.09422397740008845,-0.0288822296607067,0.22889652324800125,0.009925986202762999,0.16783556855392734,0.019627834256668735
15.974607692000008,-0.10045959018040378,2.7693784810364774e-05,-0.08505658167719216,0.05558836865292671,-0.06339029904297201,0.10471076947060999,-0.01329222900852718
16.011407838000007,0.004513694531797688,-0.10132944232987229,-0.029310048767825073,0.24167070513372801,0.010456466171273132,0.17263342369864781,0.02043432100673849
16.052531229000007,0.004977263726100023,-0.09491975469138143,-0.0005280348775298684,0.17961690318548915,-0.001148717536858081,0.16410624040299518,-0.0004141291793384738
16.104675518000008,0.005451628039323636,-0.0993269201857514,-0.0005030581559578584,0.18503846807758617,-0.0014823388236571457,0.1661033234685537,-0.0006581120641546909
16.14250086400001,0.06656138542104631,-0.1502756499629453,0.03159346233302822,0.2500854980471529,0.035518208388963836,0.18861158888238244,0.01799875222243782
16.17545603400001,-0.06484201214399299,-0.05289286330207277,-0.04676690174143305,0.11236987716957506,-0.06379501315966674,0.11910331635771951,-0.028481259001762738
16.211830841000012,-0.09423901737938169,-0.02796753233782273,-0.08281289263015312,0.08773178335808476,-0.05815455715720436,0.11454751732327682,-0.01581350307714745
16.263844715000012,-0.09306173727615162,-0.034142694172924606,-0.08230388706610006,0.09324616638388296,-0.057558665284596425,0.11654409506618246,-0.016175522546373874
16.316300855000012,-0.06147794133137957,-0.07147584647294829,-0.04556670590558268,0.12785736416137805,-0.0625245899374555,0.1245868535762157,-0.029868889010920285
16.360443339000014,0.011363349965128763,-0.13339495734474643,0.0018612756529019885,0.2147319668929709,-0.0024942889989363164,0.17435438388438768,-0.002042519043984503
16.412438139000013,-0.05799264399288789,-0.08567584441767308,-0.04399839325903321,0.13783621847620453,-0.06122479954202725,0.12677119615412244,-0.03076694776738358
16.464620337000014,0.01462206497437301,-0.15030415252285065,0.003091829028137375,0.2283386179424957,-0.0026736101949371774,0.17784848468810163,-0.002515464483846132
16.517105803000014,0.07617822436010302,-0.20559505872584605,0.033140211921349874,0.3000327559982774,0.03550318549964283,0.20307008822990408,0.023127639525472726
16.570052371000013,-0.05195685683157761,-0.11369065344689851,-0.04220605783423885,0.16105577424360254,-0.059036985170159303,0.13082417235591665,-0.03192975974953614
16.603258834000012,-0.08112723852875102,-0.09484552964318524,-0.07730669374801605,0.1380926119397402,-0.05165076370093629,0.12791237180823373,-0.01868516739841072
16.639003263000014,0.02196602203681057,-0.19893454156573964,-0.02414549896892159,0.32843614307659214,0.015327632472186326,0.20299804323818008,0.02585890540728108
16.687630163000012,0.022103693543834346,-0.20219557538659266,-0.023847923707908652,0.32738577078036174,0.015227046413954767,0.20419974626414894,0.02601383529607508
16.739628063000012,0.07793990531384609,-0.2344883413655059,0.033290000093488856,0.31063999354413496,0.034340561612556005,0.21176461060200547,0.024856973903665005
16.78977321200001,0.018885009215102215,-0.19117731906424584,0.0055202016904167955,0.24194549707253465,-0.004450526259820668,0.18682749473605936,-0.003800372290130343
16.84054802500001,0.02402814290604338,-0.20995915985671545,-0.02077847619141494,0.316768817926759,0.01493661824524016,0.2064210365910685,0.02663347723573528
16.89240001300001,0.019787257649507905,-0.19366724480355574,0.0077314809094043875,0.23185709986854453,-0.0050965968523486935,0.18655153726040102,-0.004016906474255386
16.94392608200001,0.07973814432675003,-0.24339855472106425,0.03698596154859213,0.2955239837088927,0.03291783586461261,0.21464547840483733,0.02596246111776093
16.99542735600001,-0.04876815288603942,-0.14172249187217134,-0.03612680005314342,0.13940150863630374,-0.05947246811003794,0.13759039594375247,-0.033988113429942485
17.04659770500001,0.02597356771990099,-0.21678436130172452,-0.016647378242151633,0.30128317488331624,0.014471638353742572,0.2083682477384768,0.02724868760231572
17.10024355400001,0.019974696227552588,-0.1996117117101591,0.010761781581770269,0.21577573612423023,-0.0066609601230608745,0.18850891033428463,-0.0044483879987155875
17.13932250500001,-0.04863842980999136,-0.14375266457986485,-0.03387844379698225,0.12587288385448,-0.05989067223786666,0.13818614350832162,-0.03440315737336913
17.17190860300001,-0.07737541429332775,-0.11605886253399585,-0.06725549597754538,0.09468956400320297,-0.051179727318362116,0.1317324006344645,-0.020422678283390828
17.22299955800001,-0.04848758214780646,-0.14420654154072934,-0.03291479557185771,0.12063410382932899,-0.0600074953834369,0.1383147642239769,-0.034561825793172185
17.274714693000007,0.026878585235865005,-0.21948301907153786,-0.013341774447588214,0.28577269094917296,0.014079691938123182,0.2097879712976087,0.02773918579516968
17.32678268800001,0.020177276710704545,-0.201381858614034,0.013397983384864965,0.20129916961843786,-0.007609432824629003,0.1890353519516326,-0.004736489632086713
17.37819360100001,-0.04820870054207821,-0.14532584171134375,-0.031506291808297546,0.11349605985124112,-0.060050957827511825,0.1387144039853207,-0.03484544125500365
17.42886804000001,-0.04816888274428588,-0.14571016107684623,-0.03126763658158302,0.1122124076030046,-0.06001141601020178,0.13889123477977453,-0.034923709644441095
17.48255752000001,0.02754417420115529,-0.22165884507327566,-0.01186281978792137,0.2805503330302339,0.014225119643887396,0.21107815238875874,0.028084262749383943
17.53363417100001,0.08046099814744591,-0.2512139148446513,0.042282370966729405,0.2662127069041319,0.031159416246121133,0.21865074383160357,0.027684467134003517
17.57989595800001,0.02769182558091654,-0.22244111880166012,-0.011676779475375813,0.28000658157785885,0.014411063559411783,0.21177883555039534,0.02822769448000846
17.631353124000007,0.027721173184380568,-0.22264589187466535,-0.011674706924845527,0.2799764575472192,0.01450264176406589,0.21207525922603424,0.028283937112198246
17.66591714200001,0.019819075699028715,-0.20338806702926776,0.013892640934357596,0.19635684091387448,-0.007873121208471327,0.19041360210222416,-0.005043665559133444
17.69763825700001,0.027736267676607446,-0.22280453834310113,-0.011751975841272314,0.28007731887175696,0.014683753441326136,0.2126123174254769,0.028381605588805613
17.72931168900001,0.027732820720166737,-0.22279542417528697,-0.011797255863115686,0.28013854662731547,0.014751016370746162,0.21280009754530244,0.02841478017038724
17.76187752100001,-0.07735127813548764,-0.1182830280201256,-0.06519475468399769,0.08113197354137182,-0.050029012868103157,0.13353416732502937,-0.02107095736266097
17.80928133400001,-0.04874037447891043,-0.14620755888432724,-0.03172557300308429,0.10941098147785569,-0.05928974941444515,0.14036440976544304,-0.035350119586677296
17.84381125800001,0.027706820138719293,-0.22255887161163185,-0.011984419439993794,0.2803649376648218,0.014986202608334616,0.2134247428953599,0.028522314122852166
17.87653897600001,0.08003189820999208,-0.251374517993437,0.04147548114085667,0.2663791054954231,0.03143093356611369,0.22060691442179395,0.028269376462126124
17.92635796900001,0.019114666241604954,-0.20253997916823116,0.013047409378573491,0.19613344673220737,-0.007776022870598968,0.19125454270068487,-0.0052013929974273
17.95848558700001,0.018986459671825447,-0.20230692487941684,0.01288467876395694,0.1960811320923562,-0.007753738091618639,0.19139510680350214,-0.0052284951800988175
18.01047752600001,0.07989200298711345,-0.25095559813088136,0.04116755632668889,0.26653162769967814,0.03152707361648523,0.22110562696548397,0.02840998871941481
18.044303877000008,0.027718320956989964,-0.22196774432746919,-0.012258017570938994,0.2806675345341525,0.015371785211217862,0.2143959243511516,0.028680089128475278
18.09574626200001,0.07982897007106603,-0.250747385230349,0.04098588860241767,0.2666273931192364,0.031592433971252686,0.22143968091457686,0.028501305544136924
18.14759348100001,-0.04945008093312586,-0.14464725728369848,-0.03278225365873813,0.10854877626687828,-0.058611982716712016,0.1412722480440757,-0.03554253965105747
18.19944403900001,0.01855920456957666,-0.20169935475745482,0.012300125273631415,0.1958529458995623,-0.007657466741356301,0.19195353911413177,-0.005334494075041572
18.24744389800001,-0.07703180710708153,-0.1164985806536592,-0.06457391757129609,0.07992631510341118,-0.05045162548595648,0.13481708718954688,-0.022406143679663065
18.30020116100001,-0.04371726649028043,-0.14417298117049032,-0.025558954964341962,0.10793437323149602,-0.06154435833716808,0.14195860245990055,-0.03707268672556549
18.35198376900001,0.027470822183666872,-0.20072331641353763,0.02396504967540057,0.19488645044668773,-0.01167803488986421,0.19264051774644814,-0.0072209450496281136
18.404572470000012,0.0898302039899617,-0.2492541110996016,0.0542410365380184,0.265561947303275,0.027688978263955305,0.22274019473214396,0.026963511361046463
18.457121356000012,0.03751522004649431,-0.22041827843392064,0.0007977407084263331,0.2795529401965946,0.011697577541931473,0.2160460964725603,0.026895812010626054
18.50257681200001,-0.06937240180250219,-0.11439681700862926,-0.0541288295622116,0.0777948523865811,-0.053078688102475895,0.135185531309984,-0.02368512207374353
18.542071326000013,0.08865983190304377,-0.24924317270157548,0.05262960006371767,0.2655473735805393,0.026547593744956847,0.22321152855808898,0.026241093431350324
18.594839318000012,-0.06980341656255953,-0.11428127799445371,-0.05510999207799555,0.07759553306564983,-0.05368672898500747,0.1350935806752758,-0.024320190123445867
18.62681792500001,0.03599708262598082,-0.22086807981259754,-0.00199974728421122,0.2798884809748144,0.00983698686474302,0.21655666802614598,0.02564643308897193
18.677502616000012,0.026337968034338216,-0.20000210159470194,0.022326371574332194,0.19396434073186544,-0.013998815575955996,0.19291228636905342,-0.009188038245127816
18.71122239400001,0.025694007810176726,-0.20013785405619816,0.02137429839414469,0.19398249436270154,-0.014592546566861757,0.19291648874749262,-0.009712715350638432
18.755237563000012,0.03472506828565079,-0.22130190341911993,-0.004104666329093787,0.280081388173242,0.008523806442010048,0.21669314830265865,0.02466249103157156
18.790078386000012,-0.07047577333421307,-0.11458517447011943,-0.05669488169162899,0.07736178458628498,-0.05709704194148466,0.13460695022569424,-0.027185599462901604
18.824305519000013,-0.07017839867592938,-0.1144257150090795,-0.05644352603761091,0.07714915531559516,-0.05734397781671888,0.13442720957501547,-0.027424381590091907
18.858271345000013,0.03518137629609806,-0.22148872249122056,-0.003570179421106122,0.2798992305380233,0.006221769943394226,0.21675900451373206,0.023214118291356202
18.907168612000014,0.03456427278247719,-0.22150494073890215,-0.004278158558313268,0.2797791298395717,0.005998010643483792,0.21667904284190867,0.022996466517489836
18.959321961000015,0.08555167261141501,-0.25034233076763474,0.04782181851529963,0.26564806410836633,0.02106731415004634,0.22423649003647378,0.022570221071094236
19.011967168000016,0.032822380788879515,-0.22216835457159617,-0.0059197743359875946,0.27979655759151223,0.0034615671581450375,0.2166175889825816,0.021267676921984863
19.063750729000017,-0.0709500004955135,-0.11458461165338164,-0.056709432988225,0.07632846643708426,-0.06172200938541135,0.13309552031995148,-0.03119980874985928
19.115844234000015,-0.0720388991791179,-0.11452931921809238,-0.05783029964747047,0.07607584699007996,-0.06170743194408354,0.13261103429404858,-0.03143787590782272
19.163535341000014,0.032646822364911704,-0.22258311254674745,-0.0049981351659786,0.27915052204134505,-0.0008130930601813191,0.21632880575237273,0.01862762354076098
19.196592077000012,0.026597360410473066,-0.20050993056077146,0.024499854331812926,0.1920282711368256,-0.025833719622079775,0.1922685178519234,-0.018041687124196036
19.241987213000012,-0.041367071997426966,-0.14324291468003053,-0.019853651193408088,0.10412391845675556,-0.07728402820258326,0.1395701632845785,-0.050045684204160584
19.287488922000012,-0.041176317908355256,-0.14329910814656457,-0.018854633188375866,0.10387439870133913,-0.07898264167172121,0.13925391346441726,-0.05147862049990377
19.331590638000012,-0.04136682892426645,-0.14348597980655528,-0.018369250784076453,0.10376992638056837,-0.08061409473511259,0.13897342938625712,-0.052625685773264236
19.363547549000014,-0.06937313998198087,-0.11441156871295434,-0.0511526267685598,0.07433170098719336,-0.07109879670512767,0.13031230421529796,-0.038466457235313875
19.397436127000013,0.08367962665652642,-0.2513596904198182,0.05059830111919424,0.26303841818871143,0.007943215585257665,0.2244985233492773,0.014165393139775113
19.432241186000013,0.02911736577174924,-0.22312915133778874,-0.00499942068150111,0.27715819000298164,-0.00900707770316736,0.21483717796109555,0.013284618472321985
19.469386324000013,0.02747493488884599,-0.22362086162749445,-0.006439206869708683,0.2772248720862427,-0.010007053940408073,0.2145922550636363,0.012566740012654627
19.522174105000012,-0.07258442964983247,-0.1155365448257043,-0.05332751536613418,0.07445027623828362,-0.0746582370479704,0.12868301923742903,-0.04162786082615887
19.57395313600001,-0.04486592127827055,-0.14537584974921985,-0.019104054548085968,0.10401355936066606,-0.0875881838131776,0.1369660472897405,-0.05877309597503818
19.62257765100001,0.023013816438716906,-0.20244158209780674,0.026289943464796038,0.19032276351402946,-0.03894864521638794,0.19049715452162289,-0.027970123746509354
19.65633939100001,0.0796082950772269,-0.25397394436689974,0.050239682570991796,0.262369748827709,-0.001816952528511065,0.22422104069468896,0.007769651020086844
19.69119261100001,0.025393780512625808,-0.20251430463016126,0.031084863272790926,0.1895177226652424,-0.04323340682338146,0.19017863178125213,-0.030791940623233316
19.72693060200001,0.025660030175353538,-0.20234030769928524,0.0322511032221571,0.18903521758776978,-0.04399288899241576,0.18989129840752564,-0.03135044664194465
19.75973938300001,0.026321019299223994,-0.22572025232081672,-0.0011017343358496901,0.27552757189962496,-0.023535370384468457,0.2125017117664852,0.004339214775716513
19.79945753400001,-0.06900972632222117,-0.11658976265157522,-0.04291746769400644,0.07324023109430174,-0.08678699013624284,0.12520759826914876,-0.05061159349184638
19.83688233700001,0.0231916652848536,-0.226349968960406,-0.002814015734581855,0.27523374916407284,-0.02521930475475717,0.21152557486694964,0.003011634180845657
19.87168739600001,-0.07147351146623948,-0.11796476941400626,-0.04406926923246179,0.0739802461618212,-0.08959040776854359,0.12416470956780132,-0.052969683748607256
19.90370701100001,0.07650544202032158,-0.25571060576942367,0.052945163936587596,0.26075052061294896,-0.010955555589984331,0.22333849858314397,0.0022205177336308
19.937006219000008,-0.046217646001668417,-0.1496318111088248,-0.011188110512909702,0.10545004585502193,-0.10325548720309971,0.13346752759992478,-0.07142576976927821
19.973267778000007,0.016064926504195054,-0.2293749893511432,-0.008607820133604222,0.2765470342277484,-0.028748979903962774,0.20996196378347515,0.00046465664714091803
20.019651398000008,-0.07760069185385368,-0.12174363277520399,-0.049260429974238705,0.07677335848187358,-0.09278772294326056,0.12208416939825008,-0.056288152696345316
20.056561932000008,0.06700753757074399,-0.26063277733297974,0.04409974417939959,0.2636014151207576,-0.01368392636038794,0.22245038516784849,-0.0001665824853446865
20.108471617000006,0.009094809303819937,-0.23426732706534653,-0.014504992382493202,0.2796600054279014,-0.03297410002909036,0.208536360344643,-0.0025555905377225158
20.158495412000008,0.007339256551722025,-0.2357922493628591,-0.015487366735236431,0.280578196998267,-0.0341403903132729,0.20789110615624234,-0.003468900806118891
20.20906804600001,0.0640533295945313,-0.2649778367977514,0.04396175539819403,0.26596200883581617,-0.018673452461411277,0.2218596641488423,-0.003521784606384762
20.24246572000001,0.06448556237348084,-0.2658304196752955,0.04593759991694136,0.26623871195921767,-0.020446448093673283,0.22167956443347245,-0.004446070860051499
20.294548497000008,-0.08071182117278711,-0.13002542547249696,-0.047281846295033035,0.08353693498641364,-0.1010399104916558,0.11901089273218622,-0.06310945965258602
20.329144702000008,0.005798840711139522,-0.24003327748845413,-0.01174655531626563,0.282911336665961,-0.04067603417229873,0.20605312886818683,-0.0073209204550365725
20.380679593000007,0.01586389296523487,-0.21564307680766248,0.0353512987828877,0.19634403304543735,-0.06418746503692828,0.18610105021370388,-0.04652569418700046
20.43854998100001,-0.07691892447781357,-0.13174862795940293,-0.038368001060830506,0.08509692893627635,-0.10676229174892765,0.11813788002154811,-0.06683614770686319
20.486198888000008,-0.04727672701972009,-0.16362621292109167,0.002192586115478179,0.11789626868657277,-0.12271765927383832,0.1305973064665554,-0.08651930898138616
20.519614682000007,0.0201176425641757,-0.2151768130464409,0.045721768986468986,0.19560327022534654,-0.06946557235604159,0.18550056024000589,-0.04959684400435392
20.553459869000008,0.06841771371377156,-0.2667045018030429,0.06180684621863566,0.2649433000861,-0.03144634686716738,0.22018565724911,-0.010671500589639865
20.59397123900001,0.021061850605455935,-0.2148756564210987,0.04893081970589637,0.19539047941128254,-0.07146388508460391,0.18523597293669944,-0.05077669598384208
20.625948892000007,0.021045809137723904,-0.21485559625900885,0.050011870607981596,0.19547564749289467,-0.0724014927547868,0.18505752982296764,-0.051365880980619956
20.66002200600001,-0.07233814601020508,-0.13213038480929326,-0.025478484766017016,0.08656873937054127,-0.11485424574306409,0.11674711604810174,-0.07212982512747902
20.71328114100001,0.00888495564169009,-0.23944580189759831,0.004964141134329931,0.2812314413147056,-0.05374482957230428,0.20228073625082368,-0.01449637103411755
20.75324128700001,-0.07195291354194341,-0.13226485747931652,-0.023195709361849212,0.08734927831500366,-0.11671843412470795,0.11631303432767719,-0.07337157617768461
20.79071734900001,-0.0708890946676971,-0.13215887341575028,-0.021037288511803642,0.08750366854212839,-0.11840533388332992,0.11626446899331971,-0.07438086672873494
20.834162221000007,-0.04237864443732933,-0.16427651820911024,0.01800554360736406,0.121230022034361,-0.13376101275068805,0.13007831364630892,-0.0939665650748559
20.885326133000007,0.023272700176003865,-0.21329688408847822,0.05795148727724725,0.19469166305399604,-0.07850187332601162,0.18426972033610783,-0.054900546119725425
20.938093648000006,-0.07130448011525128,-0.13271923239224026,-0.01929886196550118,0.08900959551188262,-0.12062686824943289,0.11567554505308753,-0.07597962909581801
20.989684568000005,0.06732338673912949,-0.26422240650851053,0.07074918455449744,0.26220665928386805,-0.04136742893187935,0.21768827157074047,-0.016490458563764687
21.038060652000006,0.0055311902051092265,-0.2395059032013493,0.008029898512115993,0.2814869767565395,-0.061768459632110695,0.19932343006348632,-0.01923044035132372
21.089453684000006,0.06761876057313172,-0.26390575602182337,0.07282361865582576,0.2616622231807553,-0.04384362834750952,0.21724051097118954,-0.017961656976453945
21.122204291000006,0.006124573566081884,-0.23889197560409264,0.010524256990360515,0.28073480370476694,-0.06394520643048557,0.19850659479148364,-0.02040200949440872
21.156834590000006,-0.0699023847177366,-0.13433881080029708,-0.014528945542377755,0.09175787614681344,-0.12542824013096562,0.11529452405781697,-0.07905717995197702
21.208989131000006,0.023784355310725473,-0.2135949249624096,0.0632043317710973,0.19540887358025097,-0.08453880720306968,0.18352682029900194,-0.05841386509145992
21.260910260000006,0.06837184995606396,-0.26252320345059965,0.076765445748617,0.25974706091331384,-0.046829892727602546,0.21629479285564607,-0.019611358993606484
21.313263166000006,0.005391458597771015,-0.2386445362398519,0.012640163838017712,0.28014728247037557,-0.06691150123415451,0.19713162580059418,-0.022066698162631224
21.359516132000007,-0.06891083174483735,-0.13574719581508393,-0.010961982239582016,0.09376625903451964,-0.1288222081501681,0.11522302307992088,-0.08114231900140782
21.411379326000006,0.0682861824670572,-0.2618536717234872,0.07890596093890072,0.25856270680563576,-0.049082656953400194,0.21552231934543065,-0.020931174721149415
21.463766325000005,0.005514041789924984,-0.23831296464214746,0.015076386643043104,0.2794503149902601,-0.0699236760419879,0.19614415941023025,-0.02377909365366035
21.498133887000005,0.02664043518046895,-0.21242117508225,0.07025971977899062,0.19407085741861438,-0.08940917334919432,0.18304220021182174,-0.06086509972843963
21.548601378000004,-0.038308460798380864,-0.1686555163225701,0.033732910546950774,0.12954108011942386,-0.14774521341327357,0.1308998569376112,-0.10310062655895194
21.593254317000003,0.005705764604938338,-0.23717731693561706,0.017253315489327736,0.2780583392441722,-0.07171458710190814,0.19512662704466593,-0.024640941957954743
21.627207507,0.06856382147464127,-0.2599298708743004,0.08245953496928073,0.25592158502197315,-0.05221644316783802,0.21432104406177335,-0.022724195346819548
21.667398919,0.025707020030351205,-0.21261135229525702,0.07062641971390782,0.19430659207159703,-0.09074574183348563,0.18265898935398403,-0.061578791365856506
21.7007203,0.0043746285286171485,-0.2375694613545381,0.01678592865966029,0.27832257617754724,-0.07308612584495326,0.1943644228948806,-0.025455736886654715
21.732854833,0.0680213945710913,-0.2597275362605749,0.0827617623190696,0.2554705995753689,-0.05338968545279815,0.21381802760106627,-0.02345140250505487
21.776715268,-0.03965608505520149,-0.17130719817345036,0.03419820428715781,0.13338277612084914,-0.1501715753775651,0.13128855025985045,-0.10476084848782352
21.823541153,-0.06780168798276562,-0.13883509111825373,-0.0058804294234068855,0.09836559780389953,-0.13435873495056014,0.11526282471494745,-0.08444821400551686
21.874821413,0.06734922162785023,-0.2595278451507986,0.08287273225914661,0.2550416604918435,-0.054179431206016954,0.213228556930831,-0.0239232718354572
21.926576603,-0.03991957740204327,-0.17289651790169558,0.034900272166848635,0.1356753425036113,-0.1516458985929466,0.13162646988278331,-0.10569503260465982
21.971281517,0.0023508657973451627,-0.2381056674224684,0.016566742490602096,0.27867673169922585,-0.07543399302362641,0.19279638027095455,-0.026815164617527823
22.005290259000002,0.06794653989985644,-0.25882472930872497,0.08515818960244471,0.2540310453368367,-0.05662259624454,0.21277184205142557,-0.025422818686167165
22.039361466000003,-0.06476682754758253,-0.1393215302812254,-0.0007092137287833117,0.09957468176758406,-0.13789897407487414,0.11573662506071469,-0.0862803981181844
22.072204340000003,0.005617897830228813,-0.23562442152194102,0.02199489106954613,0.2760094114326194,-0.0781931565917471,0.19235039756968292,-0.028106119249955888
22.106234540000003,0.030197422482032988,-0.2098785114163306,0.07924217038468961,0.19171024293064357,-0.09613015648442567,0.18220867880429506,-0.06396348456389155
22.150294055000003,0.0074087366359393975,-0.2335552281939718,0.02522580647894497,0.273859705586771,-0.0794871611077155,0.19194928375292605,-0.028657875136520974
22.182790746000002,-0.03323515534159506,-0.16966666066393654,0.046337707138430585,0.13366339655769183,-0.1569744074950334,0.13236213114273093,-0.10830607913306745
22.215568294,0.031061166949369338,-0.20778320320872393,0.08146910736598756,0.1897600801051217,-0.09689523926855553,0.18183194332126615,-0.06417497545350472
22.257872095,0.0717421563859122,-0.2527665516281806,0.09292658662860943,0.2475963964338576,-0.05986048753732051,0.2115651580147641,-0.02690023620384245
22.304894676,-0.03477111347760012,-0.1704414312399717,0.045164365106103097,0.13511138175848272,-0.15743873830926786,0.13236667946506864,-0.10864000557636425
22.339052668,0.028498704094349427,-0.20870724732813262,0.07857185096207152,0.19096737305587255,-0.09699514824850383,0.18147847614885265,-0.06424428943071314
22.37700986,-0.03667087482884619,-0.17222183664840054,0.04297876139563443,0.13736975218228667,-0.15789049948501352,0.1324376435990668,-0.1090779901394149
22.410741797,0.028003198732742998,-0.20937492804760743,0.07788193186015224,0.1917090896606298,-0.09783276698394608,0.18144502012038802,-0.06468392706822995
22.45818018,0.06900617049136386,-0.2535882684830928,0.09001668737493605,0.24829023627504,-0.06107302676601428,0.2107639920980743,-0.027772453713385242
22.491186847999998,-0.036443107330220936,-0.1732076553260366,0.043472682234782234,0.13883730256397264,-0.15922694182919503,0.1325966313859585,-0.10981605746103726
22.522674789999996,0.0697004006976982,-0.2531245326998389,0.0913651240219768,0.2476155556116447,-0.0625609579360974,0.21056288938494788,-0.028597081301470734
22.555878629999995,0.004174737511415137,-0.2333332641780517,0.023646270697037508,0.2735613465180565,-0.08331279725586103,0.1894795493068898,-0.030733169523895293
22.589304913999996,-0.06263998003926212,-0.13984354851294475,0.004443292432607576,0.10203599896777552,-0.1434008001682857,0.11563990518884358,-0.08901874300125424
22.621564616999997,-0.0348675338765127,-0.17303615116806909,0.04630065252179163,0.13910236430031947,-0.16111667924521755,0.13270687311828772,-0.11066575643008938
22.662063350999997,0.004575965954505309,-0.23272368844110622,0.024994868874715637,0.27279511249599103,-0.08463395184372731,0.18891407709254518,-0.03135124893826975
22.700731983999997,0.004030366150299253,-0.2327845876598767,0.024651502501388128,0.27283243874881785,-0.0847131626607112,0.18859390526426378,-0.03138972819165875
22.754099598999996,-0.03568070597051977,-0.17386228938268172,0.04604625588650316,0.14040779240280396,-0.16160095742844005,0.13254382804115628,-0.11090932228463572
22.789070597999995,-0.06467319157755026,-0.14215559903449806,0.002686935748356753,0.10499945498176166,-0.14403130978206077,0.11519317388966242,-0.08933749418527742
22.831986895999997,-0.0657384498731223,-0.14332500582461927,0.001326513389413364,0.10633404246594699,-0.14393524583313944,0.11512040931494576,-0.08932621677403225
22.867991677999996,-0.0013060867231250647,-0.23662362345421473,0.01855941812849594,0.27681715126730244,-0.08426463359033366,0.18741822310213654,-0.031300400937072675
22.899720660999996,-0.04015939007532954,-0.1789435156534754,0.04074543172462215,0.14642103737599238,-0.16147681755920337,0.13242486261077974,-0.11102206486714869
22.934381953999996,0.0242786705920532,-0.2127445659392727,0.0743356279340216,0.19543913815881947,-0.09970310656234845,0.17998110732263523,-0.06513649295366795
22.988815537999997,0.06448591807943825,-0.25581137245187374,0.0868246837448413,0.2498438584700881,-0.0634086104078679,0.20848554460104007,-0.029180804793609863
23.040396682999997,0.0644686503554538,-0.25603996610788826,0.0871091528875053,0.2500491901335362,-0.06366628709947675,0.2083024776695151,-0.02930258304214496
23.092429152999998,-0.040472764982367265,-0.18151795113354208,0.041215093134714484,0.14987355657343326,-0.16245416674117807,0.13248502700322956,-0.11145246403448109
23.143479339,-0.00254674501138865,-0.23889826667888878,0.018505019444523037,0.2792820064199877,-0.08559024010007824,0.18611255089388143,-0.0318620413157351
23.194900028,-0.0022621584745544515,-0.23865119939084925,0.01938205507442346,0.2791159079197834,-0.08596195318785882,0.18587178875179153,-0.031987792038117996
23.242749921999998,0.02562138631682235,-0.21281849534112887,0.07768844809482482,0.19608810380932412,-0.10103986270352176,0.17939811701736783,-0.06523942367615256
23.278304330999998,-0.0017081184965437937,-0.2378745588970142,0.02115326190540858,0.2785686325460486,-0.08670073366407756,0.18540099049759617,-0.032231790269369384
23.329797976,-0.038658797172993475,-0.1814992906079836,0.045828106434258845,0.15134950608657338,-0.164307463764912,0.1326421842570077,-0.11207594654735806
23.380748741999998,-0.0013655007646432293,-0.23707880294960437,0.022460145106973688,0.27802400690846507,-0.0873002814041987,0.185010338426115,-0.03242892837658409
23.427701943,0.025436770718045305,-0.21170468235446704,0.07870146963765719,0.1957208949141647,-0.10056646167153013,0.17884319987721098,-0.06446763563322352
23.459308379,-0.07084733547820855,-0.15149094430805932,-0.0020889339464991857,0.11794824751917975,-0.1428120458369685,0.11434586157215186,-0.08823132300489485
23.493958228,-0.04929466313805121,-0.18913154149370928,0.033605749496551166,0.1609120438287702,-0.15959934781388857,0.13216338603609643,-0.10984197937462072
23.529325955,0.05217299468605205,-0.26299281424257387,0.07525157865414861,0.25862566297409467,-0.05931280576168285,0.2059784988123586,-0.027209348740720785
23.56279444,-0.08003949726436906,-0.1618734838566809,-0.014325692046303823,0.12953715690094897,-0.14071830321703482,0.11487821483641279,-0.08763206506897889
23.608561032,-0.015253490570988543,-0.24939902927751892,0.00498585029314037,0.2920191949213915,-0.08261839711169865,0.1841717847649743,-0.030618189602623913
23.642498963,-0.0110783556705919,-0.24687349769447833,0.010438433114781823,0.2893973027240236,-0.08415708809326829,0.18433452810604808,-0.031230029943287038
23.682459586,0.06084199316352891,-0.2591595872355533,0.08651245798651337,0.25470273674990934,-0.06356954628903834,0.2065006962217096,-0.029372128483994675
23.71690225,-0.0046008901360092835,-0.2411785157274064,0.019882949040627672,0.2835275455078017,-0.08616626696277645,0.18436236531637026,-0.03189775126974673
23.769891972,-0.0014851863463957726,-0.2376822063179442,0.024852594671001028,0.27999108386548155,-0.08712564760239863,0.18431019633646395,-0.032187207067417026
23.803741927,-0.03536769422735815,-0.18184508200189992,0.054056506045722284,0.15504004580979827,-0.1653646712681635,0.13445207931000766,-0.1120134006409258
23.854606624000002,0.07014634713653344,-0.24693070626061076,0.10213501365804495,0.2424679804515253,-0.06625945387384517,0.20600365246545402,-0.030244181030971318
23.906462665000003,0.0685953253158883,-0.24586932513346757,0.10084086353670609,0.2416781966987938,-0.06488464710179496,0.2055660541992743,-0.029538979478745717
23.939575429,-0.0031293257810193903,-0.23216193939976537,0.02571799424341644,0.2753547600719494,-0.08532075460894671,0.18355926152236127,-0.031030594216468463
23.973619218,-0.06712187072368334,-0.14991185696216464,0.006541728779464531,0.11929224441798747,-0.1443017649561357,0.11743247509070086,-0.08833923503274321
24.016320700999998,-0.006752186098218531,-0.23423968568420808,0.02106111912106058,0.2778592954679263,-0.08469141159989406,0.18363684349739268,-0.03102556182068074
24.049571033,0.019267945452237176,-0.21195948179685253,0.07445323486516964,0.1988290002882961,-0.0964236742291254,0.17904653522409977,-0.06198344161598626
24.090927359,-0.04793549479354377,-0.1877547634069043,0.038756777604854825,0.16325365601773525,-0.15904386940043844,0.13539704229911673,-0.10897922280818634
24.143492456999997,-0.01513145851424344,-0.2398267586649865,0.009585778287910546,0.28403357276287944,-0.08075077781742038,0.18356754692642593,-0.02949206283665054
24.195801492999998,-0.07701783999508255,-0.15942782994884755,-0.0077911446589980365,0.12978722959066588,-0.14003131764669377,0.11917572673422173,-0.08665096897584766
24.2341454,0.05427435443472951,-0.254073295716656,0.08132526996484539,0.2509316228264067,-0.05851883466519597,0.20507882091029442,-0.02738744034179727
24.269394157,-0.013001960839204504,-0.23836907732796497,0.011720809577146687,0.28230166067419743,-0.08046394265650884,0.18424566450874222,-0.02944975545132207
24.30327892,-0.04627405877837083,-0.189092402933228,0.040245631006647534,0.16457878851957183,-0.1591153940381552,0.13786618911142354,-0.10926511939581214
24.354300019,-0.0710544166363703,-0.15577413971130252,-9.243276391678046e-05,0.12566310762106692,-0.14024779471055548,0.12125669876165479,-0.08623771190183716
24.405574795,-0.043687301797342384,-0.18591237784905612,0.04420888348660095,0.16121128605800658,-0.158447281619782,0.1386141241415671,-0.10875370875993477
24.457552906,-0.06867692329970362,-0.15295055560167298,0.0038256342208972116,0.12265689294258159,-0.1402948939660654,0.12239759344688561,-0.08630431834840033
24.49066877,-0.06473581114480807,-0.1495226131857088,0.009119266864340073,0.11900972938809985,-0.1413815476870925,0.12340847052258144,-0.08672484807258435
24.523756262,0.06643553824387052,-0.23907462416029884,0.09896041174143257,0.23490800614454022,-0.06022218160996243,0.20521111481504117,-0.028258476107244593
24.575830456,-0.060084548214756395,-0.14525757394329675,0.015363841413468804,0.1144680477767108,-0.142653048042682,0.124470509597947,-0.0871823442545093
24.628039594999997,0.004327906897359443,-0.21750668198112538,0.035725785898778194,0.2602321527009895,-0.08296387504774715,0.18608496495199767,-0.03022589724648969
24.679846998,0.03378998173382414,-0.19597643241157559,0.09421318502472793,0.18144713871942947,-0.09747748841308833,0.1825002502577962,-0.06290594248702924
24.722349878,0.00494038431422298,-0.21378295988114343,0.03608762455060285,0.25629071444531615,-0.08106722157872844,0.18639963007736074,-0.02918765638843948
24.754964346999998,-0.0584368362599727,-0.140442303375079,0.016895668108531617,0.10912886463839552,-0.14043742843305015,0.12674707608547323,-0.08586437210263616
24.788404937,0.06842929313096337,-0.23059211811613703,0.10062381210725338,0.2258464403857331,-0.05737794352147246,0.20493038317193707,-0.02703016230369766
24.828027959,0.026843372493972364,-0.1984773763910351,0.08332201636531478,0.18373404809746668,-0.09233328535214444,0.18302327644191027,-0.06052477622130437
24.868425603,0.024093565664114653,-0.20064761250649127,0.07918049602159777,0.1858151329995569,-0.09160241665372316,0.18325470708434533,-0.06068653027221938
24.902370925,-0.06585589875600634,-0.14653691632360064,0.004258928484592028,0.11474157858133796,-0.1363206675172486,0.12853531457532483,-0.08418902713110483
24.942193504,-0.06536505178664186,-0.14692735469640936,0.003865226142300074,0.11484427693947653,-0.13571286901342908,0.12905109188672248,-0.08372933047038704
24.976596113,-0.06520981095359009,-0.14733624297823844,0.0033832581662451983,0.11491723862097694,-0.13513463778536516,0.12950986161673694,-0.08358142508403754
25.012623067,-0.06599943838911673,-0.14796694860658072,0.0018173260017172455,0.11528724781120987,-0.1337610759376382,0.12981018291296853,-0.08288444953337261
25.062781091,-0.066198460971549,-0.14857631657711787,0.0009987344631937622,0.11563380011706013,-0.1330944481575771,0.13029574646298497,-0.08246530847609065
25.097544666,0.06310150963700709,-0.23635282658249618,0.08738976960802604,0.230176321608429,-0.049916202902474255,0.2055086584392665,-0.023848067679150778
25.144144054,-0.06546078736280365,-0.14881440875950852,0.0007566514508272754,0.11525334553544474,-0.13151604768835187,0.13126669864441173,-0.08161711539946988
25.195365425000002,0.0639352818808009,-0.2360632704630744,0.08734173790382906,0.22955474170144058,-0.04814880864595859,0.20562550119878045,-0.02290009487698034
25.246752020000002,0.06397342160163226,-0.23595539359808,0.08679356295672032,0.22933619767715546,-0.04683375006987121,0.20567024874021705,-0.022186110779269894
25.290587183000003,-0.037780141741562204,-0.17807713773915834,0.0418784687905985,0.14900170680580563,-0.14486414931888145,0.1470826566088533,-0.10150445213956644
25.335619445000003,-0.06734191149020055,-0.149452190930889,-0.0038605930736455296,0.11513534133785251,-0.12584024243858155,0.13302142270917316,-0.07853775419698875
25.37469172,-0.06872684463077078,-0.150169116293143,-0.006477401242087816,0.11580587454753018,-0.12409774677258982,0.13353845271774864,-0.07735773495416547
25.408442970000003,-0.04175487219578437,-0.17961096718910505,0.03461494379026995,0.15026447425052922,-0.13993959910523987,0.1478813898282141,-0.09891817345462102
25.444279189000003,0.019195462106614554,-0.2062758884331503,0.06398598081415349,0.18924152971491429,-0.07760712454062091,0.18620019759436215,-0.05422227045984811
25.496124024000004,0.021108051115340483,-0.20572959140439923,0.06584741892113845,0.18863403225230635,-0.07820050128632208,0.18663858300471423,-0.05448545511045092
25.546558375000004,-0.06761587466102828,-0.1489813568009141,-0.007492567651142049,0.11427834233302961,-0.1204934345488596,0.13520444395236275,-0.07538751213094602
25.579877848000002,0.02184710946775857,-0.20424217397098438,0.06545918564553116,0.1871495080442122,-0.07436117515732336,0.18685152951772915,-0.05225534974947647
25.613535637000002,0.062009590842568685,-0.2354504851490522,0.07833746457219953,0.22937059297657647,-0.03507070811942008,0.20615854599916203,-0.015712600034053975
25.662935728,-0.001512249363080559,-0.2165459359637778,0.011551064232783154,0.257408716525256,-0.05446010378147065,0.1926039650900231,-0.01593166259481539
25.715491528,-0.0038374382067645416,-0.21662221610090188,0.007578154513827054,0.25768037341892025,-0.05056250783077333,0.19270764026694398,-0.013776628810878336
25.76693272,-0.07592579684552844,-0.14963031153292808,-0.021197009190102763,0.11484253559719027,-0.10923050560010313,0.13698260862249853,-0.06871547474427143
25.803414577999998,-0.011315090196382063,-0.2194586492587336,-0.004357873624382641,0.2609388284294013,-0.04493472033348725,0.19359706074981894,-0.011077640051462945
25.836878294999998,-0.011142428739216115,-0.2192989737242354,-0.005487101062841913,0.2608215015652125,-0.04307620624365384,0.19395758430318802,-0.009922154320089208
25.870177741,-0.048484148366837454,-0.17796153956662805,0.01644847990124157,0.1473406122005324,-0.12112093066198425,0.15091036174440417,-0.08779393207521366
25.906834358999998,0.014553205188741616,-0.20591627062792914,0.04994979642563086,0.1889675401160153,-0.06145104921352826,0.18836959155646657,-0.045175142228877085
25.93909883,0.018400798928754687,-0.20426286701284355,0.05431892893256893,0.18712615040625424,-0.061352481750425715,0.18869979738748674,-0.04480972848343757
25.971706861999998,-0.06789718730815728,-0.14536365544229232,-0.015542666867787942,0.10939079404096545,-0.10481479241350505,0.1403067614012892,-0.06530123302551005
26.005064004999998,-0.03497048763899757,-0.17103095216329664,0.03152691115498289,0.1392211173182449,-0.11963758521712697,0.15235683165016758,-0.0855370528755188
26.041965956,-0.06163548849815011,-0.14188241845972568,-0.00793587391743275,0.1054453970944812,-0.10354288669281257,0.1412457530545614,-0.06381867731998177
26.076242440999998,-0.059447556420114706,-0.14043167624447297,-0.005279770802076381,0.10380130629244025,-0.10252819065197319,0.14168361739054092,-0.0629303559579101
26.120833153,0.014048549630191948,-0.20764964140275868,0.022078397118170102,0.24868900961753115,-0.0377703438802654,0.19730304865177073,-0.004958081286517729
26.16519856,-0.026413658785474498,-0.1653472448607963,0.040611375145312434,0.13265414680499157,-0.11461178477698437,0.15344040439164983,-0.08126322357232768
26.208218808,0.07643160304567757,-0.2275192740931717,0.08580601665541414,0.2224852122036032,-0.014406834809310848,0.2077737842009829,-0.0017990971387065666
26.254793639000003,0.01674507043710599,-0.2067215844645524,0.022294306201740516,0.24816451047737642,-0.03200919583751358,0.19877460494218122,-0.0012439647368424345
26.298336978000002,-0.05775577914379512,-0.13823773496250716,-0.007243409462501613,0.10104363841310574,-0.09407620855801532,0.1442229110401651,-0.05684273877954082
26.350721355,0.018317375003569003,-0.20742460558230078,0.020830735022155406,0.249248987917651,-0.028279210253674233,0.19996118119064293,0.0011214559459270385
26.403000827,-0.057388635977002285,-0.13859550000125748,-0.009964565736904366,0.101225181021897,-0.09052562807962786,0.1453478134395037,-0.054295305522371974
26.457260604,-0.02622311611183399,-0.16537413059329426,0.03156902529785155,0.1317697049194858,-0.10266418271312631,0.15545097293196747,-0.07284198695037937
26.500261779,-0.0577182611159524,-0.13919400451119776,-0.013903648809359334,0.1017134216899372,-0.08619287540336552,0.146357139351118,-0.05130271430427251
26.552707191,0.03224430908206955,-0.200487711215785,0.058519372606569364,0.1837929638078046,-0.041325566556521406,0.19227468682816803,-0.030476289899063896
26.603815789,-0.05999385381364373,-0.13997777384748752,-0.020193921123851467,0.10254014612042621,-0.08139014787394985,0.1470569410840876,-0.048139573466319634
26.659644599,-0.06180639450884729,-0.1404378011151729,-0.024166247833361368,0.10304574918889149,-0.07915053562554338,0.14736065120020234,-0.0467931354493583
26.691211457,-0.06446738931246127,-0.14069990871619337,-0.029606872423177277,0.10342960283128086,-0.07550446043934553,0.14752110737056495,-0.0446074391602174
26.725133414000002,-0.06618918124400783,-0.14107281568222968,-0.032805782549464556,0.10384468267813926,-0.07431962220867419,0.14773288111869237,-0.04386707384099181
26.758806224,0.024168429356406312,-0.20421567546095987,0.04007393372533251,0.1888846312781064,-0.030305554887834558,0.19311811675368365,-0.023863062406665997
26.792598481000002,0.07185235989082045,-0.2380507033033196,0.05694215065664878,0.2377379975071123,0.011911235476148904,0.21131324912827418,0.014625294982960231
26.844247575,-0.06887453003728496,-0.14105345057470922,-0.03991756194916703,0.1040561602341783,-0.0697796236880794,0.1482262590671298,-0.04087202928013686
26.877303357000002,0.0720153346778391,-0.23889934271607913,0.053954414745996604,0.23955977145863486,0.015305454037585889,0.21184063733708128,0.016815641796698984
26.909477944000002,-0.037609113058439544,-0.16680741548656566,-0.0006840263048169468,0.13315346975685355,-0.07967514836855398,0.15663736648336096,-0.057508091571978504
26.942806238000003,0.01840271280391568,-0.21552249757939487,-0.0033777312810681368,0.26222375126867875,-0.0006448351704720912,0.2068028671925706,0.01766318375244931
26.974952215000002,0.07450199252445208,-0.23927613600151437,0.054131369160344354,0.241090438919126,0.01798659120480342,0.21252494307742822,0.01880564196878741
27.006909603,-0.03584793632839707,-0.16525818833781647,-0.0010063870820669202,0.13175436250265432,-0.07656019391971948,0.15672475463242,-0.054922705282433794
27.044338936,0.0233038091003359,-0.2152691233012271,0.0002577767831983181,0.26301336174796563,0.0011956571213162237,0.20792574876726178,0.019193525889838574
27.077209228999997,-0.06042122731142239,-0.1374610715928653,-0.03422046027264014,0.10105646799478384,-0.06716626741660571,0.14952939902316348,-0.03775779525650459
