hisham246/franka_example_controllers/results/tau_nominal_original.csv
Joint 1,Joint 2,Joint 3,Joint 4,Joint 5,Joint 6,Joint 7
0.504619,0.0302867,-0.350129,0.0500064,-0.248168,-0.0304378,0.255673
0.250352,-0.0355013,-0.219052,-0.037035,-0.152023,-0.00169457,0.0843789
0.0495862,-0.00881026,-0.0688865,0.0208693,-0.0439291,-0.0359732,-0.0184557
-0.00382609,-0.0292905,-0.0327002,-0.0161273,-0.0220899,-0.0180733,-0.044154
-0.0180133,0.0392362,-0.00345951,0.0747995,-0.00285413,-0.0469699,-0.040221
-0.0453955,-0.00664586,0.0270457,-0.00266237,0.0165239,-0.011843,-0.043435
0.00122854,-0.0128289,-0.00787311,-0.0251535,-0.0116699,0.000651051,-0.0149826
0.0518772,0.0296107,-0.0320048,0.0611101,-0.0282036,-0.0563874,0.0106374
0.144881,-0.035929,-0.125516,-0.0332017,-0.0921496,-0.0240601,0.0459567
0.0732907,-0.00981536,-0.0564394,0.0259189,-0.0389248,-0.0563212,0.0010355
0.0623694,-0.0340117,-0.0654902,-0.020974,-0.045412,-0.0328694,-0.00635869
0.0526348,0.038183,-0.0445725,0.0753223,-0.0280661,-0.061055,-0.0118576
0.0207224,-0.00494497,-0.017819,-0.00320607,-0.00821466,-0.0250132,-0.0228139
0.0375022,-0.00695914,-0.0372191,-0.0262782,-0.0244365,-0.0130177,-0.00929685
0.0656049,0.0357145,-0.0413246,0.056114,-0.0263165,-0.0693413,0.00186907
0.128232,-0.0282399,-0.115924,-0.0373403,-0.0761228,-0.0372158,0.0309215
0.0485677,-0.00502365,-0.028365,0.021896,-0.0110391,-0.0671438,-0.0201239
0.0307554,-0.0276625,-0.0340848,-0.0228454,-0.016841,-0.0452888,-0.0194065
0.0280959,0.0407638,-0.01374,0.0714883,-0.000904779,-0.0715539,-0.0196849
0.000146553,-0.00225838,0.00972507,-0.0081567,0.0159963,-0.0358821,-0.0246765
0.0215465,-0.0037632,-0.0174767,-0.0337633,-0.00677501,-0.0242165,-0.00468961
0.0578742,0.0393396,-0.024769,0.0475631,-0.0109599,-0.0808811,0.00603875
0.122634,-0.0237534,-0.109322,-0.0458507,-0.0661136,-0.0479816,0.0396834
0.0541374,-0.00178488,-0.0224825,0.0152676,-0.000814876,-0.0757302,-0.0156999
0.0338438,-0.0235377,-0.0331431,-0.0301169,-0.0095638,-0.0530711,-0.0124434
0.0312604,0.0442653,-0.0106527,0.0648873,0.00835057,-0.0778105,-0.0168845
0.00166759,0.00292609,0.0126501,-0.014992,0.0252957,-0.0425286,-0.0220012
0.0167665,0.00312347,-0.0134652,-0.0418626,0.0022165,-0.0319071,-0.0023402
0.0533697,0.0457833,-0.0173049,0.0373933,-0.000160366,-0.0889316,0.00490028
0.1114,-0.0170665,-0.103218,-0.0554098,-0.0555896,-0.0560483,0.0405276
0.0501731,0.00237931,-0.0129436,0.00715773,0.0116375,-0.0819376,-0.0183637
0.0274219,-0.0189748,-0.0272656,-0.0379515,-0.000208423,-0.0591508,-0.0103571
0.0275906,0.0472098,-0.00399564,0.057384,0.0179614,-0.0823359,-0.0162884
-0.00102908,0.00702884,0.0174225,-0.022754,0.0333714,-0.0472924,-0.0197619
0.0115553,0.0087222,-0.0104838,-0.0510213,0.00795272,-0.0373167,0.00113765
0.050756,0.0516124,-0.0125385,0.0269117,0.00634861,-0.0947361,0.00526665
0.104559,-0.0106116,-0.101915,-0.0652932,-0.0505492,-0.0617343,0.0432448
0.0509892,0.00684245,-0.00886871,-0.00109545,0.0184324,-0.0859204,-0.0197044
0.0252123,-0.0140887,-0.0264891,-0.0460726,0.00406037,-0.0630548,-0.00783539
0.027123,0.0505695,-0.00148961,0.0497166,0.0232184,-0.0849385,-0.0161024
-0.00204626,0.0114351,0.0193096,-0.0305579,0.0379737,-0.0503984,-0.018589
0.00732559,0.0143596,-0.00931693,-0.0600209,0.0108678,-0.0412351,0.0033096
0.0483229,0.057112,-0.00883359,0.0165459,0.0104115,-0.0990459,0.00436714
0.0973461,-0.00467289,-0.100917,-0.0749125,-0.0475656,-0.0659676,0.0447891
0.0511578,0.0107639,-0.00494055,-0.00907244,0.023146,-0.0884996,-0.0218142
0.0225091,-0.00972694,-0.0259238,-0.0538362,0.00619159,-0.0655566,-0.00575428
0.0264296,0.0535596,0.000651996,0.042429,0.0261993,-0.0862327,-0.0161646
-0.00269149,0.0155341,0.0204196,-0.0379344,0.0400786,-0.0522047,-0.0174007
0.00371485,0.0197394,-0.00899036,-0.0685696,0.011352,-0.0438913,0.00539448
0.0467318,0.062424,-0.00612445,0.00671656,0.012043,-0.102155,0.00341612
0.091061,0.00105784,-0.100879,-0.083976,-0.0468656,-0.0690803,0.0462216
0.0519753,0.014481,-0.00196095,-0.0165389,0.0256679,-0.0900721,-0.0240335
0.0201895,-0.00564324,-0.0260769,-0.0610443,0.00641828,-0.0671203,-0.00390517
0.0259255,0.0562412,0.00228474,0.0356636,0.0274414,-0.0866681,-0.0165364
-0.00337151,0.0192653,0.0212317,-0.044747,0.0406374,-0.053187,-0.0165483
4.11346e-05,0.0247081,-0.00874579,-0.0764882,0.0104847,-0.0457416,0.00709529
0.0450386,0.0673209,-0.00346843,-0.00244645,0.0123694,-0.104455,0.00219566
0.0846966,0.00638735,-0.100805,-0.092349,-0.0473648,-0.0714093,0.0474394
0.05257,0.0178843,0.000964502,-0.0233655,0.0269587,-0.0909413,-0.0263227
0.0176211,-0.0018705,-0.0262746,-0.067614,0.00552583,-0.0680204,-0.00212435
0.0252317,0.0586689,0.00385427,0.0294992,0.0275815,-0.0865298,-0.0169848
-0.0042282,0.0227236,0.0219515,-0.0509461,0.0401532,-0.0536337,-0.0157656
-0.00365231,0.0293583,-0.00855686,-0.0837593,0.0086865,-0.0470665,0.00866338
0.0433269,0.0718834,-0.000897706,-0.0109306,0.0118111,-0.106227,0.000883474
0.0783414,0.0113663,-0.100747,-0.100028,-0.0486288,-0.0732315,0.0485548
0.0529843,0.0209893,0.00381662,-0.0295551,0.0274861,-0.0913643,-0.028629
0.0147915,0.0015999,-0.0264745,-0.0735368,0.00401309,-0.0685012,-0.000406753
0.0242856,0.0608376,0.00544068,0.0239309,0.0271284,-0.0860324,-0.0175116
-0.00537454,0.0259162,0.0227115,-0.0565395,0.0391445,-0.0537412,-0.0150638
-0.00751676,0.0337197,-0.00827269,-0.0903942,0.00646058,-0.048055,0.0101009
0.0414614,0.0761539,0.00171678,-0.0187606,0.0108312,-0.107652,-0.000488329
0.071886,0.016048,-0.1006,-0.107046,-0.0502348,-0.0747226,0.0496109
0.053153,0.023851,0.0066664,-0.0351459,0.0276341,-0.0915122,-0.0309007
0.0116911,0.00481686,-0.0266425,-0.0788588,0.00222429,-0.0687252,0.00129921
0.0231106,0.0627896,0.00705113,0.0189166,0.0264005,-0.0853303,-0.0180674
-0.00675727,0.0288755,0.0234916,-0.0615716,0.0379051,-0.0536534,-0.0143971
-0.011486,0.0378181,-0.00792952,-0.0964386,0.00408268,-0.0488391,0.0114485
0.0395052,0.0801572,0.00433571,-0.0259812,0.00969588,-0.108853,-0.00188803
0.0653955,0.0204595,-0.100403,-0.113452,-0.0519295,-0.0759971,0.0506296
0.0531411,0.026499,0.00948216,-0.0401853,0.0276479,-0.0914909,-0.0331244
0.00839072,0.00781571,-0.0268024,-0.0836294,0.000390476,-0.0687931,0.00299937
0.0217782,0.0645611,0.00866009,0.0144055,0.0256128,-0.0845173,-0.0186416
-0.00830377,0.0316386,0.0242676,-0.0660938,0.0366349,-0.0534585,-0.0137547
-0.0154887,0.0416897,-0.00755579,-0.101945,0.00173491,-0.0495029,0.0127209
0.0375277,0.0839266,0.00692628,-0.0326452,0.00857181,-0.109911,-0.00329831
0.0589444,0.0246312,-0.100193,-0.119298,-0.0535628,-0.0771306,0.0516248
0.0530321,0.0289594,0.0122263,-0.0447237,0.0276659,-0.0913697,-0.0352891
0.00498729,0.0106206,-0.0269925,-0.0878991,-0.00136478,-0.0687683,0.0046996
0.0203864,0.0661745,0.0102274,0.0103505,0.0248786,-0.0836503,-0.0192262
-0.009914,0.0342281,0.0249985,-0.0701533,0.0354368,-0.0532085,-0.0131295
-0.0194305,0.0453584,-0.00719479,-0.106961,-0.000491042,-0.0500946,0.0139274
0.0356169,0.0874866,0.00944588,-0.0388002,0.00754263,-0.110872,-0.00470997
0.0526198,0.0285885,-0.100011,-0.124633,-0.055061,-0.0781671,0.0526016
0.0529137,0.031255,0.014862,-0.0488079,0.027756,-0.0911891,-0.0373926
0.0015746,0.0132535,-0.0272454,-0.0917144,-0.00298292,-0.0686884,0.006398
0.0190248,0.0676491,0.0117206,0.00670813,0.0242497,-0.0827629,-0.0198196
-0.0115001,0.0366614,0.0256531,-0.0737926,0.0343559,-0.0529336,-0.0125195
-0.0232305,0.0488409,-0.0068786,-0.11153,-0.00255794,-0.0506419,0.0150729
0.0338458,0.0908537,0.0118637,-0.0444877,0.00664082,-0.111763,-0.00611773
0.0464934,0.0323477,-0.0998866,-0.1295,-0.0563987,-0.0791314,0.0535624
0.0528586,0.0334007,0.0173633,-0.0524777,0.0279411,-0.0909714,-0.0394348
-0.00176983,0.0157291,-0.0275842,-0.0951155,-0.00444711,-0.0685737,0.00809131
0.0177659,0.0689986,0.0131172,0.00344119,0.0237401,-0.0818723,-0.0204214
-0.0129925,0.0389518,0.0262101,-0.0770487,0.0334024,-0.0526493,-0.0119243
-0.0268268,0.0521505,-0.00662933,-0.115687,-0.00446008,-0.0511591,0.0161606
0.0322683,0.0940408,0.0141594,-0.0497441,0.00587034,-0.112597,-0.0075183
0.0406169,0.0359215,-0.0998385,-0.133935,-0.0575758,-0.0800374,0.0545076
0.0529183,0.0354074,0.0197151,-0.0557678,0.0282213,-0.0907283,-0.0414175
-0.00499091,0.0180582,-0.0280208,-0.098137,-0.00576084,-0.0684349,0.00977549
0.016659,0.070232,0.0144053,0.000517812,0.0233454,-0.080987,-0.021032
-0.0143445,0.0411081,0.0266589,-0.0799531,0.0325706,-0.0523627,-0.0113439
-0.0301805,0.0552962,-0.00645826,-0.119466,-0.00620591,-0.0516526,0.017193
0.0309162,0.0970574,0.0163232,-0.0546009,0.00522259,-0.113382,-0.00890907
0.0350205,0.0393197,-0.0998753,-0.137972,-0.0586033,-0.080892,0.055437
0.0531237,0.0372833,0.0219122,-0.0587083,0.0285872,-0.0904658,-0.0433421
-0.00805451,0.0202488,-0.0285582,-0.100809,-0.00693582,-0.0682771,0.0114468
0.0157329,0.0713563,0.0155814,-0.00208992,0.0230541,-0.0801105,-0.0216514
-0.0155298,0.0431371,0.0269974,-0.0825336,0.0318487,-0.0520766,-0.0107783
-0.0332719,0.0582852,-0.00636864,-0.122893,-0.00780863,-0.0521253,0.0181727
0.0298031,0.0999109,0.0183529,-0.0590861,0.00468506,-0.114121,-0.0102877
0.0297167,0.0425497,-0.0999979,-0.141638,-0.0594951,-0.0816993,0.0563507
0.0534881,0.0390348,0.0239563,-0.0613262,0.0290268,-0.0901866,-0.0452103
-0.0109437,0.0223074,-0.029193,-0.103159,-0.00798564,-0.068103,0.0131019
0.0149998,0.0723768,0.0166483,-0.00440678,0.0228535,-0.0792438,-0.0222791
-0.0165378,0.0450441,0.027229,-0.084815,0.0312241,-0.0517918,-0.0102274
-0.0360967,0.0611234,-0.00635811,-0.125995,-0.00928209,-0.0525782,0.0191021
0.028929,0.102607,0.020252,-0.0632248,0.00424478,-0.114817,-0.0116518
0.024705,0.0456181,-0.100202,-0.144959,-0.0602652,-0.0824615,0.0572484
0.0540124,0.040667,0.025854,-0.0636456,0.0295282,-0.0898924,-0.0470234
-0.0136539,0.0242394,-0.0299172,-0.105212,-0.00892369,-0.0679141,0.0147383
0.0144598,0.073298,0.0176124,-0.00645511,0.0227311,-0.0783874,-0.0229144
-0.0173694,0.0468338,0.0273609,-0.0868196,0.0306845,-0.0515083,-0.00969057
-0.0386608,0.0638161,-0.00642073,-0.128793,-0.0106396,-0.0530116,0.019984
0.028284,0.105153,0.0220271,-0.0670401,0.0038893,-0.11547,-0.0129994
0.0199759,0.0485308,-0.100481,-0.14796,-0.0609271,-0.0831807,0.0581303
0.0546889,0.0421848,0.0276145,-0.0656887,0.0300799,-0.0895842,-0.0487828
-0.0161891,0.02605,-0.0307209,-0.106988,-0.00976279,-0.0677114,0.0163535
0.014105,0.0741239,0.0184825,-0.00825534,0.022675,-0.0775411,-0.023556
-0.0180328,0.0485104,0.0274025,-0.0885681,0.0302182,-0.051226,-0.00916721
-0.040977,0.0663683,-0.00654856,-0.13131,-0.0118938,-0.0534259,0.0208209
0.0278525,0.107552,0.0236869,-0.0705532,0.00360674,-0.116083,-0.0143282
0.0155143,0.0512934,-0.100825,-0.150663,-0.0614937,-0.0838587,0.0589962
0.0555046,0.0435926,0.0292484,-0.0674759,0.0306711,-0.0892633,-0.0504893
-0.0185588,0.0277439,-0.0315928,-0.10851,-0.0105151,-0.0674963,0.0179459
0.0139225,0.0748584,0.0192682,-0.00982628,0.0226738,-0.0767049,-0.0242027
-0.0185409,0.0500779,0.0273641,-0.0900793,0.0298142,-0.0509448,-0.00865662
-0.0430624,0.0687846,-0.00673279,-0.133564,-0.0130569,-0.0538215,0.0216154
0.0276155,0.10981,0.0252408,-0.073784,0.00338591,-0.116657,-0.0156365
0.011302,0.053911,-0.101224,-0.153087,-0.0619771,-0.0844972,0.0598462
0.0564437,0.0448947,0.0307671,-0.0690261,0.0312919,-0.0889307,-0.0521441
-0.0207754,0.0293255,-0.0325214,-0.109796,-0.0111921,-0.0672696,0.0195138
0.0138966,0.0755052,0.0199793,-0.0111853,0.0227172,-0.0758791,-0.0248531
-0.018909,0.0515403,0.0272558,-0.091371,0.0294623,-0.0506647,-0.00815816
-0.0449359,0.0710697,-0.00696445,-0.135574,-0.0141397,-0.0541988,0.02237
0.0275522,0.111933,0.0266984,-0.0767509,0.00321657,-0.117192,-0.0169227
0.00731914,0.0563889,-0.10167,-0.155252,-0.0623883,-0.0850982,0.0606802
0.0574886,0.0460952,0.0321814,-0.070357,0.0319331,-0.0885874,-0.0537482
-0.0228529,0.0307993,-0.0334955,-0.110863,-0.011804,-0.0670327,0.0210557
0.0140102,0.0760677,0.0206253,-0.0123486,0.0227958,-0.0750636,-0.0255056
-0.0191537,0.0529014,0.0270878,-0.0924595,0.0291534,-0.0503858,-0.00767117
-0.0466175,0.0732281,-0.007235,-0.137356,-0.0151522,-0.0545585,0.0230869
0.0276416,0.113924,0.0280689,-0.0794711,0.00308977,-0.117692,-0.0181854
0.00354593,0.0587322,-0.102153,-0.157176,-0.0627369,-0.0856635,0.0614982
0.058622,0.0471982,0.0335018,-0.0714848,0.0325869,-0.0882346,-0.0553026
-0.0248058,0.0321695,-0.0345047,-0.111729,-0.0123596,-0.0667864,0.0225705
0.0142458,0.0765495,0.0212149,-0.0133313,0.0229018,-0.0742587,-0.0261589
-0.0192914,0.0541649,0.0268692,-0.09336,0.02888,-0.0501083,-0.00719507
-0.0481266,0.0752642,-0.00753654,-0.138926,-0.0161027,-0.0549012,0.0237684
0.0278634,0.115789,0.0293608,-0.081961,0.00299796,-0.118156,-0.0194235
-3.68673e-05,0.0609459,-0.102664,-0.158875,-0.0630313,-0.086195,0.0622999
0.0598271,0.0482077,0.0347379,-0.072425,0.0332472,-0.0878735,-0.0568082
-0.0266479,0.0334403,-0.0355398,-0.112408,-0.0128664,-0.0665321,0.0240572
0.0145869,0.0769541,0.021756,-0.0141473,0.0230286,-0.0734647,-0.0268116
-0.0193378,0.0553345,0.0266085,-0.094087,0.0286358,-0.0498325,-0.00672937
-0.0494817,0.0771826,-0.007862,-0.1403,-0.0169982,-0.0552277,0.0244164
0.0281987,0.117533,0.0305819,-0.0842356,0.00293497,-0.118588,-0.020636
-0.0034472,0.0630347,-0.103196,-0.160365,-0.0632782,-0.0866944,0.0630852
0.0610884,0.0491274,0.0358983,-0.0731919,0.0339089,-0.0875052,-0.0582661
-0.0283925,0.0346161,-0.0365925,-0.112916,-0.0133305,-0.0662708,0.0255151
0.0150177,0.0772847,0.022256,-0.0148097,0.0231712,-0.0726818,-0.0274625
-0.0193074,0.0564141,0.0263131,-0.0946536,0.0284158,-0.0495586,-0.00627353
-0.0507001,0.0789875,-0.00820512,-0.141491,-0.0178446,-0.0555386,0.0250328
0.0286299,0.119159,0.0317391,-0.0863092,0.00289556,-0.118988,-0.021822
-0.00670124,0.0650032,-0.103742,-0.161661,-0.0634836,-0.0871635,0.063854
0.0623919,0.0499612,0.0369905,-0.0737986,0.034568,-0.0871305,-0.0596773
-0.0300511,0.0357008,-0.0376555,-0.113266,-0.013757,-0.0660037,0.0269434
0.015524,0.0775449,0.022721,-0.0153308,0.0233257,-0.0719102,-0.0281105
-0.0192134,0.0574073,0.0259898,-0.0950724,0.0282159,-0.049287,-0.00582712
-0.0517972,0.0806833,-0.00856048,-0.142513,-0.0186468,-0.0558349,0.0256196
0.0291414,0.120673,0.0328388,-0.0881953,0.00287571,-0.119359,-0.0229811
-0.0098138,0.0668566,-0.104297,-0.162777,-0.0636523,-0.0876041,0.0646061
0.0637253,0.0507129,0.0380215,-0.0742578,0.0352213,-0.0867508,-0.0610428
-0.0316339,0.0366984,-0.0387227,-0.11347,-0.0141502,-0.0657319,0.0283415
0.0160937,0.0777378,0.0231557,-0.0157219,0.0234882,-0.0711501,-0.0287542
-0.0190668,0.0583175,0.025644,-0.095355,0.0280329,-0.049018,-0.00538996
-0.0527867,0.0822744,-0.00892359,-0.143376,-0.0194087,-0.0561172,0.0261782
0.0297196,0.12208,0.0338862,-0.0899064,0.00287212,-0.119701,-0.0241128
-0.012798,0.0685995,-0.104855,-0.163725,-0.0637882,-0.0880179,0.0653413
0.0650776,0.0513864,0.0389974,-0.0745813,0.0358663,-0.086367,-0.0623634
-0.03315,0.0376129,-0.0397882,-0.113541,-0.0145139,-0.0654563,0.0297091
0.0167154,0.0778666,0.0235647,-0.0159936,0.0236559,-0.0704019,-0.0293925
-0.0188776,0.0591484,0.0252808,-0.0955123,0.0278638,-0.0487519,-0.00496175
-0.0536811,0.0837646,-0.00929052,-0.144094,-0.020134,-0.0563864,0.0267102
0.0303523,0.123383,0.0348863,-0.0914543,0.00288185,-0.120017,-0.0252169
-0.015665,0.0702364,-0.105413,-0.164518,-0.0638951,-0.0884066,0.0660595
0.0664397,0.0519852,0.0399235,-0.07478,0.036501,-0.0859802,-0.0636404
-0.0346071,0.038448,-0.0408475,-0.113488,-0.0148512,-0.065178,0.0310457
0.0173794,0.0779346,0.0239518,-0.0161557,0.0238266,-0.0696658,-0.0300244
-0.0186543,0.0599033,0.0249046,-0.0955545,0.0277065,-0.0484889,-0.00454231
-0.0544908,0.0851582,-0.00965799,-0.144676,-0.0208257,-0.056643,0.027217
0.031029,0.124587,0.0358433,-0.0928502,0.0029025,-0.120307,-0.0262933
-0.0184249,0.0717717,-0.105965,-0.165167,-0.063976,-0.0887717,0.0667604
0.0678038,0.0525128,0.0408044,-0.074864,0.0371239,-0.0855911,-0.0648746
-0.0360115,0.0392075,-0.0418966,-0.113323,-0.0151648,-0.0648977,0.0323511
0.0180773,0.0779448,0.0243202,-0.0162176,0.0239983,-0.068942,-0.0306489
-0.0184041,0.0605857,0.024519,-0.095491,0.027559,-0.0482294,-0.00413145
-0.0552255,0.0864592,-0.0100233,-0.145133,-0.0214864,-0.056888,0.0277001
0.0317407,0.125697,0.0367608,-0.0941044,0.00293203,-0.120574,-0.0273419
-0.0210862,0.0732098,-0.10651,-0.165683,-0.0640336,-0.0891146,0.0674439
0.0691634,0.0529729,0.0416442,-0.0748427,0.0377336,-0.0852007,-0.0660671
-0.0373688,0.039895,-0.0429322,-0.113055,-0.015457,-0.0646164,0.0336251
0.0188018,0.0779003,0.0246726,-0.0161876,0.0241696,-0.0682306,-0.0312654
-0.0181331,0.0611988,0.0241272,-0.0953307,0.0274198,-0.0479737,-0.00372905
-0.0558931,0.0876715,-0.0103842,-0.145474,-0.0221186,-0.0571219,0.0281606
0.0324796,0.126717,0.0376421,-0.0952265,0.00296879,-0.120818,-0.0283628
-0.0236563,0.074555,-0.107046,-0.166076,-0.0640702,-0.0894368,0.06811
0.0705129,0.0533687,0.0424463,-0.0747252,0.0383294,-0.0848098,-0.0672189
-0.0386834,0.0405141,-0.0439515,-0.112692,-0.0157297,-0.0643347,0.0348677
0.0195469,0.0778042,0.0250112,-0.0160738,0.0243393,-0.0675319,-0.0318729
-0.0178463,0.0617461,0.0237318,-0.0950818,0.0272876,-0.0477219,-0.00333501
-0.0565008,0.0887989,-0.010739,-0.145708,-0.0227241,-0.0573454,0.0285997
0.0332393,0.12765,0.0384899,-0.0962258,0.00301139,-0.12104,-0.0293561
-0.0261416,0.0758114,-0.107568,-0.166355,-0.0640879,-0.0897394,0.0687585
0.0718481,0.0537035,0.043214,-0.0745194,0.0389105,-0.0844189,-0.068331
-0.039959,0.0410681,-0.0449521,-0.112244,-0.0159847,-0.0640533,0.0360787
0.020307,0.0776592,0.025338,-0.0158836,0.0245064,-0.0668458,-0.0324708
-0.0175479,0.0622306,0.0233352,-0.094752,0.0271614,-0.0474743,-0.00294923
-0.0570548,0.0898452,-0.0110861,-0.145843,-0.0233046,-0.0575591,0.0290185
0.034014,0.128501,0.0393066,-0.0971109,0.00305873,-0.121243,-0.0303221
-0.0285476,0.076983,-0.108077,-0.166528,-0.0640884,-0.0900239,0.0693893
0.0731652,0.0539806,0.0439498,-0.0742333,0.0394765,-0.0840289,-0.0694044
-0.0411987,0.0415603,-0.0459323,-0.111718,-0.0162233,-0.0637727,0.0372583
0.0210778,0.0774682,0.0256543,-0.0156238,0.0246703,-0.0661725,-0.0330586
-0.0172414,0.0626554,0.0229394,-0.0943484,0.0270405,-0.0472311,-0.00257166
-0.0575603,0.0908141,-0.0114245,-0.145887,-0.0238616,-0.0577635,0.0294181
0.0347991,0.129274,0.0400945,-0.0978896,0.00310988,-0.121428,-0.031261
-0.030879,0.0780737,-0.108571,-0.166604,-0.0640732,-0.0902913,0.0700026
0.0744615,0.054203,0.0446561,-0.0738738,0.0400273,-0.0836402,-0.07044
-0.0424049,0.041994,-0.0468904,-0.11112,-0.0164468,-0.0634937,0.0384065
0.0218554,0.0772339,0.0259616,-0.0153008,0.0248304,-0.065512,-0.0336357
-0.0169295,0.0630237,0.0225458,-0.0938778,0.0269241,-0.0469924,-0.00220226
-0.0580219,0.091709,-0.0117531,-0.145847,-0.0243965,-0.0579593,0.0297995
0.0355905,0.129972,0.0408555,-0.0985695,0.00316406,-0.121594,-0.0321733
-0.03314,0.0790874,-0.109048,-0.166592,-0.0640438,-0.0905428,0.0705982
0.0757345,0.0543737,0.0453351,-0.0734477,0.0405626,-0.0832535,-0.0714389
-0.0435796,0.0423724,-0.0478253,-0.110459,-0.0166563,-0.0632166,0.0395236
0.0226367,0.076959,0.0262608,-0.0149207,0.0249863,-0.0648644,-0.0342016
-0.0166145,0.0633382,0.022156,-0.0933464,0.0268117,-0.0467584,-0.00184099
-0.0584438,0.0925335,-0.0120714,-0.14573,-0.0249104,-0.0581469,0.0301635
0.0363849,0.130599,0.0415913,-0.0991577,0.00322064,-0.121744,-0.0330592
-0.0353341,0.0800277,-0.109507,-0.166496,-0.0640012,-0.0907793,0.0711762
0.0769827,0.0544958,0.0459886,-0.0729613,0.0410825,-0.0828692,-0.072402
-0.0447246,0.0426983,-0.0487361,-0.10974,-0.0168528,-0.062942,0.0406097
0.0234188,0.0766461,0.0265528,-0.0144888,0.0251378,-0.0642296,-0.034756
-0.0162981,0.0636019,0.0217711,-0.0927598,0.0267029,-0.0465292,-0.00148781
-0.0588293,0.0932909,-0.0123788,-0.145541,-0.0254044,-0.0583267,0.0305111
0.0371795,0.131159,0.0423033,-0.0996608,0.00327907,-0.121879,-0.0339192
-0.0374645,0.0808983,-0.109949,-0.166326,-0.0639467,-0.0910018,0.0717367
0.0782046,0.0545721,0.0466183,-0.0724202,0.041587,-0.0824878,-0.0733302
-0.0458409,0.0429749,-0.0496219,-0.108968,-0.0170371,-0.0626702,0.0416653
0.0241996,0.0762978,0.0268384,-0.0140104,0.0252846,-0.0636076,-0.0352984
-0.0159818,0.0638176,0.0213921,-0.0921237,0.0265973,-0.0463049,-0.00114268
-0.0591815,0.0939845,-0.012675,-0.145288,-0.0258795,-0.0584993,0.030843
0.0379719,0.131655,0.042993,-0.100085,0.0033389,-0.121998,-0.0347539
-0.0395339,0.0817025,-0.110372,-0.166086,-0.0638812,-0.0912112,0.0722798
0.0793993,0.0546053,0.0472255,-0.0718299,0.0420763,-0.0821096,-0.0742245
-0.0469298,0.0432048,-0.0504824,-0.108151,-0.01721,-0.0624015,0.0426904
0.024977,0.0759164,0.0271181,-0.0134903,0.0254266,-0.0629983,-0.0358287
-0.0156668,0.0639879,0.0210198,-0.0914429,0.0264946,-0.0460855,-0.000805572
-0.0595032,0.0946175,-0.0129598,-0.144975,-0.0263366,-0.058665,0.0311601
0.0387602,0.132091,0.0436615,-0.100436,0.00339975,-0.122105,-0.0355635
-0.0415446,0.0824437,-0.110777,-0.165783,-0.0638057,-0.0914083,0.0728056
0.0805662,0.054598,0.0478117,-0.0711953,0.0425506,-0.0817351,-0.0750859
-0.047992,0.0433908,-0.0513172,-0.107291,-0.0173723,-0.0621364,0.0436857
0.0257494,0.0755043,0.0273924,-0.0129328,0.0255637,-0.0624018,-0.0363466
-0.0153538,0.0641155,0.0206549,-0.0907223,0.0263947,-0.0458712,-0.000476461
-0.0597966,0.0951929,-0.0132329,-0.144608,-0.0267764,-0.0588243,0.0314631
0.0395427,0.132469,0.0443101,-0.100719,0.0034613,-0.122198,-0.0363487
-0.043499,0.0831252,-0.111163,-0.165422,-0.0637209,-0.091594,0.0733143
0.0817048,0.0545528,0.048378,-0.0705213,0.04301,-0.0813646,-0.0759152
-0.0490283,0.0435357,-0.0521259,-0.106395,-0.0175246,-0.061875,0.0446514
0.0265156,0.0750637,0.0276617,-0.0123421,0.0256959,-0.0618178,-0.0368518
-0.0150435,0.0642029,0.020298,-0.0899661,0.0262972,-0.045662,-0.000155298
-0.060064,0.0957138,-0.0134944,-0.144191,-0.0271997,-0.0589774,0.0317526
0.0403182,0.132793,0.0449396,-0.10094,0.00352328,-0.122279,-0.03711
-0.0453988,0.0837501,-0.111529,-0.165008,-0.0636275,-0.091769,0.0738061
0.0828149,0.0544722,0.0489255,-0.069812,0.0434549,-0.0809983,-0.0767134
-0.0500393,0.0436418,-0.0529087,-0.105466,-0.0176673,-0.0616175,0.0455881
0.0272742,0.074597,0.0279263,-0.0117221,0.0258232,-0.0612464,-0.0373444
-0.0147363,0.0642526,0.0199496,-0.0891784,0.0262021,-0.0454578,0.000157957
-0.0603071,0.0961829,-0.0137442,-0.14373,-0.0276072,-0.0591248,0.0320294
0.0410854,0.133066,0.045551,-0.101103,0.00358545,-0.122349,-0.0378479
-0.0472459,0.0843214,-0.111877,-0.164547,-0.0635264,-0.0919339,0.0742812
0.0838964,0.0543586,0.0494552,-0.0690717,0.0438855,-0.0806364,-0.0774813
-0.0510254,0.0437117,-0.0536654,-0.104509,-0.0178012,-0.0613643,0.0464961
0.0280245,0.0741062,0.0281866,-0.0110764,0.0259457,-0.0606873,-0.0378241
-0.0144327,0.0642669,0.0196099,-0.0883631,0.0261091,-0.0452587,0.000463353
-0.0605276,0.0966032,-0.0139826,-0.143227,-0.0279996,-0.0592667,0.032294
0.0418435,0.133291,0.0461452,-0.101213,0.00364763,-0.122408,-0.0385629
-0.0490418,0.084842,-0.112205,-0.164042,-0.0634181,-0.0920894,0.0747397
0.0849495,0.0542143,0.049968,-0.068304,0.0443022,-0.0802793,-0.0782198
-0.0519871,0.0437477,-0.0543962,-0.103528,-0.0179265,-0.0611155,0.0473759
0.0287655,0.0735933,0.0284427,-0.0104081,0.0260634,-0.0601405,-0.0382909
-0.0141329,0.0642481,0.0192794,-0.0875237,0.0260182,-0.0450648,0.000760944
-0.0607271,0.0969773,-0.0142095,-0.142688,-0.0283774,-0.0594035,0.0325471
0.0425917,0.133471,0.0467229,-0.101273,0.00370963,-0.122458,-0.0392555
-0.0507881,0.0853148,-0.112515,-0.163498,-0.0633033,-0.0922361,0.0751821
0.0859744,0.0540415,0.0504646,-0.0675124,0.0447053,-0.0799272,-0.0789299
-0.0529589,0.0437357,-0.0551284,-0.102471,-0.0180622,-0.0608315,0.0482433
0.0294375,0.0730319,0.0286504,-0.00961717,0.0261436,-0.0595335,-0.0387302
-0.0139201,0.0641606,0.0188965,-0.086515,0.0258842,-0.0447758,0.0010642
-0.0610137,0.0972631,-0.0145045,-0.141926,-0.028797,-0.0594114,0.0328015
0.0431994,0.133558,0.0471875,-0.10106,0.00370657,-0.122354,-0.0399149
-0.0526394,0.08569,-0.112922,-0.162653,-0.0632551,-0.0922126,0.0756194
0.0867957,0.0537885,0.0508118,-0.0664001,0.0450156,-0.079403,-0.079602
-0.0540364,0.0436734,-0.0559339,-0.101173,-0.0182388,-0.0604413,0.0490631
0.0299977,0.0724571,0.0287714,-0.00865361,0.0261946,-0.058882,-0.0391764
-0.0137861,0.0640704,0.0184556,-0.0853936,0.0257476,-0.0444813,0.0013423
-0.0613306,0.097551,-0.0148404,-0.141096,-0.0291904,-0.0594433,0.0330302
0.0437744,0.133663,0.0476024,-0.100817,0.00373114,-0.122303,-0.0405675
-0.0544395,0.0860902,-0.113329,-0.161838,-0.0631605,-0.0922723,0.076028
0.087619,0.0535862,0.0511447,-0.0653749,0.0453653,-0.0789994,-0.0802594
-0.0550704,0.043647,-0.0567222,-0.0999512,-0.0183647,-0.0601524,0.0498603
0.0305663,0.0719194,0.028883,-0.0077556,0.0262783,-0.0583237,-0.0396059
-0.0136371,0.063998,0.018021,-0.0843267,0.0256444,-0.0442605,0.00161603
-0.0616112,0.0978369,-0.0151661,-0.140299,-0.029544,-0.0595284,0.0332512
0.0443564,0.13376,0.0480038,-0.10059,0.00377772,-0.122293,-0.0411972
-0.0561761,0.0864746,-0.113714,-0.16104,-0.0630418,-0.0923649,0.076423
0.0884327,0.0533815,0.051468,-0.0643761,0.0457183,-0.0786348,-0.0808894
-0.056064,0.043612,-0.0574804,-0.0987548,-0.0184704,-0.0598966,0.0506326
0.031141,0.0713813,0.0289969,-0.0068801,0.0263689,-0.0578012,-0.0400215
-0.0134748,0.0639133,0.0176024,-0.083279,0.0255526,-0.0440652,0.00188314
-0.0618583,0.0980973,-0.0154748,-0.139509,-0.0298769,-0.0596271,0.0334636
0.0449439,0.133832,0.0483981,-0.100355,0.00383093,-0.12229,-0.0418061
-0.057851,0.0868296,-0.114075,-0.160244,-0.0629123,-0.092464,0.0768034
0.0892366,0.0531631,0.0517847,-0.0633896,0.0460646,-0.078287,-0.0814938
-0.0570179,0.0435592,-0.0582071,-0.0975721,-0.0185646,-0.0596556,0.0513799
0.0317208,0.0708349,0.0291148,-0.00601709,0.0264596,-0.0572986,-0.0404243
-0.0133003,0.0638093,0.0172013,-0.0822421,0.0254664,-0.0438822,0.00214293
-0.0620742,0.0983267,-0.0157651,-0.138718,-0.0301944,-0.0597282,0.033667
0.0455353,0.133874,0.0487873,-0.100108,0.00388657,-0.122286,-0.0423954
-0.059467,0.0871518,-0.114411,-0.159445,-0.0627758,-0.0925619,0.0771692
0.0900294,0.0529282,0.0520972,-0.0624117,0.0464015,-0.0779494,-0.0820738
-0.0579344,0.0434869,-0.0589013,-0.0964006,-0.0186505,-0.0594238,0.0521023
0.0323035,0.0702789,0.029238,-0.00516448,0.0265483,-0.0568113,-0.0408146
-0.0131152,0.0636859,0.0168186,-0.0812148,0.0253838,-0.0437078,0.00239539
-0.0622614,0.0985256,-0.0160366,-0.137926,-0.0304986,-0.059829,0.0338618
0.0461288,0.133886,0.0491724,-0.0998491,0.00394313,-0.122278,-0.0429657
-0.0610267,0.0874418,-0.114721,-0.158642,-0.062634,-0.0926568,0.0775205
0.0908102,0.0526772,0.052406,-0.0614421,0.0467283,-0.0776202,-0.0826302
-0.0588151,0.0433956,-0.0595633,-0.0952401,-0.018729,-0.0591995,0.0528005
0.0328876,0.0697138,0.0293665,-0.00432213,0.0266344,-0.0563375,-0.0411924
-0.0129208,0.0635438,0.0164545,-0.0801972,0.0253041,-0.0435405,0.00264055
-0.0624223,0.0986952,-0.0162894,-0.137134,-0.0307905,-0.0599285,0.0340484
0.0467228,0.133871,0.049554,-0.0995787,0.00399997,-0.122267,-0.0435175
-0.0625326,0.0877014,-0.115006,-0.157839,-0.0624878,-0.0927484,0.0778577
0.0915782,0.0524113,0.0527119,-0.0604817,0.0470449,-0.0772987,-0.0831638
-0.0596618,0.0432866,-0.0601933,-0.0940916,-0.0188011,-0.0589823,0.0534749
0.0334715,0.0691408,0.0295007,-0.00349065,0.0267174,-0.0558768,-0.0415581
-0.0127185,0.0633843,0.0161089,-0.0791903,0.0252268,-0.0433799,0.0028785
-0.062559,0.0988372,-0.0165238,-0.136343,-0.0310709,-0.0600266,0.0342271
0.0473161,0.13383,0.0499326,-0.0992986,0.00405668,-0.122252,-0.0440513
-0.063987,0.0879322,-0.115265,-0.157034,-0.0623379,-0.0928366,0.0781811
0.0923325,0.0521318,0.0530153,-0.0595315,0.0473512,-0.0769847,-0.0836754
-0.060476,0.0431612,-0.0607921,-0.092956,-0.0188672,-0.0587718,0.0541262
0.034054,0.0685609,0.0296405,-0.00267075,0.0267973,-0.0554286,-0.0419118
-0.0125093,0.0632089,0.0157818,-0.0781948,0.0251516,-0.0432258,0.00310937
-0.0626734,0.0989533,-0.01674,-0.135554,-0.0313405,-0.0601233,0.0343983
0.0479073,0.133765,0.0503086,-0.0990101,0.00411299,-0.122233,-0.0445677
-0.065392,0.0881361,-0.115501,-0.156231,-0.0621849,-0.0929216,0.078491
0.0930727,0.05184,0.0533166,-0.0585922,0.0476474,-0.0766781,-0.0841656
-0.0612592,0.0430209,-0.0613602,-0.0918342,-0.0189279,-0.058568,0.054755
0.0346338,0.0679753,0.0297858,-0.00186308,0.0268739,-0.0549926,-0.0422536
-0.0122942,0.0630187,0.015473,-0.0772116,0.0250783,-0.0430779,0.00333328
-0.0627672,0.0990451,-0.0169386,-0.134768,-0.0315998,-0.0602184,0.0345624
0.0484956,0.133678,0.0506821,-0.0987147,0.00416875,-0.122212,-0.0450672
-0.0667495,0.0883147,-0.115713,-0.155431,-0.0620292,-0.0930036,0.078788
0.0937983,0.0515373,0.0536159,-0.0576647,0.0479337,-0.0763787,-0.0846352
-0.0620126,0.0428669,-0.0618983,-0.090727,-0.0189835,-0.0583706,0.0553619
0.0352101,0.0673852,0.0299364,-0.00106827,0.0269475,-0.0545685,-0.0425838
-0.012074,0.0628153,0.015182,-0.0762414,0.0250068,-0.0429359,0.00355035
-0.062842,0.0991144,-0.0171201,-0.133987,-0.0318493,-0.0603122,0.0347198
0.0490799,0.13357,0.0510534,-0.0984137,0.00422386,-0.122187,-0.0455502
-0.0680614,0.0884697,-0.115902,-0.154634,-0.061871,-0.0930828,0.0790722
0.094509,0.0512247,0.0539134,-0.0567498,0.0482104,-0.0760865,-0.085085
-0.0627373,0.0427006,-0.0624072,-0.0896352,-0.0190343,-0.0581796,0.0559474
0.0357821,0.0667916,0.0300922,-0.000286858,0.027018,-0.054156,-0.0429025
-0.0118495,0.0625998,0.0149085,-0.075285,0.024937,-0.0427998,0.00376073
-0.0628992,0.0991626,-0.0172849,-0.133212,-0.0320892,-0.0604045,0.0348706
0.0496597,0.133443,0.0514224,-0.0981083,0.00427828,-0.12216,-0.0460172
-0.0693294,0.0886027,-0.116069,-0.153842,-0.0617108,-0.0931593,0.0793441
0.0952047,0.0509036,0.0542092,-0.0558481,0.0484778,-0.0758013,-0.0855154
-0.0634346,0.042523,-0.0628879,-0.0885595,-0.0190804,-0.0579947,0.0565123
0.0363489,0.0661956,0.0302528,0.00048065,0.0270855,-0.0537549,-0.04321
-0.0116213,0.0623735,0.014652,-0.074343,0.024869,-0.0426693,0.00396453
-0.0629402,0.0991913,-0.0174338,-0.132442,-0.0323199,-0.0604955,0.0350154
0.0502342,0.133298,0.0517894,-0.0977995,0.00433197,-0.12213,-0.0464687
-0.070555,0.0887151,-0.116214,-0.153055,-0.0615489,-0.0932333,0.079604
0.0958852,0.0505751,0.0545034,-0.0549604,0.0487361,-0.0755231,-0.0859273
-0.0641054,0.0423355,-0.0633411,-0.0875005,-0.0191222,-0.0578159,0.057057
0.03691,0.0655982,0.0304181,0.00123382,0.0271502,-0.0533648,-0.0435065
-0.0113899,0.0621375,0.0144122,-0.0734159,0.0248026,-0.0425443,0.00416191
-0.0629661,0.0992019,-0.0175672,-0.13168,-0.0325419,-0.0605851,0.0351542
0.050803,0.133137,0.0521542,-0.0974885,0.00438487,-0.122097,-0.0469052
-0.0717397,0.0888085,-0.116339,-0.152275,-0.0613854,-0.0933049,0.0798524
0.0965506,0.0502402,0.0547959,-0.0540871,0.0489856,-0.0752516,-0.0863213
-0.0647506,0.0421391,-0.0637677,-0.0864587,-0.0191599,-0.057643,0.0575821
0.0374649,0.0650004,0.0305877,0.00197225,0.0272121,-0.0529854,-0.0437923
-0.0111558,0.0618929,0.0141884,-0.0725043,0.0247378,-0.0424245,0.00435299
-0.0629779,0.0991957,-0.0176858,-0.130926,-0.0327554,-0.0606734,0.0352875
0.0513656,0.132962,0.0525168,-0.0971761,0.00443692,-0.122063,-0.0473271
-0.0728849,0.0888843,-0.116444,-0.151503,-0.0612207,-0.0933742,0.0800894
0.0972008,0.0498999,0.0550868,-0.0532288,0.0492266,-0.0749869,-0.0866979
-0.0653712,0.0419349,-0.0641686,-0.0854348,-0.0191937,-0.0574758,0.0580883
0.0380132,0.0644029,0.0307612,0.0026956,0.0272713,-0.0526166,-0.0440676
-0.0109196,0.0616409,0.0139802,-0.0716086,0.0246745,-0.0423098,0.00453791
-0.0629768,0.0991742,-0.0177901,-0.130181,-0.0329607,-0.0607604,0.0354154
0.0519217,0.132774,0.0528773,-0.0968635,0.00448808,-0.122027,-0.0477349
-0.073992,0.0889438,-0.11653,-0.150739,-0.0610551,-0.0934414,0.0803156
0.0978358,0.0495553,0.0553761,-0.0523859,0.0494592,-0.0747287,-0.0870579
-0.065968,0.0417238,-0.0645447,-0.084429,-0.019224,-0.0573143,0.058576
0.0385544,0.0638068,0.0309385,0.00340357,0.0273278,-0.0522579,-0.0443326
-0.0106815,0.0613824,0.0137871,-0.0707291,0.0246126,-0.0422,0.00471682
-0.0629637,0.0991386,-0.0178809,-0.129445,-0.0331584,-0.0608461,0.0355382
0.0524708,0.132574,0.0532354,-0.0965513,0.00453829,-0.121989,-0.048129
-0.0750623,0.0889882,-0.116598,-0.149985,-0.0608888,-0.0935067,0.0805313
0.0984559,0.0492074,0.0556635,-0.0515589,0.0496838,-0.074477,-0.0874018
-0.0665418,0.041507,-0.064897,-0.0834419,-0.0192508,-0.0571583,0.0590459
0.0390882,0.0632127,0.0311192,0.00409589,0.0273818,-0.0519093,-0.0445876
-0.010442,0.0611184,0.0136084,-0.0698664,0.0245521,-0.0420949,0.00488985
-0.0629395,0.09909,-0.0179587,-0.12872,-0.0333485,-0.0609306,0.0356561
0.0530126,0.132363,0.0535912,-0.0962403,0.00458752,-0.121949,-0.0485098
-0.076097,0.0890189,-0.116649,-0.14924,-0.0607221,-0.09357,0.0807368
0.0990611,0.0488569,0.0559492,-0.0507481,0.0499005,-0.0742317,-0.0877302
-0.0670935,0.0412852,-0.0652264,-0.0824737,-0.0192744,-0.0570077,0.0594985
0.0396143,0.0626216,0.0313029,0.00477232,0.0274333,-0.0515704,-0.0448329
-0.0102014,0.0608498,0.0134437,-0.0690207,0.0244929,-0.0419945,0.00505715
-0.0629049,0.0990298,-0.0180242,-0.128005,-0.0335315,-0.0610138,0.0357694
0.0535471,0.132143,0.0539445,-0.0959314,0.00463574,-0.121908,-0.0488777
-0.0770972,0.0890369,-0.116683,-0.148506,-0.0605551,-0.0936315,0.0809324
0.0996515,0.0485047,0.0562329,-0.0499538,0.0501096,-0.0739926,-0.0880437
-0.0676239,0.0410594,-0.0655337,-0.0815248,-0.019295,-0.0568622,0.0599343
0.0401325,0.0620341,0.0314892,0.00543267,0.0274824,-0.051241,-0.0450687
-0.00996013,0.0605776,0.0132923,-0.0681923,0.0244351,-0.0418986,0.00521887
-0.0628608,0.0989589,-0.018078,-0.127301,-0.0337075,-0.0610959,0.0358783
0.0540738,0.131914,0.0542952,-0.0956252,0.00468293,-0.121866,-0.0492332
-0.0780642,0.0890435,-0.116701,-0.147784,-0.0603881,-0.0936913,0.0811185
0.100227,0.0481517,0.0565145,-0.0491763,0.0503114,-0.0737597,-0.0883428
-0.0681336,0.0408304,-0.0658199,-0.0805954,-0.0193128,-0.0567218,0.0603539
0.0406426,0.0614509,0.0316779,0.00607677,0.0275292,-0.0509209,-0.0452952
-0.00971836,0.0603025,0.0131537,-0.0673814,0.0243784,-0.0418069,0.00537513
-0.062808,0.0988785,-0.0181208,-0.126609,-0.033877,-0.0611767,0.0359829
0.0545926,0.131679,0.0546431,-0.0953224,0.00472908,-0.121823,-0.0495766
-0.078999,0.0890397,-0.116705,-0.147072,-0.0602212,-0.0937496,0.0812955
0.100789,0.0477987,0.056794,-0.0484158,0.050506,-0.0735328,-0.0886281
-0.0686234,0.040599,-0.0660859,-0.0796858,-0.019328,-0.0565864,0.0607578
0.0411443,0.0608727,0.0318687,0.00670449,0.0275737,-0.0506098,-0.0455128
-0.00947644,0.0600255,0.0130274,-0.0665883,0.024323,-0.0417194,0.00552609
-0.0627471,0.0987896,-0.018153,-0.12593,-0.0340401,-0.0612564,0.0360835
0.0551035,0.131437,0.0549881,-0.0950235,0.00477416,-0.121779,-0.0499083
-0.0799027,0.0890264,-0.116695,-0.146373,-0.0600547,-0.0938063,0.0814636
0.101336,0.0474462,0.0570711,-0.0476726,0.0506937,-0.0733119,-0.0889002
-0.069094,0.040366,-0.0663325,-0.0787961,-0.0193406,-0.0564558,0.0611464
0.0416376,0.0603001,0.0320611,0.00731572,0.0276161,-0.0503075,-0.0457217
-0.00923463,0.0597471,0.0129126,-0.0658132,0.0242687,-0.041636,0.00567188
-0.0626788,0.0986932,-0.0181754,-0.125262,-0.034197,-0.061335,0.0361801
0.0556061,0.13119,0.05533,-0.0947292,0.00481816,-0.121734,-0.0502287
-0.0807764,0.0890048,-0.116671,-0.145687,-0.0598886,-0.0938616,0.0816232
0.101869,0.0470952,0.0573457,-0.0469469,0.0508747,-0.0730967,-0.0891594
-0.0695461,0.040132,-0.0665608,-0.0779266,-0.0193509,-0.05633,0.0615203
0.0421223,0.0597337,0.0322548,0.00791036,0.0276563,-0.0500138,-0.0459221
-0.00899319,0.0594683,0.012809,-0.0650562,0.0242155,-0.0415564,0.00581265
-0.0626037,0.0985901,-0.0181886,-0.124608,-0.0343482,-0.0614124,0.0362731
0.0561005,0.130938,0.0556688,-0.0944399,0.00486108,-0.121688,-0.0505382
-0.081621,0.0889757,-0.116635,-0.145014,-0.0597233,-0.0939156,0.0817746
0.102388,0.0467461,0.0576178,-0.0462387,0.0510491,-0.0728873,-0.0894064
-0.0699804,0.0398978,-0.0667715,-0.0770773,-0.019359,-0.0562087,0.0618801
0.0425983,0.0591741,0.0324496,0.00848835,0.0276946,-0.0497285,-0.0461144
-0.00875237,0.0591896,0.0127158,-0.0643174,0.0241634,-0.0414806,0.00594854
-0.0625224,0.0984813,-0.018193,-0.123967,-0.0344936,-0.0614888,0.0363625
0.0565865,0.130684,0.0560041,-0.094156,0.00490289,-0.121642,-0.0508371
-0.0824375,0.0889399,-0.116588,-0.144354,-0.0595587,-0.0939682,0.0819181
0.102894,0.0463997,0.057887,-0.0455483,0.0512172,-0.0726834,-0.0896416
-0.0703974,0.039664,-0.0669655,-0.0762484,-0.0193651,-0.0560918,0.0622261
0.0430654,0.0586217,0.0326451,0.00904965,0.0277308,-0.0494514,-0.0462987
-0.0085124,0.0589117,0.0126326,-0.063597,0.0241124,-0.0414084,0.00607968
-0.0624354,0.0983676,-0.0181893,-0.12334,-0.0346337,-0.061564,0.0364485
0.057064,0.130427,0.0563359,-0.0938782,0.00494359,-0.121596,-0.0511257
-0.0832269,0.0888984,-0.116529,-0.143708,-0.0593951,-0.0940197,0.082054
0.103386,0.0460564,0.0581534,-0.0448757,0.0513793,-0.0724851,-0.0898655
-0.070798,0.0394313,-0.0671436,-0.0754399,-0.0193693,-0.0559793,0.0625588
0.0435237,0.0580771,0.032841,0.00959424,0.0277652,-0.0491822,-0.0464753
-0.0082735,0.0586352,0.0125588,-0.062895,0.0240623,-0.0413398,0.00620622
-0.0623434,0.0982498,-0.0181781,-0.122726,-0.0347686,-0.0616383,0.0365313
0.057533,0.130168,0.056664,-0.0936067,0.00498318,-0.121549,-0.0514044
-0.0839901,0.088852,-0.116461,-0.143076,-0.0592325,-0.09407,0.0821827
0.103865,0.0457169,0.0584167,-0.044221,0.0515354,-0.0722921,-0.0900785
-0.0711826,0.0392001,-0.0673067,-0.074652,-0.0193718,-0.0558711,0.0628786
0.0439731,0.0575408,0.033037,0.0101221,0.0277977,-0.0489209,-0.0466445
-0.00803589,0.0583607,0.0124939,-0.0622114,0.0240132,-0.0412746,0.00632828
-0.0622468,0.0981287,-0.0181598,-0.122127,-0.0348985,-0.0617115,0.0366109
0.0579933,0.129908,0.0569882,-0.0933419,0.00502166,-0.121502,-0.0516736
-0.084728,0.0888013,-0.116383,-0.142458,-0.0590712,-0.0941193,0.0823043
0.104331,0.0453816,0.0586769,-0.0435843,0.0516857,-0.0721044,-0.0902811
-0.071552,0.038971,-0.0674556,-0.0738846,-0.0193726,-0.0557669,0.0631861
0.0444135,0.057013,0.0332327,0.0106333,0.0278284,-0.0486671,-0.0468066
-0.00779978,0.0580888,0.0124373,-0.0615464,0.0239651,-0.0412126,0.006446
-0.0621461,0.098005,-0.0181351,-0.121542,-0.0350236,-0.0617836,0.0366875
0.058445,0.129648,0.0573085,-0.0930843,0.00505901,-0.121455,-0.0519335
-0.0854414,0.0887471,-0.116296,-0.141855,-0.0589112,-0.0941675,0.0824192
0.104784,0.045051,0.0589336,-0.0429656,0.0518305,-0.0719219,-0.0904736
-0.0719066,0.0387445,-0.067591,-0.0731377,-0.0193719,-0.0556668,0.0634817
0.0448449,0.0564943,0.0334281,0.0111277,0.0278574,-0.0484208,-0.0469617
-0.00756535,0.0578199,0.0123886,-0.0608999,0.0239178,-0.0411538,0.00655951
-0.0620417,0.0978793,-0.0181043,-0.120972,-0.0351441,-0.0618548,0.0367613
0.0588881,0.129389,0.0576245,-0.092834,0.00509524,-0.121408,-0.0521844
-0.0861312,0.0886902,-0.116201,-0.141267,-0.0587526,-0.0942148,0.0825276
0.105225,0.0447256,0.0591869,-0.0423648,0.0519699,-0.0717446,-0.0906566
-0.072247,0.0385212,-0.0677136,-0.0724113,-0.0193698,-0.0555705,0.0637657
0.0452673,0.055985,0.0336226,0.0116056,0.0278848,-0.0481816,-0.0471101
-0.00733281,0.0575546,0.0123472,-0.060272,0.0238714,-0.0410981,0.00666894
-0.0619342,0.0977523,-0.0180681,-0.120416,-0.0352602,-0.061925,0.0368323
0.0593224,0.12913,0.0579363,-0.0925914,0.00513034,-0.121361,-0.0524267
-0.0867983,0.088631,-0.116099,-0.140694,-0.0585956,-0.0942611,0.0826299
0.105653,0.0444058,0.0594366,-0.041782,0.052104,-0.0715722,-0.0908304
-0.0725739,0.0383013,-0.0678243,-0.0717054,-0.0193664,-0.055478,0.0640386
0.0456806,0.0554854,0.0338162,0.0120669,0.0279105,-0.0479496,-0.047252
-0.00710232,0.0572932,0.0123126,-0.0596625,0.0238259,-0.0410453,0.00677442
-0.0618238,0.0976246,-0.0180268,-0.119875,-0.0353721,-0.0619943,0.0369007
0.059748,0.128874,0.0582435,-0.0923568,0.00516433,-0.121314,-0.0526605
-0.0874433,0.0885702,-0.115991,-0.140135,-0.0584402,-0.0943066,0.0827263
0.10607,0.044092,0.0596825,-0.0412172,0.0522331,-0.0714046,-0.0909953
-0.0728878,0.0380854,-0.0679237,-0.0710199,-0.0193618,-0.0553892,0.0643007
0.0460849,0.0549958,0.0340084,0.0125117,0.0279347,-0.0477244,-0.0473877
-0.00687407,0.0570362,0.0122844,-0.0590715,0.0237811,-0.0409954,0.00687606
-0.0617111,0.0974968,-0.017981,-0.119349,-0.03548,-0.0620626,0.0369666
0.0601649,0.128619,0.0585462,-0.0921303,0.0051972,-0.121267,-0.0528863
-0.088067,0.0885085,-0.115876,-0.139593,-0.0582865,-0.0943512,0.082817
0.106474,0.0437844,0.0599245,-0.0406703,0.0523573,-0.0712419,-0.0911519
-0.0731891,0.0378738,-0.0680125,-0.0703548,-0.0193561,-0.055304,0.0645526
0.0464802,0.0545166,0.0341992,0.01294,0.0279574,-0.047506,-0.0475174
-0.00664821,0.056784,0.012262,-0.0584989,0.0237372,-0.0409483,0.00697401
-0.0615964,0.0973694,-0.0179311,-0.118838,-0.035584,-0.06213,0.03703
0.0605731,0.128368,0.0588441,-0.0919123,0.00522895,-0.121221,-0.0531042
-0.0886703,0.0884462,-0.115755,-0.139065,-0.0581346,-0.0943951,0.0829023
0.106867,0.0434836,0.0601625,-0.0401412,0.0524768,-0.0710839,-0.0913004
-0.0734785,0.0376668,-0.0680915,-0.0697099,-0.0193495,-0.0552223,0.0647944
0.0468666,0.0540479,0.0343882,0.0133521,0.0279787,-0.0472941,-0.0476412
-0.0064249,0.0565369,0.0122452,-0.0579446,0.023694,-0.0409039,0.00706836
-0.0614799,0.0972429,-0.0178775,-0.118342,-0.0356843,-0.0621965,0.0370911
0.0609726,0.128119,0.0591372,-0.0917028,0.0052596,-0.121175,-0.0533146
-0.0892538,0.088384,-0.11563,-0.138553,-0.0579845,-0.0944382,0.0829823
0.107248,0.0431896,0.0603964,-0.0396299,0.0525916,-0.0709305,-0.0914411
-0.0737564,0.0374648,-0.0681611,-0.0690852,-0.0193419,-0.0551439,0.0650267
0.0472439,0.0535899,0.0345753,0.013748,0.0279985,-0.0470886,-0.0477595
-0.00620428,0.0562953,0.0122333,-0.0574086,0.0236515,-0.040862,0.00715925
-0.0613622,0.0971178,-0.0178206,-0.117861,-0.035781,-0.0622621,0.03715
0.0613633,0.127875,0.0594253,-0.0915021,0.00528914,-0.121129,-0.0535177
-0.0898183,0.0883222,-0.1155,-0.138056,-0.0578365,-0.0944807,0.0830575
0.107618,0.0429029,0.060626,-0.0391362,0.052702,-0.0707816,-0.0915745
-0.0740232,0.0372681,-0.0682221,-0.0684805,-0.0193336,-0.0550688,0.0652497
0.0476124,0.0531429,0.0347602,0.0141279,0.0280169,-0.0468894,-0.0478725
-0.00598651,0.0560594,0.0122261,-0.0568907,0.0236097,-0.0408227,0.00724678
-0.0612435,0.0969945,-0.0177608,-0.117396,-0.0358743,-0.0623269,0.0372067
0.0617454,0.127634,0.0597083,-0.0913102,0.00531758,-0.121084,-0.0537137
-0.0903643,0.0882613,-0.115366,-0.137575,-0.0576904,-0.0945225,0.0831279
0.107976,0.0426236,0.0608513,-0.0386601,0.052808,-0.0706371,-0.0917008
-0.0742796,0.037077,-0.0682751,-0.0678957,-0.0193245,-0.0549969,0.0654638
0.0479719,0.0527071,0.0349427,0.0144918,0.0280341,-0.0466962,-0.0479802
-0.0057717,0.0558296,0.012223,-0.0563907,0.0235686,-0.0407857,0.00733107
-0.061124,0.0968734,-0.0176986,-0.116946,-0.0359643,-0.0623908,0.0372614
0.0621188,0.127398,0.0599861,-0.0911273,0.00534493,-0.12104,-0.0539029
-0.0908927,0.0882017,-0.115229,-0.13711,-0.0575464,-0.0945636,0.0831938
0.108324,0.042352,0.0610722,-0.0382014,0.0529099,-0.070497,-0.0918203
-0.0745259,0.0368916,-0.0683205,-0.0673306,-0.0193148,-0.0549281,0.0656693
0.0483226,0.0522825,0.0351226,0.01484,0.02805,-0.046509,-0.048083
-0.00555999,0.055606,0.0122238,-0.0559087,0.0235281,-0.0407511,0.00741222
-0.0610041,0.0967548,-0.0176341,-0.11651,-0.0360512,-0.0624539,0.037314
0.0624836,0.127167,0.0602586,-0.0909536,0.0053712,-0.120996,-0.0540854
-0.0914039,0.0881438,-0.115089,-0.13666,-0.0574045,-0.0946042,0.0832554
0.108662,0.0420883,0.0612886,-0.0377599,0.0530077,-0.0703611,-0.0919334
-0.0747626,0.0367122,-0.0683591,-0.0667851,-0.0193045,-0.0548623,0.0658665
0.0486646,0.0518693,0.0352999,0.0151725,0.0280646,-0.0463276,-0.048181
-0.00535148,0.055389,0.0122281,-0.0554443,0.0234883,-0.0407187,0.00749035
-0.0608841,0.0966392,-0.0175679,-0.11609,-0.0361351,-0.0625161,0.0373648
0.0628399,0.126942,0.0605258,-0.0907889,0.00539639,-0.120952,-0.0542616
-0.0918987,0.0880879,-0.114947,-0.136225,-0.0572648,-0.0946442,0.0833129
0.108989,0.0418326,0.0615003,-0.0373357,0.0531016,-0.0702293,-0.0920403
-0.07499,0.036539,-0.0683913,-0.0662589,-0.0192936,-0.0547995,0.0660558
0.0489979,0.0514677,0.0354742,0.0154897,0.028078,-0.0461519,-0.0482744
-0.0051463,0.0551787,0.0122354,-0.0549975,0.0234491,-0.0406885,0.00756554
-0.0607642,0.0965268,-0.0175003,-0.115686,-0.0362162,-0.0625776,0.0374137
0.0631876,0.126721,0.0607874,-0.0906336,0.00542053,-0.12091,-0.0544317
-0.0923776,0.0880343,-0.114803,-0.135806,-0.0571273,-0.0946836,0.0833665
0.109305,0.0415851,0.0617074,-0.0369283,0.0531917,-0.0701017,-0.0921414
-0.0752087,0.0363722,-0.0684176,-0.065752,-0.0192824,-0.0547394,0.0662374
0.0493225,0.0510777,0.0356455,0.0157916,0.0280903,-0.0459817,-0.0483634
-0.00494454,0.0549752,0.0122455,-0.0545681,0.0234104,-0.0406603,0.00763792
-0.0606446,0.096418,-0.0174314,-0.115296,-0.0362945,-0.0626382,0.0374608
0.0635268,0.126507,0.0610435,-0.0904875,0.00544361,-0.120868,-0.0545958
-0.0928413,0.0879834,-0.114657,-0.135403,-0.0569921,-0.0947225,0.0834164
0.109612,0.0413459,0.0619097,-0.0365378,0.0532781,-0.069978,-0.0922369
-0.075419,0.036212,-0.0684385,-0.065264,-0.0192708,-0.0546821,0.0664117
0.0496385,0.0506993,0.0358136,0.0160784,0.0281015,-0.0458168,-0.0484482
-0.00474629,0.0547788,0.012258,-0.0541559,0.0233724,-0.0406342,0.00770757
-0.0605256,0.0963129,-0.0173617,-0.114921,-0.0363701,-0.0626981,0.0375063
0.0638576,0.126298,0.061294,-0.0903507,0.00546565,-0.120827,-0.0547541
-0.0932902,0.0879353,-0.11451,-0.135014,-0.0568592,-0.094761,0.0834627
0.109909,0.0411152,0.0621071,-0.0361639,0.0533609,-0.0698582,-0.092327
-0.0756214,0.0360583,-0.0684545,-0.0647947,-0.0192588,-0.0546275,0.0665789
0.0499461,0.0503326,0.0359784,0.0163504,0.0281116,-0.0456573,-0.0485289
-0.00455164,0.0545896,0.0122726,-0.0537607,0.0233348,-0.04061,0.00777458
-0.0604073,0.0962119,-0.0172914,-0.114561,-0.0364433,-0.0627572,0.0375501
0.0641801,0.126096,0.0615388,-0.0902232,0.00548666,-0.120787,-0.054907
-0.0937249,0.0878904,-0.114362,-0.134641,-0.0567285,-0.094799,0.0835057
0.110196,0.0408929,0.0622998,-0.0358064,0.0534403,-0.0697422,-0.092412
-0.0758161,0.0359114,-0.0684661,-0.064344,-0.0192466,-0.0545755,0.0667393
0.0502453,0.0499776,0.0361398,0.0166077,0.0281206,-0.0455028,-0.0486057
-0.00436068,0.0544076,0.0122891,-0.0533822,0.0232978,-0.0405878,0.00783906
-0.0602901,0.0961151,-0.0172208,-0.114216,-0.036514,-0.0628156,0.0375924
0.0644943,0.1259,0.0617779,-0.090105,0.00550665,-0.120747,-0.0550544
-0.0941459,0.0878487,-0.114214,-0.134283,-0.0566003,-0.0948365,0.0835456
0.110473,0.0406792,0.0624874,-0.035465,0.0535163,-0.0696299,-0.0924921
-0.0760036,0.0357714,-0.0684736,-0.0639116,-0.0192342,-0.054526,0.0668931
0.0505362,0.0496344,0.0362976,0.0168506,0.0281286,-0.0453533,-0.0486788
-0.00417346,0.054233,0.0123071,-0.0530204,0.0232614,-0.0405673,0.00790109
-0.0601739,0.0960228,-0.0171501,-0.113885,-0.0365824,-0.0628732,0.0376331
0.0648003,0.125711,0.0620112,-0.089996,0.00552564,-0.120708,-0.0551967
-0.0945538,0.0878106,-0.114066,-0.13394,-0.0564744,-0.0948736,0.0835823
0.110742,0.0404742,0.0626702,-0.0351397,0.0535891,-0.0695213,-0.0925676
-0.0761841,0.0356383,-0.0684774,-0.0634972,-0.0192217,-0.0544789,0.0670407
0.0508188,0.0493028,0.0364517,0.0170792,0.0281357,-0.0452088,-0.0487483
-0.00399007,0.0540658,0.0123264,-0.0526749,0.0232254,-0.0405485,0.00796076
-0.0600591,0.0959351,-0.0170796,-0.113569,-0.0366486,-0.0629301,0.0376723
0.0650981,0.125528,0.0622387,-0.0898963,0.00554364,-0.120671,-0.055334
-0.094949,0.0877762,-0.113918,-0.133612,-0.0563508,-0.0949103,0.0836162
0.111001,0.0402777,0.0628479,-0.0348301,0.0536587,-0.0694162,-0.0926387
-0.0763581,0.0355121,-0.068478,-0.0631006,-0.019209,-0.0544341,0.0671822
0.0510934,0.0489829,0.0366021,0.017294,0.0281418,-0.0450689,-0.0488143
-0.00381054,0.0539062,0.0123467,-0.0523455,0.0231898,-0.0405315,0.00801815
-0.0599458,0.0958521,-0.0170095,-0.113268,-0.0367127,-0.0629863,0.0377102
0.0653879,0.125353,0.0624603,-0.0898058,0.00556066,-0.120634,-0.0554664
-0.095332,0.0877456,-0.113771,-0.133299,-0.0562297,-0.0949466,0.0836474
0.111251,0.0400899,0.0630206,-0.0345359,0.0537253,-0.0693147,-0.0927056
-0.0765258,0.035393,-0.0684758,-0.0627215,-0.0191962,-0.0543917,0.0673179
0.0513599,0.0486746,0.0367486,0.0174949,0.028147,-0.0449337,-0.0488771
-0.00363495,0.053754,0.0123678,-0.052032,0.0231548,-0.040516,0.00807335
-0.0598341,0.095774,-0.01694,-0.11298,-0.0367748,-0.0630418,0.0377467
0.0656698,0.125184,0.0626761,-0.0897243,0.00557673,-0.120598,-0.0555942
-0.0957033,0.087719,-0.113625,-0.133,-0.056111,-0.0949826,0.0836761
0.111493,0.0399108,0.0631883,-0.0342571,0.053789,-0.0692165,-0.0927686
-0.0766875,0.0352809,-0.0684709,-0.0623596,-0.0191835,-0.0543515,0.067448
0.0516185,0.0483779,0.0368913,0.0176824,0.0281513,-0.044803,-0.0489368
-0.00346332,0.0536094,0.0123894,-0.0517341,0.0231202,-0.0405021,0.00812644
-0.0597242,0.0957009,-0.0168713,-0.112707,-0.036835,-0.0630966,0.0377819
0.0659437,0.125022,0.0628861,-0.0896519,0.00559185,-0.120563,-0.0557175
-0.0960632,0.0876964,-0.11348,-0.132716,-0.0559947,-0.0950182,0.0837023
0.111727,0.0397402,0.0633509,-0.0339932,0.0538499,-0.0691217,-0.0928277
-0.0768436,0.0351757,-0.0684639,-0.0620147,-0.0191707,-0.0543134,0.0675727
0.0518693,0.0480927,0.03703,0.0178566,0.0281547,-0.0446768,-0.0489934
-0.0032957,0.0534724,0.0124115,-0.0514515,0.023086,-0.0404898,0.00817748
-0.0596161,0.0956328,-0.0168035,-0.112447,-0.0368933,-0.0631507,0.0378159
0.0662098,0.124868,0.0630901,-0.0895885,0.00560604,-0.120529,-0.0558365
-0.0964123,0.087678,-0.113336,-0.132446,-0.0558808,-0.0950534,0.0837261
0.111951,0.0395783,0.0635084,-0.0337441,0.053908,-0.0690301,-0.0928832
-0.0769944,0.0350776,-0.068455,-0.0616864,-0.019158,-0.0542774,0.0676923
0.0521123,0.0478188,0.0371647,0.0180179,0.0281574,-0.0445547,-0.0490472
-0.00313211,0.0533428,0.0124336,-0.0511841,0.0230523,-0.0404788,0.00822656
-0.05951,0.0955699,-0.0167369,-0.112201,-0.0369498,-0.0632041,0.0378486
0.0664683,0.12472,0.0632883,-0.0895338,0.00561932,-0.120496,-0.0559512
-0.0967509,0.0876638,-0.113194,-0.132189,-0.0557694,-0.0950883,0.0837479
0.112168,0.0394249,0.0636609,-0.0335095,0.0539634,-0.0689417,-0.0929353
-0.07714,0.0349865,-0.0684444,-0.0613745,-0.0191454,-0.0542434,0.067807
0.0523478,0.0475562,0.0372953,0.0181664,0.0281592,-0.0444369,-0.0490982
-0.00297258,0.0532208,0.0124558,-0.0509314,0.023019,-0.0404692,0.00827375
-0.0594061,0.0955121,-0.0166715,-0.111969,-0.0370046,-0.0632569,0.0378802
0.0667191,0.12458,0.0634806,-0.0894879,0.0056317,-0.120463,-0.0560619
-0.0970793,0.0876539,-0.113053,-0.131947,-0.0556604,-0.0951228,0.0837675
0.112377,0.0392799,0.0638083,-0.033289,0.0540163,-0.0688564,-0.0929841
-0.0772807,0.0349023,-0.0684325,-0.0610786,-0.0191329,-0.0542113,0.0679169
0.0525759,0.0473047,0.0374218,0.0183026,0.0281603,-0.0443232,-0.0491466
-0.00281713,0.0531062,0.0124777,-0.0506933,0.0229861,-0.040461,0.00831912
-0.0593043,0.0954596,-0.0166076,-0.111749,-0.0370578,-0.063309,0.0379106
0.0669625,0.124447,0.063667,-0.0894506,0.0056432,-0.120432,-0.0561687
-0.0973981,0.0876483,-0.112915,-0.131718,-0.0555538,-0.0951571,0.0837853
0.112578,0.0391433,0.0639507,-0.0330825,0.0540666,-0.0687741,-0.0930299
-0.0774169,0.034825,-0.0684196,-0.0607985,-0.0191205,-0.0541811,0.0680222
0.0527965,0.0470643,0.0375442,0.0184265,0.0281606,-0.0442134,-0.0491925
-0.00266577,0.0529991,0.0124993,-0.0504694,0.0229535,-0.040454,0.00836274
-0.0592048,0.0954123,-0.0165453,-0.111543,-0.0371095,-0.0633604,0.03794
0.0671984,0.124321,0.0638476,-0.0894217,0.00565385,-0.120402,-0.0562718
-0.0977075,0.0876471,-0.112779,-0.131502,-0.0554496,-0.095191,0.0838012
0.112772,0.0390151,0.064088,-0.0328895,0.0541146,-0.0686948,-0.0930727
-0.0775487,0.0347545,-0.0684058,-0.0605337,-0.0191082,-0.0541528,0.0681231
0.05301,0.0468347,0.0376624,0.0185386,0.0281602,-0.0441074,-0.049236
-0.0025185,0.0528992,0.0125203,-0.0502594,0.0229214,-0.0404483,0.00840466
-0.0591076,0.0953702,-0.0164847,-0.11135,-0.0371597,-0.0634112,0.0379683
0.0674271,0.124202,0.0640224,-0.0894011,0.00566365,-0.120373,-0.0563711
-0.0980079,0.0876501,-0.112645,-0.1313,-0.0553479,-0.0952246,0.0838154
0.112958,0.038895,0.0642203,-0.0327099,0.0541602,-0.0686183,-0.0931127
-0.0776763,0.0346907,-0.0683913,-0.060284,-0.0190962,-0.0541262,0.0682199
0.0532163,0.0466158,0.0377764,0.018639,0.0281592,-0.0440052,-0.0492771
-0.00237532,0.0528066,0.0125407,-0.050063,0.0228896,-0.0404437,0.00844496
-0.0590128,0.0953334,-0.0164258,-0.111169,-0.0372084,-0.0634614,0.0379956
0.0676486,0.12409,0.0641914,-0.0893886,0.00567263,-0.120344,-0.056467
-0.0982996,0.0876576,-0.112514,-0.13111,-0.0552485,-0.095258,0.083828
0.113137,0.0387829,0.0643477,-0.0325434,0.0542036,-0.0685447,-0.0931501
-0.0778,0.0346335,-0.0683765,-0.0600491,-0.0190844,-0.0541013,0.0683126
0.0534157,0.0464074,0.0378863,0.0187281,0.0281574,-0.0439067,-0.0493162
-0.00223624,0.0527212,0.0125603,-0.04988,0.0228582,-0.0404403,0.0084837
-0.0589205,0.0953017,-0.0163689,-0.111,-0.0372558,-0.0635109,0.0380219
0.067863,0.123986,0.0643547,-0.0893842,0.0056808,-0.120317,-0.0565595
-0.0985829,0.0876693,-0.112386,-0.130933,-0.0551515,-0.095291,0.0838391
0.113309,0.0386788,0.0644701,-0.0323895,0.0542449,-0.0684738,-0.093185
-0.07792,0.0345829,-0.0683615,-0.0598286,-0.0190728,-0.054078,0.0684014
0.0536081,0.0462095,0.037992,0.0188063,0.0281551,-0.0438117,-0.0493531
-0.00210123,0.0526428,0.0125791,-0.0497101,0.0228272,-0.0404379,0.00852092
-0.0588307,0.0952752,-0.0163139,-0.110843,-0.0373019,-0.0635598,0.0380473
0.0680705,0.123888,0.0645122,-0.0893875,0.00568818,-0.120291,-0.0566487
-0.0988582,0.0876853,-0.11226,-0.130768,-0.0550569,-0.0953238,0.0838487
0.113474,0.0385826,0.0645876,-0.0322481,0.054284,-0.0684055,-0.0932175
-0.0780364,0.0345388,-0.0683465,-0.0596222,-0.0190614,-0.0540563,0.0684865
0.0537939,0.0460216,0.0380935,0.0188736,0.0281521,-0.0437202,-0.049388
-0.00197028,0.0525713,0.0125968,-0.0495528,0.0227965,-0.0404366,0.0085567
-0.0587435,0.0952539,-0.016261,-0.110698,-0.0373467,-0.063608,0.0380718
0.0682712,0.123797,0.0646641,-0.0893984,0.0056948,-0.120265,-0.0567347
-0.0991257,0.0877055,-0.112137,-0.130615,-0.0549646,-0.0953562,0.0838571
0.113632,0.0384939,0.0647003,-0.0321187,0.0543211,-0.0683399,-0.0932478
-0.0781495,0.0345009,-0.0683316,-0.0594294,-0.0190503,-0.0540361,0.068568
0.053973,0.0458438,0.0381909,0.0189306,0.0281486,-0.043632,-0.0494211
-0.00184338,0.0525066,0.0126134,-0.0494079,0.0227662,-0.0404362,0.00859108
-0.0586588,0.0952375,-0.0162102,-0.110565,-0.0373903,-0.0636557,0.0380954
0.0684651,0.123713,0.0648105,-0.0894168,0.00570067,-0.120241,-0.0568177
-0.0993858,0.0877299,-0.112018,-0.130474,-0.0548746,-0.0953884,0.0838641
0.113784,0.0384128,0.0648081,-0.0320012,0.0543562,-0.0682767,-0.0932759
-0.0782594,0.0344692,-0.068317,-0.0592501,-0.0190395,-0.0540174,0.0686462
0.0541457,0.0456758,0.0382841,0.0189774,0.0281445,-0.0435471,-0.0494523
-0.00172049,0.0524486,0.0126289,-0.049275,0.0227362,-0.0404368,0.00862412
-0.0585768,0.0952261,-0.0161616,-0.110443,-0.0374328,-0.0637027,0.0381181
0.0686525,0.123635,0.0649512,-0.0894425,0.00570581,-0.120217,-0.0568978
-0.0996386,0.0877584,-0.111901,-0.130344,-0.0547869,-0.0954203,0.0838701
0.11393,0.0383391,0.0649112,-0.0318951,0.0543895,-0.0682161,-0.0933021
-0.0783663,0.0344435,-0.0683029,-0.0590838,-0.0190289,-0.0540001,0.068721
0.054312,0.0455173,0.0383733,0.0190144,0.0281398,-0.0434653,-0.0494818
-0.00160159,0.0523972,0.0126431,-0.0491539,0.0227065,-0.0404383,0.00865587
-0.0584974,0.0952196,-0.0161153,-0.110331,-0.0374741,-0.0637492,0.0381401
0.0688333,0.123564,0.0650865,-0.0894751,0.00571024,-0.120195,-0.056975
-0.0998845,0.087791,-0.111788,-0.130226,-0.0547016,-0.095452,0.0838749
0.114069,0.0382725,0.0650096,-0.0318001,0.0544209,-0.0681578,-0.0933264
-0.0784703,0.0344238,-0.0682893,-0.0589302,-0.0190187,-0.0539842,0.0687927
0.0544721,0.0453681,0.0384583,0.0190419,0.0281347,-0.0433867,-0.0495097
-0.00148663,0.0523521,0.012656,-0.0490442,0.0226772,-0.0404406,0.00868637
-0.0584206,0.0952179,-0.0160712,-0.110231,-0.0375144,-0.063795,0.0381612
0.0690079,0.1235,0.0652164,-0.0895147,0.00571398,-0.120173,-0.0570495
-0.100124,0.0878274,-0.111678,-0.130118,-0.0546184,-0.0954833,0.0838788
0.114202,0.0382129,0.0651033,-0.0317159,0.0544506,-0.0681018,-0.0933488
-0.0785716,0.0344097,-0.0682764,-0.0587889,-0.0190087,-0.0539695,0.0688614
0.0546262,0.0452281,0.0385393,0.0190602,0.0281291,-0.043311,-0.049536
-0.00137559,0.0523132,0.0126675,-0.0489456,0.0226482,-0.0404438,0.00871568
-0.0583465,0.0952208,-0.0160294,-0.110141,-0.0375537,-0.0638402,0.0381816
0.0691762,0.123442,0.065341,-0.0895608,0.00571706,-0.120152,-0.0571213
-0.100357,0.0878678,-0.111572,-0.130021,-0.0545375,-0.0955144,0.0838816
0.114329,0.0381601,0.0651925,-0.0316423,0.0544786,-0.0680481,-0.0933696
-0.0786704,0.0344013,-0.0682644,-0.0586596,-0.0189991,-0.0539561,0.0689271
0.0547742,0.045097,0.0386163,0.0190696,0.028123,-0.0432383,-0.0495608
-0.00126842,0.0522804,0.0126776,-0.0488578,0.0226196,-0.0404477,0.00874383
-0.0582751,0.0952284,-0.01599,-0.11006,-0.037592,-0.0638848,0.0382013
0.0693384,0.12339,0.0654603,-0.0896133,0.00571948,-0.120132,-0.0571906
-0.100583,0.0879118,-0.111468,-0.129934,-0.0544588,-0.0955452,0.0838837
0.114451,0.038114,0.0652772,-0.0315788,0.054505,-0.0679965,-0.0933888
-0.0787666,0.0343983,-0.0682532,-0.0585419,-0.0189897,-0.053944,0.0689901
0.0549165,0.0449746,0.0386894,0.0190704,0.0281164,-0.0431683,-0.0495842
-0.00116507,0.0522535,0.0126862,-0.0487803,0.0225912,-0.0404523,0.00877089
-0.0582063,0.0952403,-0.0159529,-0.10999,-0.0376293,-0.0639288,0.0382203
0.0694947,0.123344,0.0655745,-0.0896721,0.00572127,-0.120113,-0.0572574
-0.100804,0.0879595,-0.111369,-0.129858,-0.0543822,-0.0955757,0.0838849
0.114567,0.0380743,0.0653574,-0.0315251,0.0545297,-0.0679471,-0.0934065
-0.0788606,0.0344005,-0.068243,-0.0584354,-0.0189807,-0.0539329,0.0690505
0.0550531,0.0448605,0.0387585,0.0190628,0.0281094,-0.0431011,-0.0496063
-0.00106549,0.0522324,0.0126933,-0.0487129,0.0225632,-0.0404576,0.00879687
-0.0581401,0.0952567,-0.0159182,-0.109929,-0.0376657,-0.0639722,0.0382386
0.0696451,0.123304,0.0656836,-0.0897368,0.00572245,-0.120095,-0.0573218
-0.101018,0.0880108,-0.111272,-0.129791,-0.0543078,-0.095606,0.0838853
0.114678,0.0380409,0.0654333,-0.0314809,0.054553,-0.0678998,-0.0934227
-0.0789523,0.0344078,-0.0682339,-0.0583398,-0.018972,-0.053923,0.0691082
0.0551842,0.0447547,0.0388238,0.0190474,0.028102,-0.0430366,-0.0496271
-0.000969633,0.0522167,0.0126988,-0.0486553,0.0225355,-0.0404636,0.00882184
-0.0580765,0.0952772,-0.0158859,-0.109877,-0.0377013,-0.064015,0.0382562
0.0697898,0.123269,0.0657876,-0.0898072,0.00572305,-0.120078,-0.0573839
-0.101227,0.0880654,-0.111179,-0.129733,-0.0542355,-0.0956359,0.0838851
0.114783,0.0380135,0.0655049,-0.0314459,0.0545748,-0.0678545,-0.0934377
-0.079042,0.03442,-0.0682259,-0.0582548,-0.0189637,-0.0539141,0.0691636
0.0553098,0.0446568,0.0388853,0.0190242,0.0280943,-0.0429746,-0.0496467
-0.000877439,0.0522065,0.0127028,-0.048607,0.0225081,-0.0404702,0.00884582
-0.0580156,0.0953017,-0.0158559,-0.109834,-0.037736,-0.0640572,0.0382732
0.0699289,0.12324,0.0658868,-0.0898831,0.00572307,-0.120062,-0.0574438
-0.101431,0.0881233,-0.11109,-0.129684,-0.0541653,-0.0956656,0.0838842
0.114884,0.0379919,0.0655724,-0.0314197,0.0545952,-0.0678111,-0.0934513
-0.0791296,0.0344369,-0.0682191,-0.0581799,-0.0189556,-0.0539063,0.0692166
0.0554302,0.0445666,0.0389431,0.0189937,0.0280862,-0.0429151,-0.0496651
-0.000788849,0.0522013,0.0127052,-0.0485679,0.0224811,-0.0404773,0.00886885
-0.0579572,0.0953302,-0.0158284,-0.1098,-0.0377699,-0.0640989,0.0382895
0.0700626,0.123217,0.0659811,-0.0899644,0.00572255,-0.120046,-0.0575016
-0.10163,0.0881843,-0.111004,-0.129644,-0.0540971,-0.095695,0.0838827
0.114979,0.037976,0.0656357,-0.031402,0.0546143,-0.0677695,-0.0934638
-0.0792153,0.0344584,-0.0682135,-0.0581149,-0.0189479,-0.0538994,0.0692673
0.0555454,0.0444838,0.0389972,0.0189561,0.0280777,-0.042858,-0.0496824
-0.000703802,0.0522012,0.012706,-0.0485374,0.0224543,-0.0404851,0.00889098
-0.0579014,0.0953624,-0.0158031,-0.109774,-0.037803,-0.0641399,0.0383053
0.0701909,0.123198,0.0660707,-0.0900506,0.00572149,-0.120031,-0.0575573
-0.101823,0.0882483,-0.110921,-0.129613,-0.0540309,-0.0957241,0.0838807
0.11507,0.0379655,0.065695,-0.0313925,0.054632,-0.0677298,-0.0934752
-0.0792993,0.0344842,-0.0682093,-0.0580593,-0.0189405,-0.0538934,0.0693159
0.0556556,0.0444083,0.0390477,0.0189118,0.0280689,-0.0428032,-0.0496987
-0.000622234,0.0522059,0.0127052,-0.0485154,0.0224278,-0.0404933,0.00891223
-0.0578481,0.0953983,-0.0157802,-0.109756,-0.0378354,-0.0641803,0.0383205
0.0703141,0.123185,0.0661557,-0.0901417,0.00571993,-0.120017,-0.057611
-0.102012,0.0883152,-0.110842,-0.12959,-0.0539666,-0.0957529,0.0838781
0.115156,0.0379602,0.0657504,-0.0313909,0.0546486,-0.0676919,-0.0934855
-0.0793814,0.0345142,-0.0682063,-0.0580128,-0.0189335,-0.0538883,0.0693624
0.055761,0.0443396,0.0390947,0.0188611,0.0280598,-0.0427507,-0.049714
-0.000544077,0.0522151,0.0127028,-0.0485014,0.0224017,-0.040502,0.00893263
-0.0577973,0.0954376,-0.0157596,-0.109745,-0.037867,-0.0642202,0.0383352
0.0704322,0.123176,0.0662362,-0.0902373,0.00571787,-0.120004,-0.0576628
-0.102196,0.0883847,-0.110767,-0.129574,-0.0539043,-0.0957814,0.0838751
0.115237,0.0379599,0.0658019,-0.0313968,0.0546639,-0.0676556,-0.0934948
-0.0794619,0.0345481,-0.0682046,-0.0579751,-0.0189267,-0.0538841,0.0694069
0.0558616,0.0442777,0.0391382,0.0188042,0.0280505,-0.0427004,-0.0497283
-0.000469265,0.0522288,0.0126989,-0.0484952,0.0223759,-0.0405111,0.00895223
-0.0577489,0.0954802,-0.0157413,-0.109742,-0.0378979,-0.0642595,0.0383493
0.0705454,0.123172,0.0663123,-0.0903373,0.00571535,-0.119991,-0.0577127
-0.102375,0.0884569,-0.110694,-0.129566,-0.0538439,-0.0958096,0.0838717
0.115314,0.0379644,0.0658497,-0.0314098,0.054678,-0.067621,-0.0935032
-0.0795409,0.0345858,-0.0682043,-0.0579457,-0.0189203,-0.0538806,0.0694495
0.0559576,0.0442222,0.0391784,0.0187415,0.0280408,-0.0426522,-0.0497418
-0.000397725,0.0522466,0.0126934,-0.0484964,0.0223504,-0.0405206,0.00897105
-0.057703,0.0955259,-0.0157253,-0.109746,-0.0379281,-0.0642981,0.0383629
0.0706537,0.123173,0.0663841,-0.0904414,0.00571238,-0.119979,-0.0577609
-0.10255,0.0885314,-0.110625,-0.129566,-0.0537853,-0.0958375,0.083868
0.115387,0.0379734,0.0658939,-0.0314298,0.0546911,-0.067588,-0.0935108
-0.0796183,0.0346271,-0.0682054,-0.0579244,-0.0189142,-0.0538779,0.0694903
0.0560491,0.0441728,0.0392153,0.0186732,0.0280309,-0.042606,-0.0497544
-0.000329386,0.0522685,0.0126863,-0.0485047,0.0223252,-0.0405306,0.00898913
-0.0576594,0.0955746,-0.0157115,-0.109757,-0.0379577,-0.0643362,0.038376
0.0707574,0.123177,0.0664516,-0.0905493,0.00570897,-0.119968,-0.0578073
-0.10272,0.0886082,-0.11056,-0.129572,-0.0537285,-0.095865,0.0838638
0.115456,0.0379868,0.0659344,-0.0314563,0.0547031,-0.0675565,-0.0935175
-0.0796942,0.0346718,-0.0682078,-0.0579108,-0.0189083,-0.053876,0.0695294
0.0561363,0.0441294,0.039249,0.0185997,0.0280208,-0.0425618,-0.0497662
-0.000264174,0.0522941,0.0126777,-0.0485197,0.0223003,-0.0405408,0.00900648
-0.0576181,0.0956261,-0.0156998,-0.109774,-0.0379866,-0.0643737,0.0383886
0.0708566,0.123186,0.0665151,-0.0906609,0.00570516,-0.119957,-0.0578521
-0.102887,0.0886871,-0.110498,-0.129585,-0.0536735,-0.0958923,0.0838594
0.115521,0.0380043,0.0659716,-0.0314891,0.0547141,-0.0675265,-0.0935235
-0.0797688,0.0347196,-0.0682117,-0.0579046,-0.0189028,-0.0538746,0.0695668
0.0562193,0.0440917,0.0392795,0.0185213,0.0280105,-0.0425195,-0.0497772
-0.000202014,0.0523233,0.0126675,-0.0485412,0.0222757,-0.0405514,0.00902314
-0.0575791,0.0956803,-0.0156903,-0.109797,-0.0380148,-0.0644106,0.0384008
0.0709513,0.123199,0.0665746,-0.0907758,0.00570095,-0.119948,-0.0578952
-0.103049,0.088768,-0.110439,-0.129604,-0.0536203,-0.0959192,0.0838547
0.115582,0.0380257,0.0660054,-0.0315277,0.0547241,-0.0674979,-0.0935287
-0.079842,0.0347705,-0.0682169,-0.0579053,-0.0188976,-0.053874,0.0696025
0.0562982,0.0440593,0.0393071,0.0184382,0.028,-0.042479,-0.0497876
-0.00014283,0.052356,0.0126559,-0.0485687,0.0222514,-0.0405623,0.00903914
-0.0575423,0.0957369,-0.0156829,-0.109826,-0.0380425,-0.0644469,0.0384125
0.0710418,0.123215,0.0666302,-0.0908939,0.00569637,-0.119938,-0.0579368
-0.103207,0.0888506,-0.110383,-0.129629,-0.0535687,-0.0959458,0.0838498
0.11564,0.0380508,0.0660359,-0.031572,0.0547332,-0.0674706,-0.0935333
-0.0799138,0.0348242,-0.0682234,-0.0579128,-0.0188926,-0.0538739,0.0696368
0.0563732,0.0440321,0.0393316,0.0183507,0.0279893,-0.0424403,-0.0497972
-8.65438e-05,0.0523918,0.0126429,-0.0486021,0.0222275,-0.0405734,0.00905449
-0.0575077,0.0957959,-0.0156775,-0.10986,-0.0380696,-0.0644826,0.0384237
0.071128,0.123234,0.066682,-0.0910149,0.00569144,-0.11993,-0.057977
-0.103362,0.0889349,-0.11033,-0.129659,-0.0535189,-0.0959721,0.0838446
0.115694,0.0380795,0.0660633,-0.0316216,0.0547414,-0.0674447,-0.0935373
-0.0799845,0.0348805,-0.0682313,-0.0579266,-0.018888,-0.0538744,0.0696695
0.0564443,0.0440099,0.0393533,0.0182591,0.0279784,-0.0424033,-0.0498062
-3.30789e-05,0.0524306,0.0126284,-0.048641,0.0222038,-0.0405848,0.00906924
-0.0574752,0.0958569,-0.0156741,-0.1099,-0.038096,-0.0645177,0.0384346
0.0712103,0.123257,0.0667302,-0.0911387,0.00568617,-0.119922,-0.0580156
-0.103513,0.0890207,-0.110281,-0.129695,-0.0534706,-0.095998,0.0838392
0.115744,0.0381114,0.0660876,-0.0316762,0.0547488,-0.0674201,-0.0935406
-0.0800539,0.0349392,-0.0682406,-0.0579464,-0.0188836,-0.0538754,0.0697009
0.0565117,0.0439923,0.0393723,0.0181638,0.0279674,-0.0423679,-0.0498146
1.76441e-05,0.0524722,0.0126125,-0.048685,0.0221805,-0.0405964,0.00908339
-0.0574447,0.09592,-0.0156727,-0.109945,-0.038122,-0.0645522,0.038445
0.0712887,0.123283,0.0667749,-0.0912648,0.00568058,-0.119914,-0.0580529
-0.10366,0.0891078,-0.110234,-0.129736,-0.0534239,-0.0960236,0.0838337
0.115792,0.0381463,0.0661089,-0.0317355,0.0547553,-0.0673967,-0.0935435
-0.0801221,0.0350001,-0.0682511,-0.057972,-0.0188795,-0.053877,0.0697309
0.0565755,0.0439791,0.0393885,0.0180649,0.0279563,-0.0423341,-0.0498224
6.57053e-05,0.0525164,0.0125953,-0.048734,0.0221575,-0.0406081,0.00909697
-0.0574163,0.0959848,-0.0156731,-0.109994,-0.0381473,-0.0645861,0.0384551
0.0713632,0.123312,0.0668161,-0.0913933,0.0056747,-0.119907,-0.0580888
-0.103804,0.089196,-0.110191,-0.129782,-0.0533787,-0.0960488,0.083828
0.115836,0.0381841,0.0661274,-0.0317993,0.0547611,-0.0673744,-0.0935458
-0.0801891,0.0350631,-0.068263,-0.0580029,-0.0188756,-0.053879,0.0697596
0.0566358,0.0439701,0.0394022,0.0179627,0.027945,-0.0423018,-0.0498296
0.000111183,0.052563,0.0125768,-0.0487875,0.0221348,-0.04062,0.00911001
-0.0573898,0.0960513,-0.0156754,-0.110048,-0.0381722,-0.0646194,0.0384648
0.0714341,0.123344,0.066854,-0.0915237,0.00566853,-0.1199,-0.0581234
-0.103945,0.0892853,-0.11015,-0.129832,-0.0533351,-0.0960737,0.0838222
0.115877,0.0382246,0.0661432,-0.0318671,0.0547661,-0.0673533,-0.0935476
-0.0802551,0.035128,-0.0682761,-0.0580389,-0.018872,-0.0538814,0.069787
0.0566929,0.043965,0.0394133,0.0178575,0.0279337,-0.042271,-0.0498363
0.000154157,0.0526119,0.0125571,-0.0488453,0.0221124,-0.0406321,0.00912252
-0.0573651,0.0961192,-0.0156794,-0.110106,-0.0381964,-0.0646522,0.0384741
0.0715015,0.123378,0.0668886,-0.091656,0.0056621,-0.119894,-0.0581568
-0.104082,0.0893754,-0.110112,-0.129887,-0.0532929,-0.0960982,0.0838163
0.115915,0.0382676,0.0661562,-0.0319388,0.0547704,-0.0673332,-0.093549
-0.08032,0.0351945,-0.0682904,-0.0580796,-0.0188686,-0.0538842,0.0698133
0.0567466,0.0439636,0.039422,0.0177496,0.0279222,-0.0422415,-0.0498426
0.000194708,0.0526628,0.0125361,-0.0489072,0.0220904,-0.0406442,0.00913453
-0.0573423,0.0961885,-0.0156851,-0.110167,-0.0382202,-0.0646843,0.038483
0.0715654,0.123414,0.0669202,-0.0917898,0.00565542,-0.119889,-0.058189
-0.104216,0.0894663,-0.110077,-0.129945,-0.0532521,-0.0961224,0.0838103
0.115951,0.0383128,0.0661668,-0.0320141,0.0547741,-0.0673142,-0.09355
-0.0803837,0.0352625,-0.0683059,-0.0581248,-0.0188655,-0.0538874,0.0698384
0.0567973,0.0439657,0.0394285,0.0176392,0.0279107,-0.0422134,-0.0498483
0.000232919,0.0527154,0.012514,-0.0489727,0.0220687,-0.0406564,0.00914604
-0.0573213,0.0962589,-0.0156925,-0.110233,-0.0382435,-0.0647158,0.0384917
0.071626,0.123452,0.0669488,-0.091925,0.00564851,-0.119884,-0.05822
-0.104347,0.0895577,-0.110044,-0.130008,-0.0532127,-0.0961461,0.0838042
0.115983,0.03836,0.0661749,-0.0320926,0.0547771,-0.0672962,-0.0935506
-0.0804465,0.0353319,-0.0683225,-0.0581742,-0.0188626,-0.053891,0.0698624
0.056845,0.0439711,0.0394326,0.0175266,0.0278992,-0.0421866,-0.0498537
0.000268863,0.0527698,0.0124907,-0.0490417,0.0220472,-0.0406687,0.00915709
-0.0573019,0.0963302,-0.0157014,-0.110301,-0.0382663,-0.0647468,0.0385
0.0716835,0.123493,0.0669746,-0.0920614,0.00564139,-0.119879,-0.0582499
-0.104475,0.0896496,-0.110014,-0.130073,-0.0531747,-0.0961695,0.083798
0.116013,0.0384092,0.0661806,-0.0321742,0.0547795,-0.0672791,-0.0935509
-0.0805082,0.0354024,-0.0683403,-0.0582275,-0.0188598,-0.0538949,0.0698854
0.0568899,0.0439795,0.0394347,0.017412,0.0278875,-0.042161,-0.0498586
0.000302622,0.0528256,0.0124664,-0.0491139,0.0220262,-0.040681,0.0091677
-0.0572842,0.0964025,-0.0157119,-0.110373,-0.0382886,-0.0647771,0.0385079
0.0717379,0.123535,0.0669975,-0.0921987,0.00563407,-0.119875,-0.0582787
-0.104599,0.0897417,-0.109987,-0.130142,-0.0531379,-0.0961926,0.0837919
0.116041,0.03846,0.0661841,-0.0322586,0.0547814,-0.0672629,-0.0935508
-0.0805689,0.0354739,-0.0683591,-0.0582844,-0.0188573,-0.053899,0.0699074
0.0569319,0.0439906,0.0394347,0.0172956,0.0278759,-0.0421366,-0.0498631
0.000334274,0.0528828,0.0124411,-0.049189,0.0220054,-0.0406934,0.00917787
-0.0572681,0.0964753,-0.0157237,-0.110447,-0.0383104,-0.0648068,0.0385156
0.0717893,0.123579,0.0670178,-0.0923368,0.00562657,-0.119871,-0.0583064
-0.104721,0.0898339,-0.109962,-0.130213,-0.0531025,-0.0962152,0.0837857
0.116067,0.0385123,0.0661854,-0.0323455,0.0547827,-0.0672475,-0.0935504
-0.0806286,0.0355462,-0.068379,-0.0583445,-0.018855,-0.0539034,0.0699284
0.0569713,0.0440044,0.0394327,0.0171776,0.0278642,-0.0421133,-0.0498672
0.000363898,0.052941,0.0124149,-0.0492667,0.0219849,-0.0407057,0.00918762
-0.0572534,0.0965488,-0.015737,-0.110524,-0.0383317,-0.064836,0.038523
0.0718378,0.123624,0.0670356,-0.0924754,0.0056189,-0.119867,-0.0583332
-0.10484,0.0899262,-0.109939,-0.130288,-0.0530682,-0.0962374,0.0837794
0.11609,0.0385659,0.0661846,-0.0324346,0.0547835,-0.067233,-0.0935498
-0.0806873,0.0356192,-0.0683998,-0.0584078,-0.0188529,-0.0539081,0.0699485
0.0570082,0.0440206,0.0394289,0.0170584,0.0278525,-0.0420911,-0.049871
0.000391571,0.0530002,0.0123877,-0.0493469,0.0219648,-0.040718,0.00919698
-0.0572403,0.0966225,-0.0157516,-0.110603,-0.0383526,-0.0648645,0.0385301
0.0718836,0.12367,0.0670509,-0.0926145,0.00561107,-0.119864,-0.058359
-0.104957,0.0900182,-0.109919,-0.130364,-0.0530352,-0.0962593,0.0837732
0.116111,0.0386206,0.0661819,-0.0325258,0.0547838,-0.0672192,-0.0935488
-0.0807451,0.0356926,-0.0684216,-0.0584738,-0.0188509,-0.0539129,0.0699676
0.0570426,0.0440389,0.0394233,0.0169381,0.0278408,-0.0420699,-0.0498745
0.00041737,0.0530603,0.0123597,-0.0494292,0.021945,-0.0407303,0.00920595
-0.0572285,0.0966966,-0.0157674,-0.110684,-0.038373,-0.0648924,0.0385369
0.0719268,0.123717,0.0670639,-0.0927537,0.00560311,-0.119861,-0.0583838
-0.10507,0.0901101,-0.1099,-0.130443,-0.0530033,-0.0962807,0.083767
0.11613,0.0386763,0.0661773,-0.0326187,0.0547836,-0.0672062,-0.0935477
-0.0808019,0.0357664,-0.0684442,-0.0585424,-0.0188491,-0.053918,0.069986
0.0570746,0.0440592,0.0394159,0.0168169,0.0278291,-0.0420497,-0.0498776
0.000441371,0.0531209,0.0123309,-0.0495135,0.0219255,-0.0407425,0.00921455
-0.0572181,0.0967707,-0.0157844,-0.110767,-0.038393,-0.0649198,0.0385434
0.0719675,0.123766,0.0670746,-0.0928929,0.00559503,-0.119858,-0.0584077
-0.105181,0.0902015,-0.109884,-0.130523,-0.0529725,-0.0963018,0.0837608
0.116147,0.0387328,0.066171,-0.0327132,0.054783,-0.0671939,-0.0935463
-0.0808578,0.0358404,-0.0684677,-0.0586132,-0.0188474,-0.0539232,0.0700035
0.0571045,0.0440813,0.039407,0.0166951,0.0278175,-0.0420304,-0.0498804
0.000463649,0.053182,0.0123014,-0.0495994,0.0219064,-0.0407547,0.0092228
-0.0572089,0.0968448,-0.0158026,-0.110852,-0.0384125,-0.0649465,0.0385497
0.0720057,0.123815,0.0670832,-0.093032,0.00558683,-0.119856,-0.0584308
-0.10529,0.0902924,-0.10987,-0.130606,-0.0529428,-0.0963224,0.0837546
0.116162,0.0387899,0.0661629,-0.032809,0.054782,-0.0671822,-0.0935447
-0.0809127,0.0359144,-0.068492,-0.0586861,-0.0188459,-0.0539285,0.0700202
0.0571321,0.044105,0.0393966,0.0165727,0.0278058,-0.042012,-0.049883
0.000484277,0.0532435,0.0122711,-0.0496869,0.0218876,-0.0407668,0.0092307
-0.057201,0.0969187,-0.0158218,-0.110938,-0.0384316,-0.0649727,0.0385558
0.0720416,0.123864,0.0670898,-0.0931708,0.00557854,-0.119853,-0.058453
-0.105395,0.0903826,-0.109858,-0.130689,-0.0529142,-0.0963426,0.0837485
0.116175,0.0388475,0.0661533,-0.032906,0.0547807,-0.0671712,-0.0935429
-0.0809666,0.0359883,-0.068517,-0.0587608,-0.0188445,-0.0539339,0.0700362
0.0571578,0.0441301,0.0393847,0.0164502,0.0277943,-0.0419945,-0.0498853
0.000503329,0.0533051,0.0122403,-0.0497755,0.0218691,-0.0407787,0.00923828
-0.0571942,0.0969923,-0.0158419,-0.111025,-0.0384503,-0.0649982,0.0385616
0.0720752,0.123914,0.0670945,-0.093309,0.00557016,-0.119852,-0.0584743
-0.105499,0.090472,-0.109848,-0.130774,-0.0528866,-0.0963624,0.0837424
0.116187,0.0389054,0.0661421,-0.0330038,0.0547789,-0.0671608,-0.093541
-0.0810197,0.036062,-0.0685427,-0.058837,-0.0188432,-0.0539394,0.0700515
0.0571815,0.0441564,0.0393715,0.0163275,0.0277827,-0.0419778,-0.0498873
0.000520877,0.0533668,0.0122088,-0.0498653,0.0218509,-0.0407906,0.00924554
-0.0571885,0.0970654,-0.015863,-0.111113,-0.0384685,-0.0650232,0.0385671
0.0721068,0.123965,0.0670973,-0.0934467,0.00556172,-0.11985,-0.0584949
-0.105599,0.0905606,-0.109839,-0.130861,-0.05286,-0.0963818,0.0837363
0.116197,0.0389635,0.0661296,-0.0331024,0.0547769,-0.0671509,-0.0935388
-0.0810718,0.0361353,-0.068569,-0.0589147,-0.0188421,-0.0539451,0.0700661
0.0572033,0.0441838,0.039357,0.0162049,0.0277713,-0.0419618,-0.0498891
0.00053699,0.0534284,0.0121769,-0.0499558,0.0218331,-0.0408023,0.00925249
-0.0571839,0.097138,-0.0158849,-0.111202,-0.0384864,-0.0650476,0.0385725
0.0721363,0.124015,0.0670984,-0.0935835,0.00555321,-0.119848,-0.0585148
-0.105698,0.0906482,-0.109832,-0.130947,-0.0528343,-0.0964008,0.0837303
0.116206,0.0390217,0.0661157,-0.0332015,0.0547745,-0.0671416,-0.0935366
-0.081123,0.0362081,-0.0685959,-0.0589935,-0.018841,-0.0539507,0.07008
0.0572233,0.0442121,0.0393413,0.0160826,0.0277599,-0.0419466,-0.0498907
0.000551738,0.0534897,0.0121445,-0.050047,0.0218156,-0.0408139,0.00925916
-0.0571802,0.09721,-0.0159077,-0.111292,-0.0385038,-0.0650714,0.0385776
0.0721638,0.124066,0.0670978,-0.0937194,0.00554466,-0.119847,-0.0585339
-0.105794,0.0907347,-0.109827,-0.131035,-0.0528095,-0.0964193,0.0837244
0.116213,0.0390797,0.0661005,-0.0333009,0.0547718,-0.0671327,-0.0935342
-0.0811733,0.0362803,-0.0686234,-0.0590732,-0.0188401,-0.0539564,0.0700933
0.0572417,0.0442411,0.0393245,0.0159607,0.0277485,-0.0419321,-0.0498921
0.000565189,0.0535507,0.0121116,-0.0501387,0.0217984,-0.0408253,0.00926554
-0.0571774,0.0972811,-0.0159311,-0.111382,-0.0385208,-0.0650946,0.0385825
0.0721895,0.124116,0.0670957,-0.0938542,0.00553607,-0.119845,-0.0585523
-0.105888,0.09082,-0.109823,-0.131123,-0.0527856,-0.0964375,0.0837185
0.116219,0.0391374,0.0660843,-0.0334004,0.0547689,-0.0671244,-0.0935317
-0.0812226,0.0363518,-0.0686513,-0.0591536,-0.0188392,-0.0539621,0.070106
0.0572584,0.0442706,0.0393067,0.0158394,0.0277373,-0.0419182,-0.0498933
0.000577409,0.0536112,0.0120784,-0.0502306,0.0217816,-0.0408365,0.00927165
-0.0571756,0.0973514,-0.0159553,-0.111472,-0.0385374,-0.0651172,0.0385872
0.0722135,0.124166,0.0670922,-0.0939877,0.00552745,-0.119844,-0.05857
-0.105979,0.0909039,-0.109821,-0.131211,-0.0527626,-0.0964552,0.0837127
0.116224,0.0391948,0.0660669,-0.0334999,0.0547657,-0.0671164,-0.0935291
-0.0812711,0.0364224,-0.0686797,-0.0592347,-0.0188384,-0.0539678,0.070118
0.0572737,0.0443006,0.0392879,0.0157188,0.0277262,-0.041905,-0.0498943
0.000588462,0.0536711,0.0120448,-0.0503226,0.021765,-0.0408476,0.0092775
-0.0571745,0.0974207,-0.01598,-0.111562,-0.0385536,-0.0651392,0.0385917
0.0722357,0.124216,0.0670872,-0.09412,0.00551882,-0.119843,-0.0585871
-0.106069,0.0909865,-0.10982,-0.1313,-0.0527404,-0.0964724,0.083707
0.116228,0.0392517,0.0660485,-0.0335993,0.0547622,-0.0671089,-0.0935264
-0.0813186,0.036492,-0.0687084,-0.0593161,-0.0188377,-0.0539735,0.0701296
0.0572875,0.0443309,0.0392682,0.0155992,0.0277151,-0.0418923,-0.0498951
0.000598411,0.0537303,0.012011,-0.0504146,0.0217488,-0.0408584,0.0092831
-0.0571743,0.0974888,-0.0160053,-0.111652,-0.0385695,-0.0651606,0.0385961
0.0722564,0.124265,0.067081,-0.0942507,0.00551019,-0.119842,-0.0586035
-0.106156,0.0910676,-0.10982,-0.131388,-0.052719,-0.0964892,0.0837013
0.11623,0.039308,0.0660292,-0.0336983,0.0547586,-0.0671018,-0.0935236
-0.0813653,0.0365606,-0.0687375,-0.0593977,-0.018837,-0.0539791,0.0701406
0.0572999,0.0443614,0.0392477,0.0154805,0.0277042,-0.0418802,-0.0498957
0.000607319,0.0537886,0.011977,-0.0505063,0.021733,-0.0408691,0.00928846
-0.0571747,0.0975558,-0.0160311,-0.111742,-0.0385849,-0.0651815,0.0386002
0.0722755,0.124314,0.0670736,-0.0943799,0.00550156,-0.119842,-0.0586194
-0.106241,0.0911472,-0.109822,-0.131476,-0.0526983,-0.0965056,0.0836957
0.116231,0.0393636,0.066009,-0.0337968,0.0547548,-0.067095,-0.0935207
-0.081411,0.036628,-0.0687669,-0.0594793,-0.0188364,-0.0539847,0.070151
0.0573111,0.0443918,0.0392265,0.015363,0.0276934,-0.0418686,-0.0498962
0.000615246,0.0538461,0.0119428,-0.0505977,0.0217174,-0.0408795,0.00929359
-0.0571758,0.0976216,-0.0160573,-0.111832,-0.0386,-0.0652018,0.0386042
0.0722932,0.124362,0.067065,-0.0945074,0.00549294,-0.119841,-0.0586346
-0.106324,0.0912251,-0.109824,-0.131564,-0.0526784,-0.0965216,0.0836902
0.116232,0.0394184,0.0659881,-0.0338946,0.0547507,-0.0670885,-0.0935178
-0.0814558,0.0366942,-0.0687965,-0.0595608,-0.0188359,-0.0539903,0.070161
0.0573211,0.0444221,0.0392046,0.0152469,0.0276827,-0.0418575,-0.0498966
0.000622249,0.0539025,0.0119085,-0.0506885,0.0217022,-0.0408897,0.00929849
-0.0571776,0.0976859,-0.0160839,-0.111921,-0.0386146,-0.0652215,0.038608
0.0723095,0.124409,0.0670554,-0.0946331,0.00548435,-0.11984,-0.0586492
-0.106405,0.0913013,-0.109828,-0.131651,-0.0526592,-0.0965371,0.0836848
0.116231,0.0394722,0.0659664,-0.0339917,0.0547465,-0.0670824,-0.0935147
-0.0814997,0.036759,-0.0688263,-0.0596421,-0.0188353,-0.0539958,0.0701705
0.0573299,0.0444522,0.0391821,0.0151321,0.0276721,-0.0418468,-0.0498968
0.000628387,0.0539577,0.0118741,-0.0507787,0.0216873,-0.0408997,0.00930319
-0.0571799,0.0977489,-0.0161108,-0.112009,-0.0386289,-0.0652407,0.0386116
0.0723245,0.124455,0.0670449,-0.0947569,0.00547579,-0.11984,-0.0586634
-0.106483,0.0913757,-0.109833,-0.131738,-0.0526406,-0.0965522,0.0836795
0.11623,0.039525,0.0659441,-0.0340878,0.0547422,-0.0670765,-0.0935117
-0.0815428,0.0368225,-0.0688563,-0.0597229,-0.0188348,-0.0540012,0.0701796
0.0573376,0.044482,0.0391591,0.0150188,0.0276617,-0.0418366,-0.0498969
0.000633713,0.0540118,0.0118397,-0.0508681,0.0216728,-0.0409095,0.00930767
-0.0571827,0.0978103,-0.016138,-0.112096,-0.0386429,-0.0652593,0.0386151
0.0723383,0.124501,0.0670335,-0.0948787,0.00546727,-0.119839,-0.0586769
-0.10656,0.0914483,-0.109839,-0.131824,-0.0526227,-0.0965669,0.0836742
0.116228,0.0395767,0.0659213,-0.0341829,0.0547377,-0.0670709,-0.0935086
-0.0815849,0.0368844,-0.0688864,-0.0598032,-0.0188344,-0.0540065,0.0701882
0.0573444,0.0445112,0.0391355,0.0149071,0.0276513,-0.0418268,-0.0498969
0.000638283,0.0540646,0.0118053,-0.0509565,0.0216585,-0.040919,0.00931196
-0.057186,0.0978701,-0.0161654,-0.112183,-0.0386564,-0.0652773,0.0386185
0.072351,0.124545,0.0670212,-0.0949985,0.0054588,-0.119838,-0.05869
-0.106635,0.0915189,-0.109845,-0.131909,-0.0526055,-0.0965811,0.0836691
0.116225,0.0396272,0.0658979,-0.0342769,0.0547331,-0.0670656,-0.0935054
-0.0816261,0.0369447,-0.0689165,-0.0598828,-0.0188339,-0.0540116,0.0701964
0.0573502,0.04454,0.0391116,0.0147972,0.0276412,-0.0418173,-0.0498967
0.000642146,0.0541161,0.011771,-0.051044,0.0216446,-0.0409283,0.00931605
-0.0571898,0.0979283,-0.016193,-0.112268,-0.0386696,-0.0652948,0.0386216
0.0723626,0.124588,0.0670082,-0.0951161,0.00545038,-0.119838,-0.0587026
-0.106708,0.0915876,-0.109852,-0.131993,-0.0525888,-0.0965949,0.083664
0.116222,0.0396764,0.0658741,-0.0343696,0.0547284,-0.0670604,-0.0935022
-0.0816664,0.0370035,-0.0689467,-0.0599616,-0.0188335,-0.0540167,0.0702042
0.0573551,0.044568,0.0390873,0.0146891,0.0276312,-0.0418082,-0.0498965
0.000645355,0.0541661,0.0117368,-0.0511302,0.021631,-0.0409373,0.00931997
-0.0571939,0.0979847,-0.0162207,-0.112352,-0.0386825,-0.0653117,0.0386247
0.0723731,0.12463,0.0669945,-0.0952315,0.00544202,-0.119837,-0.0587147
-0.106779,0.0916543,-0.109861,-0.132076,-0.0525727,-0.0966083,0.083659
0.116218,0.0397243,0.0658499,-0.034461,0.0547236,-0.0670555,-0.093499
-0.0817058,0.0370605,-0.0689769,-0.0600394,-0.018833,-0.0540216,0.0702116
0.0573593,0.0445953,0.0390626,0.0145828,0.0276213,-0.0417995,-0.0498961
0.000647957,0.0542146,0.0117026,-0.0512152,0.0216177,-0.040946,0.0093237
-0.0571984,0.0980394,-0.0162484,-0.112435,-0.038695,-0.0653281,0.0386276
0.0723828,0.12467,0.0669802,-0.0953445,0.00543373,-0.119837,-0.0587263
-0.106848,0.0917189,-0.109869,-0.132158,-0.0525572,-0.0966212,0.0836541
0.116213,0.0397707,0.0658253,-0.0345509,0.0547187,-0.0670508,-0.0934957
-0.0817443,0.0371157,-0.069007,-0.0601163,-0.0188326,-0.0540265,0.0702187
0.0573626,0.0446218,0.0390378,0.0144786,0.0276116,-0.041791,-0.0498957
0.000649999,0.0542615,0.0116687,-0.0512989,0.0216048,-0.0409545,0.00932727
-0.0572033,0.0980923,-0.0162762,-0.112517,-0.0387071,-0.0653439,0.0386304
0.0723915,0.124709,0.0669654,-0.0954553,0.00542551,-0.119836,-0.0587375
-0.106916,0.0917814,-0.109879,-0.132238,-0.0525422,-0.0966337,0.0836493
0.116208,0.0398157,0.0658005,-0.0346392,0.0547138,-0.0670462,-0.0934925
-0.0817819,0.0371692,-0.069037,-0.060192,-0.0188321,-0.0540311,0.0702254
0.0573653,0.0446474,0.0390127,0.0143764,0.027602,-0.0417829,-0.0498951
0.000651526,0.0543068,0.011635,-0.0513811,0.0215921,-0.0409627,0.00933067
-0.0572084,0.0981433,-0.016304,-0.112597,-0.0387189,-0.0653592,0.038633
0.0723993,0.124747,0.0669501,-0.0955636,0.00541737,-0.119835,-0.0587483
-0.106981,0.0918417,-0.109889,-0.132318,-0.0525277,-0.0966458,0.0836446
0.116203,0.0398591,0.0657755,-0.0347259,0.0547087,-0.0670417,-0.0934892
-0.0818187,0.0372208,-0.0690669,-0.0602664,-0.0188316,-0.0540356,0.0702317
0.0573673,0.0446719,0.0389875,0.0142763,0.0275926,-0.041775,-0.0498945
0.000652581,0.0543504,0.0116015,-0.0514618,0.0215798,-0.0409706,0.00933392
-0.0572137,0.0981924,-0.0163318,-0.112676,-0.0387304,-0.0653739,0.0386355
0.0724064,0.124783,0.0669344,-0.0956694,0.00540932,-0.119834,-0.0587587
-0.107045,0.0918999,-0.109899,-0.132395,-0.0525137,-0.0966575,0.08364
0.116197,0.0399009,0.0657503,-0.0348109,0.0547037,-0.0670374,-0.0934859
-0.0818545,0.0372704,-0.0690966,-0.0603396,-0.0188312,-0.05404,0.0702378
0.0573686,0.0446954,0.0389622,0.0141784,0.0275834,-0.0417673,-0.0498938
0.000653206,0.0543923,0.0115683,-0.051541,0.0215677,-0.0409783,0.00933701
-0.0572193,0.0982395,-0.0163594,-0.112753,-0.0387415,-0.0653882,0.0386379
0.0724128,0.124818,0.0669183,-0.0957728,0.00540136,-0.119834,-0.0587686
-0.107107,0.0919558,-0.10991,-0.132471,-0.0525002,-0.0966687,0.0836354
0.116191,0.0399411,0.065725,-0.0348942,0.0546985,-0.0670333,-0.0934826
-0.0818895,0.0373182,-0.0691261,-0.0604113,-0.0188307,-0.0540442,0.0702435
0.0573695,0.0447178,0.0389369,0.0140827,0.0275743,-0.0417599,-0.049893
0.000653442,0.0544325,0.0115354,-0.0516184,0.021556,-0.0409856,0.00933996
-0.057225,0.0982846,-0.0163869,-0.112829,-0.0387523,-0.0654019,0.0386402
0.0724184,0.124851,0.0669018,-0.0958735,0.00539349,-0.119833,-0.0587782
-0.107168,0.0920095,-0.109921,-0.132546,-0.0524871,-0.0966795,0.083631
0.116184,0.0399796,0.0656996,-0.0349756,0.0546934,-0.0670292,-0.0934793
-0.0819235,0.0373639,-0.0691553,-0.0604816,-0.0188301,-0.0540482,0.0702489
0.0573698,0.0447389,0.0389115,0.0139893,0.0275654,-0.0417526,-0.0498922
0.000653326,0.0544708,0.0115029,-0.0516941,0.0215446,-0.0409927,0.00934277
-0.0572309,0.0983278,-0.0164143,-0.112903,-0.0387627,-0.0654151,0.0386424
0.0724235,0.124883,0.0668851,-0.0959717,0.00538572,-0.119832,-0.0587874
-0.107227,0.0920609,-0.109933,-0.132618,-0.0524745,-0.0966899,0.0836266
0.116177,0.0400163,0.0656742,-0.0350551,0.0546882,-0.0670252,-0.0934759
-0.0819567,0.0374077,-0.0691843,-0.0605503,-0.0188296,-0.054052,0.070254
0.0573697,0.0447589,0.0388862,0.0138982,0.0275566,-0.0417456,-0.0498913
0.000652895,0.0545073,0.0114707,-0.051768,0.0215334,-0.0409995,0.00934545
-0.057237,0.0983688,-0.0164414,-0.112974,-0.0387729,-0.0654278,0.0386445
0.072428,0.124913,0.0668682,-0.0960673,0.00537806,-0.119831,-0.0587962
-0.107284,0.09211,-0.109945,-0.132689,-0.0524622,-0.0966999,0.0836223
0.11617,0.0400513,0.0656489,-0.0351326,0.054683,-0.0670213,-0.0934726
-0.0819891,0.0374494,-0.069213,-0.0606175,-0.0188289,-0.0540557,0.0702589
0.0573692,0.0447775,0.0388609,0.0138095,0.027548,-0.0417387,-0.0498903
0.000652184,0.0545419,0.0114389,-0.0518401,0.0215226,-0.041006,0.00934799
-0.0572431,0.0984078,-0.0164683,-0.113045,-0.0387827,-0.06544,0.0386464
0.0724319,0.124941,0.0668512,-0.0961603,0.0053705,-0.11983,-0.0588047
-0.107339,0.0921569,-0.109957,-0.132759,-0.0524504,-0.0967095,0.0836182
0.116163,0.0400845,0.0656235,-0.0352082,0.0546779,-0.0670175,-0.0934693
-0.0820205,0.037489,-0.0692414,-0.0606829,-0.0188283,-0.0540592,0.0702635
0.0573682,0.0447948,0.0388358,0.0137232,0.0275396,-0.041732,-0.0498893
0.000651227,0.0545747,0.0114076,-0.0519102,0.0215121,-0.0410123,0.00935041
-0.0572492,0.0984448,-0.016495,-0.113113,-0.0387922,-0.0654517,0.0386483
0.0724353,0.124967,0.066834,-0.0962506,0.00536305,-0.119829,-0.0588129
-0.107393,0.0922014,-0.109969,-0.132826,-0.0524389,-0.0967187,0.0836141
0.116155,0.0401158,0.0655983,-0.0352817,0.0546727,-0.0670137,-0.093466
-0.0820511,0.0375266,-0.0692694,-0.0607467,-0.0188276,-0.0540625,0.0702678
0.057367,0.0448107,0.0388108,0.0136393,0.0275314,-0.0417255,-0.0498883
0.000650056,0.0546055,0.0113767,-0.0519784,0.0215019,-0.0410182,0.00935272
-0.0572554,0.0984796,-0.0165213,-0.113179,-0.0388014,-0.0654629,0.0386501
0.0724383,0.124992,0.0668167,-0.0963382,0.00535571,-0.119828,-0.0588208
-0.107445,0.0922436,-0.109982,-0.132891,-0.0524278,-0.0967275,0.08361
0.116148,0.0401453,0.0655732,-0.0353531,0.0546675,-0.0670099,-0.0934627
-0.0820808,0.037562,-0.0692971,-0.0608087,-0.0188269,-0.0540656,0.0702719
0.0573654,0.0448252,0.038786,0.0135579,0.0275233,-0.0417191,-0.0498871
0.0006487,0.0546343,0.0113463,-0.0520447,0.0214919,-0.0410239,0.0093549
-0.0572617,0.0985123,-0.0165473,-0.113244,-0.0388103,-0.0654737,0.0386517
0.0724409,0.125015,0.0667994,-0.0964231,0.00534848,-0.119826,-0.0588283
-0.107496,0.0922835,-0.109995,-0.132955,-0.052417,-0.0967359,0.0836061
0.11614,0.0401729,0.0655483,-0.0354224,0.0546623,-0.0670062,-0.0934594
-0.0821097,0.0375954,-0.0693243,-0.0608689,-0.0188261,-0.0540685,0.0702758
0.0573636,0.0448383,0.0387614,0.0134789,0.0275154,-0.0417128,-0.049886
0.000647188,0.0546612,0.0113164,-0.0521089,0.0214822,-0.0410293,0.00935698
-0.0572679,0.0985429,-0.016573,-0.113306,-0.0388188,-0.0654839,0.0386533
0.072443,0.125036,0.0667821,-0.0965053,0.00534138,-0.119825,-0.0588355
-0.107545,0.0923211,-0.110007,-0.133016,-0.0524065,-0.0967439,0.0836023
0.116132,0.0401986,0.0655236,-0.0354896,0.0546571,-0.0670026,-0.0934561
-0.0821377,0.0376266,-0.0693512,-0.0609272,-0.0188253,-0.0540712,0.0702794
0.0573615,0.0448499,0.0387371,0.0134025,0.0275077,-0.0417066,-0.0498848
0.000645549,0.0546862,0.0112869,-0.0521711,0.0214729,-0.0410344,0.00935895
-0.057274,0.0985713,-0.0165983,-0.113366,-0.0388271,-0.0654937,0.0386548
0.0724449,0.125055,0.0667649,-0.0965848,0.00533439,-0.119824,-0.0588425
-0.107593,0.0923563,-0.11002,-0.133076,-0.0523964,-0.0967515,0.0835985
0.116124,0.0402225,0.0654992,-0.0355546,0.054652,-0.0669989,-0.0934528
-0.0821648,0.0376558,-0.0693776,-0.0609837,-0.0188244,-0.0540737,0.0702828
0.0573592,0.0448599,0.0387131,0.0133285,0.0275002,-0.0417005,-0.0498835
0.000643807,0.0547091,0.0112581,-0.0522312,0.0214638,-0.0410392,0.00936081
-0.0572801,0.0985976,-0.0166232,-0.113424,-0.0388351,-0.0655031,0.0386562
0.0724464,0.125073,0.0667477,-0.0966616,0.00532753,-0.119822,-0.0588492
-0.107639,0.0923892,-0.110033,-0.133134,-0.0523865,-0.0967588,0.0835948
0.116116,0.0402444,0.065475,-0.0356175,0.0546469,-0.0669952,-0.0934496
-0.0821912,0.0376828,-0.0694035,-0.0610383,-0.0188234,-0.054076,0.070286
0.0573568,0.0448685,0.0386893,0.013257,0.0274928,-0.0416944,-0.0498823
0.000641988,0.0547301,0.0112297,-0.0522893,0.0214549,-0.0410437,0.00936258
-0.0572862,0.0986219,-0.0166477,-0.113481,-0.0388428,-0.065512,0.0386576
0.0724477,0.125088,0.0667306,-0.0967357,0.00532078,-0.11982,-0.0588556
-0.107684,0.0924198,-0.110046,-0.133189,-0.052377,-0.0967657,0.0835912
0.116108,0.0402644,0.0654511,-0.0356782,0.0546418,-0.0669916,-0.0934464
-0.0822167,0.0377077,-0.0694289,-0.061091,-0.0188224,-0.0540781,0.070289
0.0573542,0.0448755,0.0386659,0.013188,0.0274856,-0.0416885,-0.049881
0.000640113,0.0547492,0.011202,-0.0523452,0.0214464,-0.0410479,0.00936425
-0.0572922,0.0986439,-0.0166717,-0.113535,-0.0388502,-0.0655204,0.0386588
0.0724487,0.125102,0.0667137,-0.0968072,0.00531417,-0.119818,-0.0588617
-0.107728,0.0924482,-0.110058,-0.133243,-0.0523677,-0.0967722,0.0835877
0.116101,0.0402825,0.0654275,-0.0357367,0.0546368,-0.0669879,-0.0934431
-0.0822414,0.0377305,-0.0694539,-0.0611417,-0.0188214,-0.0540801,0.0702918
0.0573515,0.044881,0.0386429,0.0131215,0.0274786,-0.0416826,-0.0498796
0.000638204,0.0547662,0.0111748,-0.0523991,0.0214381,-0.0410519,0.00936584
-0.057298,0.0986639,-0.0166953,-0.113587,-0.0388574,-0.0655285,0.03866
0.0724495,0.125114,0.0666969,-0.0968759,0.00530767,-0.119816,-0.0588676
-0.10777,0.0924742,-0.110071,-0.133294,-0.0523586,-0.0967783,0.0835842
0.116093,0.0402987,0.0654042,-0.035793,0.0546318,-0.0669843,-0.0934399
-0.0822652,0.0377511,-0.0694783,-0.0611905,-0.0188202,-0.0540818,0.0702945
0.0573487,0.044885,0.0386202,0.0130575,0.0274717,-0.0416768,-0.0498783
0.000636283,0.0547813,0.0111482,-0.0524509,0.0214301,-0.0410556,0.00936733
-0.0573037,0.0986818,-0.0167183,-0.113637,-0.0388642,-0.0655361,0.0386611
0.0724502,0.125124,0.0666804,-0.096942,0.00530131,-0.119814,-0.0588733
-0.107811,0.092498,-0.110083,-0.133344,-0.0523499,-0.0967841,0.0835809
0.116085,0.0403129,0.0653813,-0.035847,0.0546269,-0.0669806,-0.0934367
-0.0822883,0.0377697,-0.0695022,-0.0612374,-0.0188191,-0.0540833,0.0702969
0.0573458,0.0448873,0.0385979,0.012996,0.027465,-0.041671,-0.0498769
0.000634367,0.0547944,0.0111223,-0.0525005,0.0214223,-0.041059,0.00936874
-0.0573093,0.0986976,-0.016741,-0.113685,-0.0388709,-0.0655432,0.0386622
0.0724506,0.125132,0.066664,-0.0970055,0.00529507,-0.119812,-0.0588787
-0.10785,0.0925195,-0.110096,-0.133391,-0.0523413,-0.0967896,0.0835776
0.116077,0.0403253,0.0653588,-0.035899,0.054622,-0.0669769,-0.0934336
-0.0823106,0.0377863,-0.0695255,-0.0612823,-0.0188178,-0.0540846,0.0702992
0.0573429,0.0448881,0.0385761,0.012937,0.0274585,-0.0416653,-0.0498754
0.000632474,0.0548056,0.0110969,-0.0525481,0.0214148,-0.0410622,0.00937007
-0.0573148,0.0987113,-0.016763,-0.113731,-0.0388772,-0.06555,0.0386632
0.0724509,0.125139,0.066648,-0.0970663,0.00528895,-0.11981,-0.0588839
-0.107888,0.0925389,-0.110108,-0.133437,-0.052333,-0.0967947,0.0835744
0.11607,0.0403358,0.0653368,-0.0359487,0.0546171,-0.0669731,-0.0934304
-0.0823321,0.0378008,-0.0695483,-0.0613253,-0.0188165,-0.0540858,0.0703014
0.05734,0.0448874,0.0385546,0.0128804,0.0274522,-0.0416596,-0.049874
0.000630621,0.0548149,0.0110722,-0.0525935,0.0214075,-0.0410651,0.00937132
-0.05732,0.098723,-0.0167846,-0.113775,-0.0388833,-0.0655564,0.0386641
0.0724511,0.125144,0.0666321,-0.0971245,0.00528297,-0.119808,-0.0588889
-0.107925,0.092556,-0.11012,-0.13348,-0.0523248,-0.0967994,0.0835712
0.116062,0.0403444,0.0653151,-0.0359962,0.0546123,-0.0669694,-0.0934273
-0.0823528,0.0378132,-0.0695706,-0.0613663,-0.0188151,-0.0540867,0.0703033
0.057337,0.0448851,0.0385336,0.0128262,0.027446,-0.0416539,-0.0498725
0.000628822,0.0548222,0.0110481,-0.0526369,0.0214005,-0.0410677,0.0093725
-0.0573251,0.0987327,-0.0168057,-0.113816,-0.0388891,-0.0655623,0.0386649
0.0724512,0.125147,0.0666166,-0.0971802,0.00527711,-0.119805,-0.0588937
-0.107961,0.0925709,-0.110132,-0.133521,-0.0523169,-0.0968039,0.0835681
0.116055,0.0403512,0.0652939,-0.0360416,0.0546076,-0.0669656,-0.0934242
-0.0823727,0.0378236,-0.0695923,-0.0614054,-0.0188137,-0.0540874,0.0703052
0.057334,0.0448813,0.0385131,0.0127744,0.02744,-0.0416483,-0.0498711
0.000627092,0.0548277,0.0110246,-0.0526782,0.0213937,-0.0410701,0.0093736
-0.0573301,0.0987404,-0.0168262,-0.113856,-0.0388947,-0.0655679,0.0386657
0.0724513,0.125148,0.0666014,-0.0972334,0.00527138,-0.119802,-0.0588983
-0.107995,0.0925838,-0.110143,-0.133561,-0.0523092,-0.096808,0.0835651
0.116048,0.0403561,0.0652731,-0.0360849,0.0546029,-0.0669618,-0.0934212
-0.0823919,0.0378321,-0.0696134,-0.0614425,-0.0188121,-0.054088,0.0703069
0.0573311,0.0448759,0.0384931,0.012725,0.0274341,-0.0416427,-0.0498696
0.000625443,0.0548313,0.0110018,-0.0527175,0.0213872,-0.0410722,0.00937464
-0.0573348,0.0987461,-0.0168461,-0.113894,-0.0389,-0.0655732,0.0386665
0.0724512,0.125147,0.0665865,-0.097284,0.00526577,-0.1198,-0.0589027
-0.108028,0.0925945,-0.110154,-0.133598,-0.0523017,-0.0968118,0.0835622
0.116041,0.0403592,0.0652528,-0.036126,0.0545983,-0.0669579,-0.0934181
-0.0824104,0.0378386,-0.0696339,-0.0614777,-0.0188106,-0.0540884,0.0703084
0.0573282,0.044869,0.0384735,0.012678,0.0274284,-0.0416371,-0.0498681
0.000623888,0.054833,0.0109797,-0.0527547,0.0213809,-0.0410741,0.00937561
-0.0573393,0.0987498,-0.0168655,-0.113929,-0.0389051,-0.065578,0.0386671
0.0724512,0.125145,0.0665719,-0.0973322,0.00526029,-0.119797,-0.0589069
-0.10806,0.0926032,-0.110166,-0.133633,-0.0522943,-0.0968153,0.0835593
0.116034,0.0403606,0.0652329,-0.036165,0.0545938,-0.066954,-0.0934151
-0.0824281,0.0378431,-0.0696538,-0.0615111,-0.0188089,-0.0540885,0.0703098
0.0573254,0.0448606,0.0384545,0.0126332,0.0274229,-0.0416315,-0.0498665
0.000622437,0.054833,0.0109582,-0.0527899,0.0213748,-0.0410758,0.00937651
-0.0573437,0.0987517,-0.0168844,-0.113963,-0.03891,-0.0655825,0.0386678
0.0724511,0.125141,0.0665577,-0.097378,0.00525493,-0.119794,-0.0589109
-0.108091,0.0926098,-0.110176,-0.133667,-0.0522871,-0.0968185,0.0835565
0.116027,0.0403601,0.0652136,-0.036202,0.0545893,-0.06695,-0.0934121
-0.0824451,0.0378458,-0.0696731,-0.0615425,-0.0188072,-0.0540885,0.0703111
0.0573226,0.0448507,0.0384359,0.0125908,0.0274175,-0.0416259,-0.049865
0.000621099,0.0548311,0.0109373,-0.0528231,0.021369,-0.0410771,0.00937735
-0.0573478,0.0987517,-0.0169026,-0.113994,-0.0389146,-0.0655867,0.0386683
0.072451,0.125135,0.0665438,-0.0974214,0.0052497,-0.119791,-0.0589147
-0.108121,0.0926144,-0.110187,-0.133698,-0.0522801,-0.0968214,0.0835537
0.116021,0.040358,0.0651947,-0.0362369,0.0545849,-0.066946,-0.0934091
-0.0824614,0.0378466,-0.0696918,-0.0615721,-0.0188054,-0.0540884,0.0703123
0.05732,0.0448394,0.0384179,0.0125506,0.0274122,-0.0416203,-0.0498635
0.000619884,0.0548275,0.0109171,-0.0528544,0.0213633,-0.0410783,0.00937814
-0.0573517,0.0987498,-0.0169203,-0.114024,-0.038919,-0.0655905,0.0386688
0.0724509,0.125128,0.0665304,-0.0974624,0.00524459,-0.119788,-0.0589184
-0.10815,0.0926171,-0.110197,-0.133728,-0.0522732,-0.096824,0.083551
0.116014,0.0403541,0.0651764,-0.0362698,0.0545806,-0.066942,-0.0934061
-0.082477,0.0378456,-0.0697099,-0.0615999,-0.0188036,-0.054088,0.0703134
0.0573174,0.0448266,0.0384003,0.0125126,0.0274072,-0.0416147,-0.0498619
0.000618799,0.0548222,0.0108976,-0.0528837,0.0213579,-0.0410792,0.00937886
-0.0573553,0.0987461,-0.0169374,-0.114052,-0.0389232,-0.065594,0.0386693
0.0724508,0.125119,0.0665173,-0.0975011,0.0052396,-0.119784,-0.0589219
-0.108177,0.0926178,-0.110207,-0.133755,-0.0522664,-0.0968263,0.0835484
0.116008,0.0403486,0.0651585,-0.0363008,0.0545763,-0.0669379,-0.0934032
-0.0824919,0.0378428,-0.0697275,-0.0616259,-0.0188017,-0.0540874,0.0703143
0.0573149,0.0448124,0.0383833,0.0124768,0.0274022,-0.0416091,-0.0498603
0.000617851,0.0548151,0.0108787,-0.0529112,0.0213527,-0.0410799,0.00937954
-0.0573588,0.0987406,-0.016954,-0.114078,-0.0389272,-0.0655971,0.0386698
0.0724507,0.125109,0.0665046,-0.0975376,0.00523473,-0.119781,-0.0589253
-0.108204,0.0926167,-0.110216,-0.133781,-0.0522598,-0.0968283,0.0835458
0.116002,0.0403414,0.0651412,-0.0363298,0.0545721,-0.0669337,-0.0934003
-0.0825061,0.0378382,-0.0697444,-0.0616501,-0.0187997,-0.0540867,0.0703152
0.0573125,0.0447968,0.0383669,0.0124431,0.0273975,-0.0416035,-0.0498588
0.000617046,0.0548065,0.0108605,-0.0529367,0.0213477,-0.0410804,0.00938016
-0.057362,0.0987335,-0.01697,-0.114102,-0.038931,-0.0656,0.0386701
0.0724507,0.125097,0.0664923,-0.0975719,0.00522998,-0.119777,-0.0589285
-0.10823,0.0926137,-0.110225,-0.133805,-0.0522534,-0.0968301,0.0835433
0.115997,0.0403326,0.0651244,-0.0363569,0.0545679,-0.0669295,-0.0933974
-0.0825197,0.0378319,-0.0697607,-0.0616725,-0.0187976,-0.0540859,0.0703159
0.0573102,0.0447798,0.0383509,0.0124114,0.0273928,-0.0415979,-0.0498572
0.000616389,0.0547962,0.0108429,-0.0529605,0.0213429,-0.0410807,0.00938073
-0.057365,0.0987246,-0.0169853,-0.114124,-0.0389345,-0.0656025,0.0386705
0.0724508,0.125083,0.0664805,-0.097604,0.00522535,-0.119774,-0.0589315
-0.108254,0.092609,-0.110234,-0.133828,-0.052247,-0.0968316,0.0835408
0.115991,0.0403223,0.0651081,-0.0363821,0.0545638,-0.0669253,-0.0933946
-0.0825326,0.037824,-0.0697764,-0.0616933,-0.0187955,-0.0540848,0.0703165
0.0573081,0.0447615,0.0383355,0.0123819,0.0273883,-0.0415923,-0.0498556
0.000615877,0.0547843,0.010826,-0.0529824,0.0213382,-0.0410808,0.00938126
-0.0573677,0.0987141,-0.0170002,-0.114145,-0.0389379,-0.0656047,0.0386708
0.0724508,0.125068,0.066469,-0.097634,0.00522083,-0.11977,-0.0589345
-0.108278,0.0926025,-0.110243,-0.133848,-0.0522408,-0.0968329,0.0835384
0.115986,0.0403104,0.0650923,-0.0364055,0.0545598,-0.066921,-0.0933918
-0.0825449,0.0378144,-0.0697916,-0.0617124,-0.0187934,-0.0540837,0.0703171
0.057306,0.0447419,0.0383207,0.0123543,0.027384,-0.0415867,-0.049854
0.000615519,0.0547709,0.0108097,-0.0530026,0.0213338,-0.0410806,0.00938174
-0.0573702,0.0987019,-0.0170144,-0.114164,-0.0389411,-0.0656067,0.038671
0.072451,0.125051,0.066458,-0.0976619,0.00521642,-0.119766,-0.0589373
-0.1083,0.0925943,-0.110251,-0.133867,-0.0522347,-0.0968339,0.0835361
0.115981,0.0402971,0.065077,-0.0364271,0.0545559,-0.0669167,-0.093389
-0.0825566,0.0378033,-0.0698061,-0.0617299,-0.0187911,-0.0540823,0.0703176
0.0573042,0.0447211,0.0383063,0.0123286,0.0273798,-0.0415811,-0.0498525
0.00061532,0.054756,0.0107941,-0.0530211,0.0213296,-0.0410803,0.00938218
-0.0573725,0.0986882,-0.017028,-0.114181,-0.0389441,-0.0656084,0.0386713
0.0724512,0.125034,0.0664473,-0.0976878,0.00521212,-0.119762,-0.0589399
-0.108322,0.0925844,-0.110259,-0.133884,-0.0522287,-0.0968347,0.0835338
0.115976,0.0402823,0.0650623,-0.0364469,0.054552,-0.0669123,-0.0933862
-0.0825677,0.0377906,-0.0698201,-0.0617458,-0.0187888,-0.0540808,0.0703179
0.0573024,0.044699,0.0382925,0.0123049,0.0273757,-0.0415754,-0.0498509
0.000615283,0.0547397,0.0107791,-0.053038,0.0213255,-0.0410798,0.00938258
-0.0573745,0.098673,-0.0170411,-0.114196,-0.0389469,-0.0656098,0.0386714
0.0724515,0.125014,0.0664371,-0.0977118,0.00520793,-0.119758,-0.0589425
-0.108343,0.092573,-0.110266,-0.1339,-0.0522228,-0.0968353,0.0835315
0.115971,0.0402661,0.0650481,-0.0364651,0.0545482,-0.0669078,-0.0933834
-0.0825782,0.0377764,-0.0698335,-0.0617601,-0.0187865,-0.0540792,0.0703182
0.0573008,0.0446757,0.0382793,0.0122829,0.0273717,-0.0415698,-0.0498493
0.000615409,0.0547219,0.0107647,-0.0530531,0.0213216,-0.0410791,0.00938293
-0.0573763,0.0986564,-0.0170537,-0.11421,-0.0389496,-0.0656109,0.0386716
0.0724519,0.124994,0.0664274,-0.0977339,0.00520385,-0.119754,-0.0589449
-0.108363,0.09256,-0.110273,-0.133914,-0.0522171,-0.0968356,0.0835293
0.115967,0.0402485,0.0650344,-0.0364816,0.0545445,-0.0669033,-0.0933807
