hisham246/franka_example_controllers/results/tau_optim.csv
Solve Time,Joint 1,Joint 2,Joint 3,Joint 4,Joint 5,Joint 6,Joint 7
0.058112144,0.2459846801111232,0.09638171862487303,-0.20209037394154195,-0.09142487502533311,0.27451191388846946,2.4150008806485976,-1.1875231068641225
0.116103648,0.11959967688466293,0.06768861642002041,0.13468976062863194,-0.19708953456532466,-0.07666850437814908,-0.1102568610182076,0.05601374816317154
0.170053958,0.11929629160300086,0.0682204209341758,0.13583589794743475,-0.19610853719447935,-0.0777681221333354,-0.10970561757389831,0.05691485830733211
0.221239566,0.1183097905888195,0.06582645911859324,0.13538363808381423,-0.19321273155738478,-0.07784313000587428,-0.10750706438801648,0.05675474988846173
0.279479265,0.1214638857108166,0.06288154043796396,0.13779669483015253,-0.1934345898694204,-0.0773818117830451,-0.10681733804441161,0.0561606839573208
0.335504531,0.12326020746916408,0.07028477644897012,0.13741683793007,-0.1998019703097156,-0.07915890439435344,-0.1114875720357188,0.054573912278638975
0.386100768,0.11604664867829965,0.06735393177986382,0.13127524266301918,-0.19696384293893898,-0.07530138772274328,-0.11019774288973451,0.06036720710981315
0.446672438,0.11894716198523807,0.06382701455028272,0.1359135917513406,-0.19021591966574614,-0.07888780982229265,-0.10624094929740742,0.05515232455856948
0.49759864600000003,0.12388808208011369,0.06653846945072604,0.13914253289517892,-0.19616641981221597,-0.07910157160096541,-0.10889510571014613,0.055980795092337304
0.561687467,0.11830330836032218,0.06102422989348891,0.1379731613793455,-0.19050868131566714,-0.07778956778631406,-0.10538419813940308,0.05823149235399286
0.620777366,0.12020886036281231,0.06832466713200505,0.13721122618308626,-0.19779904392539976,-0.07792704621811128,-0.11011631999393275,0.05592190678543532
0.676704643,0.12240562908643025,0.06747216812733751,0.1367249145763124,-0.1958982120876094,-0.07796071585274013,-0.10909336630731069,0.05730285895408635
0.729033707,0.12294146457317556,0.06277642101499985,0.13963919336227484,-0.1935172526511175,-0.07824042797124191,-0.10660279289138969,0.058477168070722
0.7852842800000001,0.11684960490959954,0.0642298230849414,0.13460771149180167,-0.1913424143401791,-0.07686209334724085,-0.10675826911597518,0.058014595456789934
0.842799901,0.12233758753520717,0.06961528256002694,0.1382897854295288,-0.19812842724842278,-0.08038433995954752,-0.11078865171011215,0.055258168223090216
0.903601407,0.12133945147303674,0.06453935653970372,0.1398012080354365,-0.1927338248887518,-0.07975424849376045,-0.106741058923485,0.05564946164248884
0.962841033,0.12100841685813955,0.06936685023355864,0.1362104965621439,-0.19854972677506377,-0.07693026751036618,-0.11093521617603112,0.060577759034178995
1.019978284,0.1201964604665071,0.06887804896023854,0.1369914546925104,-0.19735530055185635,-0.07931563690931598,-0.10976724377221315,0.053163056308799125
1.077015161,0.11788882364508135,0.06769663715189016,0.13349457686980637,-0.1946078998903876,-0.07603195350615337,-0.10925149229306688,0.055748092390222055
1.127483129,0.1178702212127567,0.060508883684104425,0.13281965011084132,-0.18959483935704088,-0.07430664765571122,-0.10533813033784638,0.061889468771242725
1.179593801,0.0834006849725295,0.07307685077681517,0.07940155629213805,-0.2022169282898887,-0.05845000349364485,-0.1195577814879933,0.06948514058221968
1.231927871,0.09667149340234817,0.056842868086447104,0.1038229928646418,-0.17754040253591238,-0.06819613390033041,-0.10253968682023033,0.060597027474640276
1.28465104,0.09402966429184763,0.06645712589160294,0.09236660680005739,-0.19601206941540691,-0.06344428628624973,-0.1135827976424033,0.06995492042834571
1.336142062,0.10521826781720368,0.09861015238885176,0.10303433198597893,-0.2186209436445662,-0.07295785348650814,-0.12910382417366745,0.05727984438734839
1.396215437,0.08758303660854218,0.08094554692373507,0.07972785241917538,-0.2040995469680276,-0.06207754182446207,-0.1211226257789734,0.06573664587458243
1.455985544,0.07249358930543566,0.05429520291496657,0.061398082024535276,-0.1818610967672797,-0.04981765606867282,-0.10747062890550936,0.06968628659991138
1.5128033140000001,0.03732003226120514,-0.015305156095637653,0.04057210293876984,-0.10453756372558923,-0.038534329516308974,-0.0520518160483912,0.08151107344854555
1.5740785570000002,0.029379097643524053,-0.128717811061945,0.07681114966912356,0.0035040955217223333,-0.03792506868480773,0.022556132010639517,0.0815807624320585
1.6357922530000002,0.03373614992500041,-0.2523613589872467,0.1098607593488138,0.14823833031372408,-0.04092936641988645,0.11406285558939892,0.07883972750066372
1.7003362160000002,0.03131304938018696,-0.3040316747517633,0.11213599829282173,0.2335922177656569,-0.04376427129226726,0.13694617171693563,0.07763122393232312
1.7538619020000001,0.016643478131828145,-0.3587558154424301,0.10827672686888394,0.3105484755948667,-0.04210327922233925,0.1744899372352002,0.07345074033596198
1.8091628530000001,0.01612508064453302,-0.3554612190220227,0.11141926940891908,0.33613718152953287,-0.04895068921858287,0.18033788592003275,0.06757833718239123
1.8660042270000001,0.012402636028951043,-0.3234038174515692,0.10374413366280975,0.3324670168593554,-0.05328156317951566,0.16678303194977762,0.06304319626458783
1.9203100190000002,0.01998453295735756,-0.29810718461674135,0.1095563097678546,0.3252701115437873,-0.0599683629019094,0.15868673430566108,0.05740457927989616
1.9727473250000003,0.0060549129838097125,-0.37724730761480607,0.11144921584528567,0.4271983639080676,-0.05940665239018953,0.22841699960934206,0.05768417316368944
2.0250599370000004,0.023769799976538598,-0.4041012918894749,0.14825649263361165,0.4584338811479385,-0.06775944279964899,0.2703854730566199,0.05417217015134726
2.0836291300000003,0.02708520692945464,-0.3702686849252149,0.14409013726274686,0.41274341497144634,-0.06726862081820323,0.23670476679401503,0.052716242150675
2.140665053,0.027061285017158262,-0.3965880484711021,0.1481833760193295,0.4412679952825359,-0.06673353248000247,0.2680591253430008,0.052200180607528714
2.1984670150000003,0.022595707897015527,-0.3764844392977648,0.13171565375187663,0.402744860476852,-0.05973491187646398,0.2580944877979464,0.05884996831289224
2.2534210660000005,0.03435400559493423,-0.38646813513287226,0.14704246385604375,0.39158506738463617,-0.06022287216084271,0.3004901628990275,0.05958034784251485
2.3083765480000005,0.03648204128618513,-0.44070715229760066,0.16195291000911977,0.4450329851141486,-0.05968187442902695,0.3899147867273125,0.06179653011129526
2.3639743300000005,0.04480923265120343,-0.4890730716232631,0.18046994482010165,0.4895540586333314,-0.06175116791606721,0.47422052552898003,0.06249765681605692
2.4181711640000003,0.04980731211026381,-0.5009366960896144,0.18365102299280064,0.4877126219271221,-0.058851046005366926,0.4860568130907178,0.06421153574206333
2.475368973,0.054409371985240235,-0.5471090627252464,0.2010937856062413,0.527881033446174,-0.05928964929986144,0.5600227047714612,0.061854693991087596
2.532305237,0.04894285122371746,-0.6062947820278861,0.2087900196201474,0.5907750056540265,-0.05430665591579452,0.6254694252605318,0.06017908688691613
2.589462992,0.04840961910798906,-0.6686825503999501,0.220284297569637,0.6587611377909537,-0.05218822699564307,0.7052898068940368,0.06173146331894834
2.645848032,0.051057811067197166,-0.7184943997649966,0.2301966255032076,0.714132268425488,-0.04954024956894208,0.7541636561696988,0.0620415705976095
2.7036235299999998,0.047528202403339034,-0.8194391456507331,0.247587230159107,0.8292494436364131,-0.04707095647080024,0.8930373525422801,0.056941162422004706
2.7616398309999997,0.041207541252048015,-0.8633675710017792,0.25115079777626537,0.8777245600327119,-0.03965394430010366,0.926321340391024,0.06204676345735752
2.8209416839999997,0.04140240291453412,-0.9468044138392866,0.2681302333843486,0.9752885794686913,-0.03550455725582671,1.0257828931877957,0.05625590864679835
2.882183788,0.029887705504780752,-1.023048968707109,0.26938798188469987,1.0630374693414528,-0.012095327365403332,1.1028158915911632,0.06340701269536236
2.938877581,0.037933844739095675,-1.078207537974518,0.28562696444479213,1.1139311974887802,-0.02106009297447531,1.149848021753467,0.05755374133718602
2.99366474,0.026773668857430172,-1.1308833798450835,0.2809026037663878,1.1814375159185504,-0.010105201585791212,1.1942334483873778,0.06202059093656497
3.047377824,0.03923129158583675,-1.1336630842071898,0.2989166199313832,1.1994904421754293,-0.01406253796199182,1.177979847043532,0.049889078598150685
3.0969507689999998,0.03516042021385875,-1.1809527253529384,0.3020518029714845,1.2457984534178212,-0.004928607265846004,1.2023284378062884,0.05525610524372406
3.1470627779999996,0.04206488919909291,-1.2670299749675886,0.33011685310558675,1.3477859106682777,-0.0037095690417020904,1.2511647499568699,0.05682423260166042
3.2032031999999995,0.05652247508397182,-1.2803991352975466,0.3591528873785921,1.351018074313959,-0.013664998321438084,1.1602420652606298,0.04249756240517987
3.2636039249999995,0.07402644992847775,-1.4165518329741045,0.4137630886831129,1.4910554476130937,-0.02029618812655217,1.2423721969425336,0.024435668437031276
3.3228797899999996,0.04844582199926002,-1.4886521248349704,0.3811641840674265,1.5498768382280983,-0.007248156856634219,1.198827164363589,0.04417412851745135
3.3817138659999997,0.05040831452759839,-1.4680058489369985,0.38401043554376774,1.5649561717571852,-0.011960854037020869,1.155460668320225,0.03457932957047423
3.440639733,0.04011014327415846,-1.4065416077307304,0.3320299652013106,1.5192934598243621,-0.000520897431659286,1.0825808551259828,0.05128934688548861
3.49266672,-0.0022146784074009366,-1.4137510415555754,0.28129651049646226,1.5369856046539874,0.010529920142262172,1.0104622521480542,0.06739991390420197
3.542467116,-0.03245342014428566,-1.3545608275799863,0.22592117383817553,1.5259097327374276,0.020614161769912886,0.9683651341826593,0.07610954894302185
3.60836315,-0.02170698640769127,-1.3272902387494827,0.2277855163535428,1.493326251587166,0.01813316714482693,0.9275894869200852,0.07468096022577031
3.670343398,0.0003071861234481853,-1.2711297749763582,0.23780804538923705,1.4282949131334042,0.01758028577134631,0.902772604458728,0.04633478343206348
3.733583449,-0.017022838379574492,-1.3568973950692345,0.22613486814858627,1.5332747435019087,0.02655625233177772,1.0211818179200098,0.06868668062886348
3.792488574,5.952313794035936e-05,-1.4024145433969073,0.2500481808582526,1.5898510767670193,0.022555717125914684,1.096744361914348,0.06300847388378829
3.850215195,0.017231572372518517,-1.3915091384893494,0.2588883003500569,1.5577827865656444,0.02990840265741081,1.1057700707839317,0.04520383799667864
3.9038476920000003,0.01337207901356746,-1.4349229843005675,0.24991329173378807,1.5756315007830197,0.04167775131381807,1.1466536533211804,0.03897439211954504
3.9541962120000003,0.004637682611335562,-1.4778011709891665,0.2351567534270954,1.6266809885187619,0.04834422040639228,1.204824622050822,0.06074598989631476
4.006695984,0.012950221481171916,-1.379700597118571,0.22125957400797663,1.501733962175159,0.07364030651300583,1.1331941701012591,-0.003141880035484944
4.055761812,0.018579389930850194,-1.3320858653120786,0.21273524760905005,1.4381538054284582,0.08551603956287954,1.0938409916774483,-0.02766874056080713
4.107341765,0.014253482595192195,-1.3643776540679269,0.21273410698539924,1.4515670302645944,0.08863261319828955,1.1080668699676925,-0.017746365376527226
4.157129048,0.032568430926546627,-1.2925094235330103,0.21348228317989099,1.3970191503650908,0.09602479302753944,1.0914080138684785,-0.05597241076749049
4.215086221,0.03172771333517657,-1.2381314834568007,0.20415537004855683,1.3461442852144645,0.10575142842500379,1.0411143121492026,-0.08536474375867986
4.271479606,0.033783550118648344,-1.1473859739762238,0.18575116235259626,1.259181971116141,0.12422080238006897,0.9740542928367735,-0.1273269618828615
4.33051443,0.03304578822951454,-1.1886865763184309,0.19408661270437452,1.315492540348945,0.11973611719880504,1.0092952470986665,-0.11960513041140214
4.383518457,0.026627081594237458,-1.2246492927163797,0.18672452011739987,1.3631759161357875,0.12748487212437404,1.0394021941038547,-0.12568428786788316
4.434709072,0.022857076079565806,-1.1731078816135683,0.1724798172988318,1.3550569457052841,0.13853557570542027,1.0304277689267836,-0.145080727215045
4.485513687,0.030523276697638636,-1.160189044158127,0.17919211734288362,1.350793827904353,0.13398632112275852,1.0423624775497697,-0.147817072853301
4.544450522,0.02856585604758178,-1.2196339181735931,0.19309331296759313,1.4598707529993915,0.1291400655256563,1.1172977437323433,-0.1408795161762134
4.597097398,0.03122520959841672,-1.2259404439512085,0.18868067317083864,1.4739999463882827,0.12733664757435356,1.1303013175485304,-0.13943931191664824
4.655880691,0.03359391366132526,-1.2516741125849224,0.19781908624156147,1.5127813365393388,0.12973921707096103,1.1353263250044756,-0.15439744708787595
4.713213207,0.03158508278616803,-1.227552044120272,0.19737342253136872,1.4873340760142653,0.14051772735294638,1.1012214113890826,-0.18526166537893843
4.769393684,0.03942385169746616,-1.199305473592986,0.20672671445152738,1.4546367531348656,0.1461046131662943,1.078455487415325,-0.21741361235873882
4.823112012,0.03722581515943163,-1.1361817927884623,0.18654287323873459,1.3380885440527026,0.1620231087451703,1.0222357578853585,-0.23493046372380566
4.879684687,0.0439888475171919,-1.1483427290741386,0.2011436230348256,1.3408273944746152,0.15922112014555104,1.0187046336581547,-0.24737227407273168
4.9350297450000005,0.05237069746608195,-1.1518857713954527,0.20851606219253,1.335201817424779,0.15930038084923182,1.0278493663855142,-0.2606186275362418
4.988940716,0.05065762030468309,-1.078231653383123,0.19127536903859077,1.264506156315256,0.1727034468975676,0.9962755740208883,-0.28234647212971814
5.038597107,0.047151990181416,-0.9845441183555691,0.16895968511682236,1.1675757225765415,0.18150792459690945,0.945306507114372,-0.2948051030726858
5.0875875950000005,0.043683618988870264,-0.9217943059041157,0.15356262042440286,1.094971127649758,0.1899376346495925,0.9105557314487001,-0.30617076295984297
5.137385607000001,0.0553359580141415,-0.9273395138439737,0.1719466013394402,1.0985127556008367,0.18042876567201369,0.9163297431694803,-0.30825606378262366
5.189987898000001,0.052598593059701354,-0.9283090962533215,0.17059153527888427,1.102757495571333,0.18353995221740094,0.9193927344631588,-0.3104273351114945
5.259093761000001,0.05561921987152158,-0.9259247034620801,0.17387990229231948,1.1036477313208028,0.17975357559701782,0.9113617485099105,-0.3167844044759813
5.322897910000001,0.0512165555596328,-0.9509929711183671,0.17358365020860012,1.1377038382114468,0.18075413257237197,0.9372740329544476,-0.3101833947426549
5.387447832000001,0.06334486128388778,-1.0455652309990329,0.20170448911174765,1.2729796068604766,0.15914058486174332,1.0360825713827486,-0.28442846630583474
5.4460895040000015,0.05396077914030112,-1.0383601449864264,0.1797370803671765,1.2438229340679146,0.16856610506390626,1.0527004036115477,-0.2673714245383679
5.500676391000002,0.05586728233056565,-1.090630357511512,0.18633397792176712,1.3082756579218087,0.1555658726056702,1.109940237390242,-0.23026574557404486
5.555528162000002,0.05998892310288972,-1.1553825306877796,0.20864267109451295,1.40448529417644,0.14484091849127648,1.1746362381008668,-0.2164527882898826
5.611970184000001,0.052900936080401105,-1.1951127783577686,0.20158326302485813,1.455848820573735,0.15222072019172872,1.2169311755042052,-0.19673804465906872
5.663290499000001,0.03305605225800595,-1.1678020463568741,0.17295688607069198,1.420066227135822,0.1790231638741695,1.2073087509539115,-0.1880509656569231
5.718046902000001,0.04535866459046369,-1.0206520771208567,0.167427743517884,1.2228692924683917,0.19315983640972448,1.0436792312890908,-0.26432363514331914
5.777718781000001,0.038918989029886684,-0.9743755067837454,0.15696086123100583,1.1682344363212067,0.2029193426511147,0.9808806642642389,-0.2768730479226801
5.829160450000001,0.05262120984704117,-0.9568450575403514,0.17349735200324518,1.1430159316281239,0.18974532227561502,0.9577867319252586,-0.2942136181275479
5.877650974000001,0.04508814896632479,-0.9627709727424676,0.16582637460676233,1.1565112989603628,0.19631325784536877,0.9658921029106001,-0.2884043807235535
5.934173105000001,0.05021136235822369,-0.9938639002618121,0.1759059227383102,1.1984770268869127,0.18411702061975405,0.9995593176575049,-0.2772470326321894
5.985224007000001,0.04698156717423567,-0.9926546113858222,0.17328987166989201,1.1971621949282898,0.18906341115170158,0.9971740228924667,-0.27924465262501125
6.060380934000001,0.048688124237053564,-0.9978209396361892,0.1758667393101626,1.2065764242903656,0.1879871824615779,0.9994826779999038,-0.273515094056469
6.1258347020000015,0.024266615879371446,-0.9987348011062402,0.1494336277039793,1.207305979269358,0.21114032339855326,1.004218440531379,-0.2568310748662557
6.1878588190000015,0.042852980421054745,-0.9736265438831099,0.17158342899927648,1.175157187242864,0.2007852800704735,0.9708687219345771,-0.28090366565721
6.245451211000002,0.047940364789128415,-0.9626593471946947,0.1716088139422765,1.1664333999344092,0.19860890369240225,0.9609836098495911,-0.2886547811160606
6.3075194350000015,0.043730667619323274,-0.9108099497901235,0.16089237487189162,1.094289950981184,0.20972330499498085,0.9026127726317513,-0.3115663976096645
6.369141101000001,0.045694944024303324,-0.8626422438491149,0.15594396401578997,1.0276858699656652,0.21471860560705255,0.8486545598781111,-0.3325078185620224
6.4315021030000015,0.05036175847908141,-0.8171168946770623,0.1573507994945961,0.9424274648974167,0.21688609877736084,0.808316109848534,-0.34437050278925907
6.490563869000002,0.04343660460944568,-0.6554320210428773,0.13649489490037453,0.6556164692578352,0.2431200804956449,0.6654062295787431,-0.38532835555891215
6.5512170790000015,0.04969395399522355,-0.4951151586183621,0.11638869941066168,0.37497231629641664,0.26403001912155105,0.5098466211978007,-0.42979784211480254
6.6116313940000015,0.07004539753557758,-0.31942574198776574,0.10710212475350786,0.05378877754149906,0.2766659156087028,0.33923744621950996,-0.4751144120049811
6.675816536000002,0.07493312813216849,-0.31223272786619427,0.12040219302266594,0.021557266670207836,0.26008948893293476,0.33049468870367105,-0.4493376517060068
6.728939772000002,0.07193381077532073,-0.31301607504278584,0.12013664599673177,-0.004613130894780736,0.2564607827091801,0.348369122990622,-0.4277062610477534
6.778514386000002,0.09733043260956542,-0.2941459567590937,0.13781704296468644,-0.054287446073052095,0.250148987278806,0.3327694576547945,-0.42822687414333116
6.828548909000002,0.10003889958474571,-0.24923192690205678,0.13588218975909708,-0.14933689123678376,0.2517961885016824,0.29659518772665566,-0.41761282723871174
6.885105372000002,0.07113710879753732,-0.1975739737448178,0.11018401475402571,-0.2494924672241963,0.27746575966723774,0.2523401991662691,-0.4145982057704396
6.942533971000001,0.07325250514713173,-0.03807920398890726,0.095958518760309,-0.5164262252640436,0.2957118253827103,0.11957744824071954,-0.44887507027412843
6.9984428900000015,0.09221880711083302,-0.01218871732450607,0.10934847188856776,-0.5670569645893224,0.27933687481911956,0.09459085717541758,-0.4242504538961347
7.056549789000002,0.07882578321466115,0.02995866677357794,0.09497711409890738,-0.6489470528312558,0.2898280985485607,0.0828055276643583,-0.4057710412525459
7.114791156000002,0.06997506559519284,0.02713167923801727,0.09722659117306909,-0.6658910097711013,0.27999788643735635,0.09225457486281216,-0.35551640686747726
7.171915055000001,0.017896648627908244,0.15754623807670598,0.04953392450838577,-0.8802106511760004,0.3206452770147412,-0.00969477323849336,-0.3419909360667051
7.232291938000001,-0.010828763584923087,0.25460422518092407,0.007974558549156434,-1.0473212783199066,0.33822094211659753,-0.07685763681039251,-0.30593872388392834
7.282411338000001,-0.042934213961419505,0.2238746343610618,-0.010239529775881025,-1.025146768871721,0.32304163770992883,-0.04395798145604656,-0.2172254593599629
7.336257220000001,-0.047602190792895106,0.2296413875623141,0.0023117921237637297,-1.0565961985769743,0.306706975243136,-0.036208614862786336,-0.19352537691147745
7.395172596000001,-0.04919360198499639,0.21903272917887942,0.03192798797087192,-1.0430826455264237,0.2836962562606775,-0.02589418396232748,-0.15364068033173628
7.456159353000001,-0.08124995157386361,0.24652028480231378,-0.010602034833225126,-1.0441081574919202,0.28401831241324726,-0.0539978452212947,-0.10334870341873818
7.517127990000001,-0.05746926126764201,0.26275518896124284,-0.012489944727073765,-1.0314633871358716,0.25727794648467484,-0.08537347381631032,-0.06555162103802542
7.577161312000001,-0.044167959073899685,0.23733795742735814,-0.0047600520076501,-0.9674530588738914,0.21423251220801723,-0.1073752932092441,-0.016004313668270997
7.636335134000001,-0.03240030709055356,0.2462206659448126,-0.026813275656157248,-0.9556025498248621,0.1922744376661466,-0.1273913792058738,0.020850173822592997
7.693302631000001,0.012527054616162889,0.3247257731045213,-0.03178863861077456,-1.0530991311910491,0.1776417219342636,-0.1851854994596926,0.03657218896298393
7.744448661000001,0.05718936368018609,0.3665429663363233,-0.0033569633138643483,-1.0712174901038267,0.1320938816437518,-0.26096799032038726,0.03449424662115292
7.797787189000001,0.0197999132124518,0.39578256812614243,-0.04027645767125937,-1.083687167193874,0.11455045649401045,-0.33550838196886384,0.07321606373218009
7.852454185000001,0.014569446116430792,0.30562749781708215,-0.04438709522376508,-0.9284773923130868,0.07698969765039151,-0.3243409317098342,0.09781584050483727
7.912776470000001,-0.010236460610195895,0.3634463595421248,-0.08086686455837805,-0.958709656237231,0.06342779371539216,-0.3795874313853466,0.11380786461478835
7.974746465000001,-0.013561285358959885,0.4794332887494513,-0.1139058635905182,-1.0968553753579688,0.06375892804426202,-0.4883402242282442,0.13251381791182923
8.036540508000002,-0.0006456866564889405,0.5322124142961592,-0.09301186011908848,-1.1751580432076159,0.02356985866397171,-0.619018477324351,0.1250997680572906
8.096419573000002,-0.007714802291982269,0.5423516390558082,-0.11512256283992907,-1.187731039696859,-0.010616188768811237,-0.7050977258020797,0.10322208751481783
8.147287846000003,-0.022743748951265512,0.6398736124427493,-0.15149196807455814,-1.2959109865617258,-0.02502257937661466,-0.815069519036186,0.09273163506137212
8.198523045000004,-0.022231797994285492,0.6116366215058567,-0.14549020254358716,-1.2244637080260907,-0.04843679558332838,-0.7682413577225594,0.05668995794398732
8.248798848000003,0.0040298235378355704,0.5190790112842982,-0.08851720680603864,-1.0701194399696436,-0.05454299046992877,-0.6324338968313112,0.011807339139655613
8.300291062000003,-0.0027219015122853865,0.43019442776578354,-0.08768695315201017,-0.9392627903809707,-0.03489346543530994,-0.5487036263687828,0.06574897950621245
8.350661517000002,-0.007498501372611494,0.37334325076795255,-0.07545267303138825,-0.8333330634476876,-0.027400010922483294,-0.5058054207797522,0.07192981267691212
8.399932862000002,0.041676579704521585,0.2751496402882331,0.01578244034340616,-0.6805869785828993,-0.04043230400483983,-0.4101689403608975,0.05131824837801497
8.461609841000001,0.05934575497120974,0.21102487514878235,0.05911740189614774,-0.5365317424645317,-0.05932160513757851,-0.3310401209106327,0.02486479671599233
8.520213605000002,0.1099723105440426,0.194846211405573,0.14312449575842218,-0.45889083067934533,-0.10941428936905463,-0.2545530574625705,-0.05389390862151972
8.581432821000002,0.1528567118016871,0.15010777182626672,0.22575234671400304,-0.3799867635439164,-0.1460733888500848,-0.15972133892063925,-0.15191454520656883
8.640315296000002,0.19728488313853387,0.2325926482160888,0.2820978944771385,-0.4292632373016219,-0.20515303682489627,-0.2066478583757876,-0.27953857153247014
8.692289593000002,0.22494167219496647,0.4918167110761664,0.2955667439041136,-0.6448552242772303,-0.2956011995408988,-0.43374265407699797,-0.47389846870128016
8.741545917000002,0.189810370066845,0.7271445112784543,0.2066312767577354,-0.9006909690334087,-0.27479440881110384,-0.686972087521199,-0.4524042822680367
8.801008941000001,0.10761104187834479,0.6949239412016001,0.07006632422069711,-0.9117856952920734,-0.19222645241469713,-0.7180297830580196,-0.30695902825446286
8.854708196,0.06621377075362063,0.612196368589978,0.008537991459368467,-0.8951252797055544,-0.1139788909199188,-0.7043616431108299,-0.1148249415552538
8.919463397000001,0.06365384093771481,0.570324128152347,0.027848798453886624,-0.8339998747419411,-0.1256569303192209,-0.6413966182319478,-0.15593703107238938
8.977864267000001,0.044751383845315476,0.6568427102913534,-0.039732959324239335,-0.9676121103902576,-0.09210570552385382,-0.7970509246480344,-0.07168260880166122
9.034744264,0.010016342496855584,0.6348151817683524,-0.08418772242992964,-0.9817797255724848,-0.05235038808388746,-0.8261933180806127,0.02660583767322315
9.086515189,0.003122375581884583,0.38643452127767064,-0.058473622648319415,-0.6842980204953927,-0.03810102793410686,-0.613238856801224,0.04091636789836265
9.139189483,0.004805837902741802,0.06286451098670427,0.013624159426952262,-0.2766050982663399,-0.036368239710570724,-0.323860696332147,0.03791531303851984
9.199232103,-0.0074032360727672945,-0.143055380618649,0.043914398358401795,0.009846951295956934,-0.03629756670385471,-0.20210918366828154,0.03240735907729415
9.260991336,-0.051499963691771525,-0.28324230689408947,0.01806733187336291,0.23118839236062094,-0.03516485350171637,-0.18038203403203626,0.026992075757796358
9.318804981,-0.051225105065386314,-0.2724501539004484,0.029627514253751066,0.26774959686749494,-0.050570189932110106,-0.286337920919235,0.011000611139779466
9.378293038999999,-0.045943980101816995,-0.16369081290383117,0.02881054164913771,0.16669761266416422,-0.06256926833896861,-0.43671794149160864,0.004900205714085491
9.435621263,-0.018602218284295813,-0.2094472661012041,0.08252895559462516,0.20781084660623042,-0.0698847750948629,-0.41340385519842154,0.010632508079300771
9.494905235,0.017632639010650267,-0.1849202142424251,0.14043445198740437,0.17449461789209358,-0.0779799626439281,-0.39191692721741805,0.011721148968692651
9.551942111999999,0.006260691761759592,-0.21924756507133403,0.1241417073719165,0.16676910323105004,-0.02203592233850798,-0.35505271788807596,0.10612029960628783
9.607604027999999,-0.06264431896228213,-0.27281791127700855,0.03040875258442802,0.15724878787535054,0.10952814577086072,-0.2957748115076917,0.29909821835644085
9.671594381999999,-0.1800144634402596,-0.46227617033568313,-0.11659403870596233,0.21838816788862078,0.30870479550088425,-0.15564178413269447,0.6739622510120508
9.728615045999998,-0.2274784658066193,-0.5030864341430535,-0.18751187005816838,0.2270267597790246,0.3126875352929492,-0.05641051946949761,0.8945460401400149
9.788531541999998,-0.248429227562093,-0.45280804036654687,-0.25049019878548157,0.12386433360642538,0.32478047056889797,-0.09370469446061062,1.1054384548439282
9.847716807999998,-0.2961772475748405,-0.39987553566457984,-0.3186403232989845,0.038176260436968174,0.3663445375055486,-0.09780252566070761,1.1511174504103836
9.909603117999998,-0.3352501547706197,-0.47926407075845956,-0.3632761575325138,0.0699757204574859,0.40876121963978235,-0.002060016520516454,1.293834699947449
9.961587904999998,-0.3286183411830332,-0.48902949031399,-0.34808968003352037,0.07125377287648893,0.39197255319311863,0.035643573875080846,1.2915828493352561
10.016020058999999,-0.33835126714146924,-0.5153841023650483,-0.3608313427562759,0.06912255165733097,0.41932022323083695,0.04952092048382775,1.34797972967964
10.073997735999999,-0.375449383248913,-0.5736923189626024,-0.403990072472472,0.11086708988488264,0.4793555162398143,0.0743037902332259,1.4220496440081147
10.131204366999999,-0.3977294896389121,-0.6311570020897368,-0.4297529908897332,0.14141877530662986,0.5656556256764047,0.09666172129475133,1.4672079830015086
10.179819106999998,-0.41753717295253767,-0.6697364206051498,-0.4580199778969999,0.13455089987676022,0.7026672095895916,0.0965959864203176,1.4914647154292644
10.227966309,-0.4040429589302373,-0.6430123519268457,-0.4226655482485309,0.11568956358280957,0.6933282742348259,0.07254100300994797,1.4702059795114355
10.27670908,-0.40195295394926417,-0.6315031412385264,-0.39760490231139123,0.1342074475224242,0.6839277295953873,0.0696992340017067,1.422487689438065
10.32624507,-0.4198797657554715,-0.5629586462402701,-0.42430922546124034,0.09607925597923689,0.6420596017587451,0.011274851652048062,1.3911639446936868
10.375831604,-0.38883827538229015,-0.54969346698088,-0.3796363030859906,0.10881377731213336,0.6015794621367919,0.0048088738630579315,1.325644855594443
10.436728716,-0.4540904655251935,-0.5703944271041074,-0.43821467837136846,0.07480325074747815,0.7635033511170897,-0.02757834926248403,1.412298781485615
10.494289876,-0.4697116330525751,-0.5295484100115816,-0.4504462052015978,0.027516249334079573,0.7697570417612958,-0.06272765368096826,1.3893535486430029
10.546628476,-0.5276031732264858,-0.5612438675408954,-0.5089863373047945,0.039743280107002545,0.8417007640268324,-0.056732000477935515,1.502280974144542
10.602502824,-0.5266838428847828,-0.6129331162331649,-0.5145475279601821,0.07115624519968074,0.9098289004449732,-0.01743189469968503,1.5084615757798303
10.652621748,-0.5387229826028729,-0.6428805688174541,-0.504887910361361,0.11124242320000063,0.8755570453940494,0.02631654882300151,1.5115861624870297
10.702875139,-0.5327167460174633,-0.6470255063035626,-0.5004190185556379,0.13044107893897353,0.8310659922461424,0.05098976649690034,1.5230149664009962
10.767430546,-0.5461926414395092,-0.6338731021958587,-0.524569269547827,0.1295416148847446,0.8602967584745401,0.05325366790333651,1.5048258495817015
10.838335516999999,-0.5576478018490746,-0.6143098178930416,-0.5342804371671064,0.1547374956784661,0.7979522465585385,0.06974625095382433,1.4820565783238497
10.910969974999999,-0.5389210981675141,-0.6014131878634094,-0.531736642603602,0.17179580265686722,0.6967411318980465,0.08019035994911843,1.4804601513403288
10.991771939,-0.5644604243135416,-0.6172640308264288,-0.5465916930180308,0.19563943091922573,0.7116729536639936,0.09333427473646812,1.48085784355949
11.056063415999999,-0.5182761594713825,-0.582984540629212,-0.48994900697803523,0.20405029577713474,0.5810306117031993,0.09333596333071334,1.413325113029953
11.123305322999999,-0.48995367652134025,-0.5809425765219871,-0.4489693458175297,0.22679858205977257,0.5000638767537976,0.10811023880448631,1.4007352000887145
11.188440562999999,-0.4787330020887141,-0.553653718731438,-0.43445518833538427,0.21889994498332777,0.44941920767010535,0.08459972213110256,1.4030751397784185
11.249534131999999,-0.5004995103077027,-0.5616692043536268,-0.45631642534362676,0.20465451892721453,0.4705683719404257,0.0916780360657431,1.460707489786088
11.311285259,-0.47004037149973155,-0.5577757581933134,-0.4115051856388274,0.23409603223957304,0.4133771082375809,0.10723658132663826,1.376208373923808
11.37187791,-0.4576822844899904,-0.5785504593022557,-0.3916351236191983,0.2776608096850793,0.38400569865945333,0.1311472731018408,1.3430542981629812
11.434027673000001,-0.4262626024568051,-0.5844268416432148,-0.3463179811655916,0.3213890137693078,0.33646186244923937,0.1500900948407198,1.2066606510473605
11.508905888000001,-0.4398540981696374,-0.6204408592167652,-0.35154783419968105,0.3822684442162568,0.3340087565716195,0.1752596799598188,1.2067447931335358
11.570485831000001,-0.44689146438320165,-0.6349440240177247,-0.3515921853001147,0.42029880995900903,0.3246478717080821,0.1815565070280087,1.1809191154771959
11.633912087,-0.4406649903021305,-0.6688059136917119,-0.33267836437571896,0.4916352562358608,0.2979412823636662,0.2125579593242108,1.0947805230228624
11.696810485,-0.4290543398184839,-0.6367444904766335,-0.3166314752748867,0.4721306470465376,0.26866022207195067,0.16380821817802155,1.008827961271433
11.759704115,-0.37542305599383974,-0.6035748002667986,-0.2527903262189123,0.4888337276314894,0.19729246649967436,0.1388204575364434,0.8070845360877585
11.823561432,-0.31415606558918524,-0.4936686680246902,-0.18553758601012516,0.3596459808988737,0.13978780100920216,0.0270556540267451,0.6621778652498611
11.898160936,-0.28061517594314694,-0.4590701464045782,-0.15100071537593246,0.2678895139496122,0.11278340646734696,-0.049964697125887324,0.5551626338789316
11.973342897,-0.22884270884814303,-0.4237503521393388,-0.09142789014189044,0.15919845898390383,0.04389506141259973,-0.11104255590291877,0.5142564937005745
12.051006557000001,-0.05255262391139672,-0.3873902432786833,0.12580871672595884,0.14072639858905356,-0.18732296988286057,-0.1490130570423543,0.1801951838529436
12.128510477,0.08622318875125877,-0.23147320601421367,0.26616971074662243,0.0537780604558197,-0.38253783240099043,-0.24679615959289147,0.1688291243153701
12.188456775,0.17131625886754326,-0.26027890053841507,0.3529658246391247,0.12147559209373467,-0.4637928322184296,-0.18643033155772784,0.14846122180170496
12.256924154,0.2464847584168896,-0.06916469624419642,0.40379662960124807,0.0011482945804827795,-0.62283565586571,-0.30854442892286954,0.14140250053674358
12.323830844,0.2898123438368528,-0.0905480556283547,0.4572734605716079,0.058218237419385484,-0.707068196853324,-0.23950916584441906,0.11767768761887992
12.397060633999999,0.3613047619836364,0.024172201492735933,0.5353693885666791,0.01639853709904446,-0.8129780426948559,-0.25057118716778604,0.10472140043030582
12.474164725,0.4120940178733175,0.10012433618668198,0.5840149999092404,0.004906282521104207,-0.8786444985198314,-0.23365232532828997,0.08655594797413131
12.545692683,0.509850245230905,0.1252997412309733,0.6764902204674346,0.04892838161278051,-0.9320439634615293,-0.13468612793640708,0.057599609126278185
12.613663197000001,0.5178066085750902,0.07880221736692629,0.6950744102990832,0.11953136973878296,-0.9038671475697606,-0.022492015963974554,0.03313928247451972
12.683519364,0.5080695408847389,0.07507308803225406,0.6793320998445194,0.12928116687232094,-0.833781477222783,-0.004549606094601506,0.015157152181161569
12.751103879,0.43510986016010955,0.1009000807884189,0.5870455727828634,0.07684112412701302,-0.7210075027236876,-0.03918847234841022,-0.016181259979774463
12.814867497,0.4942862527209669,0.15471073100352198,0.6548750361259662,0.0500659871682811,-0.8082304403052085,-0.053184677492476504,-0.032702692847662
12.881185532,0.45952377365061,0.1851625101034967,0.6091006351760225,0.004957785181818581,-0.714370364320549,-0.08539822419030355,-0.05911386064581888
12.965486766,0.400067748432004,0.15934315085038445,0.5368175183143944,-0.015320416792486838,-0.5837752920697642,-0.0926590062296318,-0.08552989583792292
13.029662371999999,0.3693439651873397,0.187029319877587,0.49273757359865855,-0.0801918808256507,-0.5121736817034409,-0.13010459398814125,-0.12287239589628504
13.088143112,0.3825797460731027,0.20067129609809076,0.5014610796939853,-0.11909137295173557,-0.5179191435895826,-0.14298919919896957,-0.15250301680650422
13.156060936,0.3959606549338024,0.24541725321074928,0.5144103653660731,-0.09435512131339038,-0.5399063419155439,-0.12812739247833985,-0.18570973590942907
13.23134494,0.38342353058234707,0.27495971287877563,0.4979384610158303,-0.09104523587868824,-0.533573053576422,-0.13133655826762924,-0.23591904088550214
13.304472924999999,0.3505035232022202,0.30226107245019357,0.46567903627243873,-0.12925862096063828,-0.5107446923664504,-0.14922361447411947,-0.3319699663604393
13.377243281999998,0.34041854280968814,0.3696658724366261,0.43259548679920673,-0.2259292973854024,-0.49307860996259206,-0.20875956112441818,-0.43441192236704046
13.434909344999998,0.28280363233368644,0.3679562440209125,0.37192088271295476,-0.23378777129936007,-0.4640876863508817,-0.18318300394461076,-0.6149531096430759
13.507543326999997,0.2600383408324633,0.3597117630548722,0.33049313723372264,-0.2556248003196142,-0.4485408134380001,-0.23800555978676344,-0.9433169536338502
13.570722342999996,0.2513416165309085,0.3771245832453669,0.33532259204697334,-0.3033214416199889,-0.43873440910822437,-0.27418137382879654,-1.0167185001475791
13.636766434999997,0.22737195704325822,0.3699401518273282,0.30932732312122413,-0.2906014723636803,-0.4132957890541669,-0.24536721385664848,-0.9388687860062433
13.699826240999997,0.21934793390825805,0.25558705298621465,0.2927039575555697,-0.18347676231460394,-0.3746699704891674,-0.17326741993740669,-0.8641821746773
13.762123584999996,0.20638098169531002,0.2542026934531531,0.2744754351314545,-0.18037972487183676,-0.34679290950101965,-0.18193154309837606,-0.7775181350381335
13.825647592999996,0.22716768743733587,0.21526625798450993,0.31232300071870295,-0.12870756208860762,-0.3559548016856738,-0.1400039484675543,-0.7848444193724637
13.887716292999995,0.261327492439282,0.13691442948097907,0.37378834570270497,-0.0395106217811531,-0.3710157608423902,-0.027358728482612393,-0.7939906236378266
13.951221703999995,0.25414349821904086,-0.01655105976506564,0.38982801474427947,0.10503245356059483,-0.3472159279545203,0.13981358811573255,-0.7358822598053154
14.013972281999994,0.331032554930137,-0.07585199896858842,0.5150199179486522,0.246107422394908,-0.43950667670024085,0.3267681705640482,-0.9673942794863924
14.074909686999995,0.43575737142862797,-0.127423180106783,0.654724700115201,0.3353247114128633,-0.518039084672087,0.46330829748598334,-1.070242132643447
14.139799832999994,0.49439896204107375,-0.2743731063886624,0.7790363500898995,0.5006575622173166,-0.5420679589832533,0.6604931739104131,-1.1578126951312482
14.202047347999994,0.5426040838887127,-0.3070596000689468,0.8521381041755017,0.533587191642906,-0.5517687784761192,0.7117261833923665,-1.1523007711792042
14.264283895999993,0.5377359252839982,-0.2839867413746255,0.8699529934845939,0.48861717719004427,-0.5382576371706868,0.6474715382458083,-1.1205437885776122
14.329763412999993,0.575629193626724,-0.26284906482691833,0.9291766725095809,0.49990210004557806,-0.5641233198693636,0.6581113765724109,-1.236901587034226
14.390758991999993,0.5714014069469785,-0.3255749671928476,0.9345334666896005,0.5610595975309387,-0.557705920890409,0.6915457555912188,-1.2786884605729438
14.454259634999993,0.5708124879138912,-0.3642741634365732,0.9409654857164049,0.5998905737534975,-0.5490069385704057,0.7193246702143652,-1.3095988949256132
14.517675161999993,0.5411418074574705,-0.273172854757051,0.8631672883700151,0.4938093529943444,-0.5431176320524985,0.5461310651499884,-1.3507495447554125
14.579049110999993,0.560667520126614,-0.18247281559663167,0.8691401424976417,0.3993029990462748,-0.5715832157120576,0.410494197529788,-1.453336915245891
14.644046545999993,0.5735980272523393,-0.11542207512425157,0.8771259452860806,0.32400075413719015,-0.6000485797944196,0.30450573194499514,-1.4714442070387466
14.710737943999993,0.6479143421757226,-0.04427655732060483,0.9519194988011827,0.270450751951838,-0.7203051400807007,0.2488881055617833,-1.5478452008432322
14.776336669999992,0.6313135895074646,-0.09526497678727894,0.9326935710252726,0.31683198235650134,-0.7572519531117547,0.2980952220700359,-1.4459454050629246
14.845740079999992,0.6374638429577391,-0.06961510464056225,0.9366442179657822,0.2872682809912417,-0.7016713918788697,0.24313215658033988,-1.4661614968647305
14.907530784999992,0.6612957108676473,-0.06725157297744831,0.9665541452566014,0.3209552352132196,-0.7504017490275002,0.233403379142257,-1.5073039967882402
14.970826625999992,0.6614468387579193,-0.13052013078439703,0.98487778186303,0.41688929378863987,-0.7817392711668217,0.2913261952009839,-1.5254990283024559
15.033172845999992,0.6722252378431868,-0.1694043195749006,0.9950745965983505,0.4653896687283683,-0.7911313615580845,0.3288337920387547,-1.5014143237219602
15.112152814999993,0.6547060232919881,-0.21511486195719487,0.9783229914187442,0.4995785653402085,-0.7396824886692903,0.36952968566852773,-1.4635177975302762
15.189756393999993,0.6106260771917504,-0.2776251028279278,0.9338501725573121,0.5538829993898197,-0.6368931612129755,0.4155181716684867,-1.4259185988827368
15.258937836999992,0.619912109183411,-0.2127758256243213,0.9272138458159507,0.46964361147926603,-0.6275218913147831,0.3356711274122352,-1.4329350933146512
15.324573517999992,0.5257543553065329,-0.2587607707234533,0.8031369921345168,0.44889193395066,-0.4788719213455225,0.320488717497984,-1.221806753647388
15.425067902999992,0.5101463055686613,-0.2341813842682248,0.7792143703275757,0.41200790318775304,-0.43774001949032815,0.2630133720096831,-1.1828292265457745
15.501413584999991,0.5119136577246619,-0.28444341484112295,0.7826320700040721,0.48493901195046674,-0.45325133579740834,0.29909485502281274,-1.1565324586859131
15.575866461999992,0.4292269461829428,-0.4293470858855894,0.7075626046449662,0.6196699842074047,-0.3485815657354926,0.40535564321766765,-1.0322504504168823
15.643246651999991,0.36167136085666607,-0.42574655093355657,0.6051265278520108,0.5707735006291913,-0.25816443391859595,0.33878159898299914,-0.862806957604189
15.715061426999991,0.3439392823764439,-0.406427919359084,0.5703474063910893,0.5507618983823201,-0.23592368953398718,0.2952114728078317,-0.7802586780851514
15.777836322999992,0.37647541377950533,-0.4968338621643836,0.6253638494919038,0.7056441872312011,-0.263336103498709,0.38082591076563044,-0.8425001502836703
15.846291303999992,0.40771714549009963,-0.5677615550431623,0.699655937293474,0.8145874533393795,-0.285236389506363,0.4338607483450019,-0.8684363602542627
15.934805392999992,0.3499820966745527,-0.6439599344038465,0.6671138986621535,0.8649139105557918,-0.23319243185817481,0.4598776129186762,-0.718568265478173
16.01509976299999,0.28876098784789817,-0.6296060497802667,0.5604529205645195,0.7507355272942012,-0.1574811300172703,0.39986271747839625,-0.5266060433538585
16.095344541999992,0.26883543500685675,-0.5485495970213323,0.49993067445530587,0.6111488071916077,-0.13424951884299494,0.3198347169383637,-0.5037952412550932
16.17824888099999,0.2382193759030842,-0.5050794374925235,0.4274828164398433,0.5034726296321111,-0.10223259832979632,0.2639300318493785,-0.47431529375727105
16.25499748999999,0.2453316454735926,-0.5694027733268733,0.44482433542018807,0.5180231106787596,-0.097116671405916,0.2864004839072376,-0.46408176265984524
16.33166026799999,0.20017795977942945,-0.6628251774889011,0.41489657197215307,0.5156291140390807,-0.05806164548237615,0.3086954065731778,-0.42273374699290245
16.40174483999999,0.22440859755357306,-0.6943410645557964,0.4365258484424473,0.35960752721835226,-0.03354564132099393,0.26193925558735176,-0.39199731262587983
16.473163839999987,0.21696926165711677,-0.6586768465330791,0.4174102064525183,0.13348093237461559,0.011863805187634252,0.15989134977345398,-0.30765802321625635
16.545733448999986,0.0726153368989762,-0.6047843582939771,0.22748695955740622,-0.16572589493657483,0.1932687007659536,0.021291219633128404,-0.17839965903577848
16.612620111999984,-0.07809710127773889,-0.437290581690498,0.04453308770370815,-0.4982687508108395,0.30830685292388826,-0.17227181478559417,-0.16662193211306078
16.679569955999984,-0.17393654573198497,-0.3699657233259383,-0.09034068482689137,-0.5636793424194833,0.3647230085836932,-0.18647600960092786,-0.15225426279971147
16.742042536999985,-0.2636578293171559,-0.32842642493926516,-0.22901740765030507,-0.5613265875571456,0.41942580354302433,-0.16570826216676787,-0.13291855850710377
16.805075640999984,-0.3370093510209524,-0.27165223995712223,-0.34750183605839036,-0.595658285414762,0.47721542814347406,-0.168061108951862,-0.112661279442458
16.871989721999984,-0.42567819580625793,-0.1986921195758695,-0.4830499037552073,-0.6917331727230094,0.523703189673224,-0.21423832419776864,-0.0982614882692924
16.971537108999986,-0.4974038658412268,-0.1367778403857768,-0.6285257178632946,-0.8240460549215192,0.6322046198764392,-0.2659995293507299,-0.0783214250409974
17.040491576999987,-0.4580683685220824,-0.03383681828692989,-0.5885560944655982,-0.9232895623608078,0.5605018287279324,-0.3250276059200835,-0.05557207914565233
17.116525406999987,-0.3746668118363496,-0.045394278364261104,-0.49069233746933744,-0.8908784038638617,0.5117438641020827,-0.3020771934164548,-0.040202276781586783
17.193325753999986,-0.39254192164944235,-0.06254671451665395,-0.519776369787068,-0.8505951445622393,0.5284230964623274,-0.2752121808920798,-0.019632717781751897
17.271564479999984,-0.3700343216572778,0.01773185624764995,-0.5029175919847867,-0.916473637358527,0.5153172682879275,-0.32131750774291695,-0.0015929601496357214
17.346988912999983,-0.35834647869157465,0.00015357372452609334,-0.4910450009937296,-0.8768718906647366,0.5324783286956086,-0.2967732657872216,0.021516909294806794
17.42705177899998,-0.3773200278608656,-0.00384142999884997,-0.523202687175028,-0.8712294122759121,0.5935394518206943,-0.2946811199989781,0.05430433039557433
17.500303741999982,-0.3907038863817608,0.03175155915521263,-0.5546865315074192,-0.9176871379835122,0.6344379229905006,-0.3197543395799144,0.07385909413656669
17.581326480999984,-0.40371305177854333,0.2087240943763851,-0.6052422991789043,-1.055207403900838,0.6175405314313714,-0.422141029814116,0.09676179463227888
17.657608981999985,-0.3711247580548496,0.2725647633959392,-0.5933007949259369,-1.0269514075975594,0.514068723628098,-0.427793821987381,0.11926327833290329
17.732613559999987,-0.36281144269656096,0.3908891109317567,-0.602164708072926,-1.0857720381604314,0.5459198275029807,-0.48201846890903194,0.15318194234998403
17.810848947999986,-0.3722948143781774,0.31331045520123896,-0.6114106362720337,-0.9135236204335875,0.5678308250942824,-0.39944332062746246,0.1996182920994009
17.892967697999985,-0.3641598107872206,0.3111497352893158,-0.614169451731298,-0.8222272932146562,0.6037745036967235,-0.3509304348488776,0.269416953827715
17.957811113999984,-0.3552784739450166,0.2965230484396596,-0.6147232703433402,-0.7474036222724697,0.6215491684223496,-0.28748405653285153,0.3669932647189229
18.018582578999983,-0.3701584615939936,0.10711933550106968,-0.6171164220715355,-0.5517888545846118,0.6400312379737234,-0.10497769709601548,0.47040106436551404
18.094944711999982,-0.3246499513814237,0.035812357946548884,-0.5283821348119926,-0.38626167533802613,0.5058273972836732,0.0252535706763678,0.58124309537463
18.16121792399998,-0.33177275622498936,0.024469911472916515,-0.5297676990998057,-0.3090423424694936,0.34910289250165655,0.043047605522561615,0.5076809150982416
18.23335313499998,-0.3189810280820105,-0.10831898996567266,-0.4882755427214952,-0.11014738944807267,0.21528463576086393,0.20629763481810082,0.3706284657459815
18.30736350699998,-0.35166905730134335,-0.13895653286792836,-0.5244649740843494,-0.008698764670041126,0.143500524286579,0.27758631047435484,0.22390913787820907
18.38204407399998,-0.4671658728600282,-0.3600022087275369,-0.627132605513722,0.25323293131497837,0.12676008303887776,0.4070589807130713,0.07804702981574962
18.460627791999983,-0.5789561482409147,-0.46463953324102863,-0.7737138960156135,0.33911311047834486,0.17288856761668092,0.39207341685772334,0.1287688973148011
18.526900766999983,-0.6467870065161521,-0.5341716740614186,-0.8477378685030458,0.4331049351823614,0.19174211928877327,0.38699646157312967,0.15290252564465887
18.592044112999982,-0.7802881873998663,-0.6307466889915627,-1.024921505513455,0.5051353938765566,0.2353858409659496,0.3134273904958805,0.20304787984845418
18.657585380999983,-0.8002309774650957,-0.6798454786967729,-1.014010760365884,0.5563140331020645,0.23910441088255557,0.2768079462830735,0.20156135229611735
18.733149287999982,-0.6445934424422116,-0.7280748536021157,-0.7971789877248461,0.6610124018167085,0.18172386327001905,0.3116730021647394,0.12667436567955667
18.819123027999982,-0.4812986499567824,-0.8035349277922981,-0.5275276044611551,0.7803113054844028,0.13262070502505022,0.4029625876851261,0.0854924148884144
18.900398967999983,-0.288851751610777,-0.7870561548853925,-0.23213886914188722,0.8095650109423349,0.0610064873997511,0.44358828726769034,0.009866964398508496
18.979266641999985,-0.272977656557198,-0.7184605038858242,-0.2093425786652817,0.7316924982574639,0.055460695485389705,0.39584564930631483,0.00323779308429283
19.040326355999984,-0.3086076107126392,-0.6786844560019439,-0.25836444664443686,0.6771272565640508,0.07036141284284979,0.36435413739726424,0.016541578860679793
19.105306147999983,-0.28855224765965487,-0.7686783695824854,-0.2304988409045787,0.7661700346093012,0.06517199676724991,0.41882687614921116,0.015833972442826496
19.166799783999984,-0.29570211227581394,-0.9400653761995517,-0.20231464669925409,0.978528185362701,0.06148626752302661,0.5338628596352983,0.00838379825520613
19.229483365999982,-0.31657073183081713,-1.0573555719182772,-0.20684082103903859,1.1612217210257563,0.07210157263259862,0.6172608468024706,0.012212565511474949
19.29566431099998,-0.30229105808361334,-1.0853051524541317,-0.18261057479489592,1.234714056995814,0.061690012025944534,0.6491714804857736,-0.0028587078416446665
19.36006689099998,-0.30790458827627665,-1.0568082496491027,-0.19335097320544717,1.222209007403561,0.06371548759203022,0.6172069868430062,0.0011255118776880289
19.42408108799998,-0.3119870295388668,-1.0184166283771674,-0.20214448539003874,1.186712910562427,0.06994863143975899,0.597414018484183,0.010079047652383225
19.48992729299998,-0.2924724294051309,-0.8784394148287508,-0.18983164116144238,1.0492307527197686,0.05725330550721251,0.4817235777506161,-0.0057921004752247
19.55988907899998,-0.27859812594178324,-0.8954450195101589,-0.17143173316508648,1.0579532983588056,0.05464537603041111,0.4962947449470804,-0.008111046234052531
19.62686681799998,-0.2692736878427153,-0.9272260731819302,-0.15427581244277558,1.1065302680752067,0.05457405224301297,0.5552415865066557,-0.006539015219503309
19.69212722799998,-0.2604168171563766,-0.9424710387809727,-0.13790963199599976,1.1292416904645763,0.052562889842563076,0.5723659572058113,-0.009282034270743967
19.759532927999977,-0.24518041996818174,-0.9595589048816826,-0.10761337423225882,1.152822865648992,0.04375912910192209,0.5857124366545329,-0.021245199506303304
19.82300853699998,-0.25855736086512965,-0.9787959565904183,-0.12516397927331024,1.2043212233683418,0.05145670811029437,0.6050931568295888,-0.014183624228701456
19.887377499999978,-0.28912732407461156,-0.9920150978523824,-0.16642067455301546,1.230359090183763,0.06667933406812952,0.6096638954225149,0.004194465925826378
19.95038318599998,-0.3070482011419318,-1.0576145189324104,-0.18448856000400762,1.303620148701901,0.0765582760694587,0.6498215195960039,0.010360792434053337
20.01645159699998,-0.3170833565829486,-1.117519885875188,-0.1910036916044076,1.3773249203376647,0.08257963565505361,0.6882486871806529,0.020792835282770723
20.08085131599998,-0.3190513836064776,-1.152119414116051,-0.19102324323834952,1.4302399043452545,0.08356146003592155,0.7146728647183017,0.015268069931104414
20.14387178399998,-0.316212103957294,-1.1960878651757059,-0.18013050478727582,1.484310482265593,0.08368892838737019,0.7454024356472356,0.018111046482484346
20.20827841799998,-0.32706857140976875,-1.2008670412602358,-0.1992188616164002,1.470913484590158,0.09171997172452838,0.7398281320550767,0.023920320829303537
20.277629852999983,-0.31412287412676815,-1.2282197634057166,-0.17909463782325433,1.4654363678210323,0.09366544669471878,0.7620373915000312,0.0028018210449397628
20.339369297999983,-0.3188780151454812,-1.208286125823649,-0.19902680578638496,1.4347167362127182,0.10814984760427843,0.7745441786901681,-0.030365614507260497
20.400262117999983,-0.3300308828808641,-1.2459833726541378,-0.21111759914205538,1.490191220020454,0.11905014835818833,0.8170509151161359,-0.04559785291025296
20.46080446299998,-0.31321555002864504,-1.2296572092959424,-0.1980595274958061,1.5137489491817604,0.10850574031622667,0.8341922982000751,-0.07386983236952341
20.52362894999998,-0.3137091530277505,-1.2002927346087089,-0.2004801220106981,1.5049480669320343,0.11808930406556545,0.8396020232691852,-0.0988420763517453
20.603575228999983,-0.32325244463100783,-1.2502304538376692,-0.2096525679195088,1.5463844899132793,0.13103653894338665,0.8829715979528012,-0.10943635515172444
20.664731739999983,-0.3166466507960791,-1.3099660873421155,-0.19957493592148284,1.6037790719631926,0.13261475599335362,0.9311216076558156,-0.12624469870377703
20.728004215999984,-0.3240222044336379,-1.4289141026588263,-0.19925506125378645,1.7397440416687007,0.13667300513554487,1.01561279404105,-0.13320493750130488
20.787781236999983,-0.3110169124692489,-1.4125660276858574,-0.19092655234303824,1.7178350800635225,0.14046202461452986,1.0363544898988768,-0.1782491065144979
20.86464881699998,-0.22388427770227132,-1.3174549830040225,-0.0935168457880134,1.5546094997370294,0.10027578914728698,0.9740093255087859,-0.24108080339865806
20.944658991999983,-0.143592437120083,-1.1530849447195552,-0.006338975042901025,1.2894500986622355,0.06445381690286985,0.8691906906172004,-0.3057372975938124
21.019346711999983,-0.07846096561464197,-1.070302611799604,0.09205914739539972,1.1234775989334453,0.027955027285257932,0.809515279884098,-0.36226410061269526
21.092712877999983,-0.012872552230180325,-0.9180312620388571,0.19737746210954565,0.9033824407326709,-0.015373577982387964,0.6744195911822621,-0.4336136590914143
21.165775774999982,0.07372084235033116,-0.7583322140519577,0.304927450698565,0.6518203611436305,-0.06829012850968189,0.5297310247201961,-0.5040428117983676
21.240485190999983,0.08671269690551517,-0.5340921362421212,0.3350752857947346,0.33823123118929577,-0.08073492930539936,0.366591527900052,-0.5208518832447804
21.31324934899998,0.0905884859168817,-0.261381273965108,0.30171385943973783,-0.004774203467720924,-0.07856004071876724,0.1997383098992507,-0.536227478611838
21.38746714499998,0.08466323635501505,-0.0897109502225839,0.264957046711212,-0.3248949602977964,-0.0630486389084218,0.05463454673201991,-0.5351028014494912
21.45103549799998,0.08947516189111736,-0.00555098483132443,0.24481584832279493,-0.5069752369616739,-0.0586045692622698,-0.03291247310789305,-0.48104239926302783
21.51871967099998,0.07019748573977018,0.09700695871205492,0.18875681335271693,-0.7029822757177,-0.034288325680480174,-0.13304740119095734,-0.4439433950454973
21.59206247099998,0.07275546936363883,0.192293478167242,0.16208906102207118,-0.8719290536635576,-0.028975592498728817,-0.23221591380571519,-0.4178392315020191
21.66985535399998,0.0672014114597067,0.28411787338878114,0.12942881614586435,-1.0183211532380565,-0.020182754258872487,-0.31409076021885296,-0.3819746686471848
21.74847006499998,0.0842480492216875,0.3523517710759776,0.14538173855116676,-1.1509652482701518,-0.03350589772457548,-0.41574050712964605,-0.32434742515936305
21.82751655299998,0.09918070698366459,0.39904241775178584,0.16220603747940832,-1.1996449338741695,-0.05060376824811205,-0.48813906824180375,-0.2584929433655161
21.891371008999982,0.10533035385947347,0.42497767193110103,0.15527797796572124,-1.248553287970167,-0.05013942889060526,-0.5229739779378249,-0.20653151940786396
21.95703410799998,0.08537267375664258,0.4699980458791872,0.11247011227672837,-1.298673416401258,-0.04239996517675585,-0.583124997484195,-0.14937928932373049
22.02518558199998,0.06286551994883664,0.5633165882844704,0.05404198845187573,-1.452380960264467,-0.028954317531495126,-0.669688195318894,-0.10480153647699984
22.08779430099998,0.07337418022440825,0.6224349775974917,0.062818716227472,-1.5296467419968867,-0.045173644251500784,-0.7462993994705405,-0.04670984274484264
22.15224003499998,0.07788704596760519,0.7189858840779896,0.05529727871595412,-1.6285420261129422,-0.056807478128397586,-0.8085748603738682,-0.04507781821238119
22.21701311699998,0.07670597643722415,0.7153807101767484,0.05081962876170252,-1.594175511899197,-0.053298634126924864,-0.777700128849688,-0.04194869721155419
22.27889227499998,0.0985084182304904,0.7264679052727696,0.06946808496693503,-1.6143293981451323,-0.05340764204799845,-0.7683690583176747,-0.03883183487162059
22.34148406599998,0.08740083124085483,0.7008545325864839,0.05943751959549018,-1.547046282561791,-0.04378971837405823,-0.7292205278003044,-0.028240454066281114
22.406356807999977,0.10367246016463205,0.7816104989320968,0.06313793455943237,-1.648245411677652,-0.05260647819033448,-0.7766515684144194,-0.03243108384259564
22.469517465999978,0.10912534957071142,0.8452191718895447,0.06433914600758762,-1.740091000800183,-0.054738415663928064,-0.8081138059062688,-0.03209531753144101
22.533057924999977,0.1308577369772978,0.9960739855897662,0.06167482838679013,-1.960976392680851,-0.06385856382864503,-0.9300961441432288,-0.03055093142187652
22.591175075999978,0.10914765913808301,1.0371267846528276,0.01953136625193777,-1.9858568834306334,-0.055595733183022175,-0.9459119608982103,-0.02181163658514636
22.650965448999976,0.12093215319614366,1.1249370725533208,0.03156343605700875,-2.1047487639371925,-0.06249515105184209,-1.0007279464799432,-0.02607745961400433
22.713893648999978,0.13801139132579623,1.1206658904772038,0.04710743047075829,-2.0406430857538065,-0.06348490577336319,-0.9676427847001864,-0.02810146920650591
22.775980707999977,0.14152075893297192,0.9443940497030804,0.0819296728195809,-1.744761132788084,-0.05833752609648162,-0.7687788905481393,-0.02962309178506191
22.838968273999978,0.14526857263228707,0.7635772395233201,0.12127939076673902,-1.4363824733613844,-0.056176587264888486,-0.5940305379342983,-0.030594316292083906
22.90215086699998,0.1979690845257047,0.5440303776496784,0.25299791608170913,-1.073781542831711,-0.06580442653800307,-0.3899649936360157,-0.05365048626479218
22.97455906599998,0.30265810840792756,0.4176609260376287,0.43813306412300496,-0.8501411676876882,-0.0939252565462241,-0.25270077711450634,-0.08578627616867986
23.04946803699998,0.3933218041000459,0.40059649268879244,0.5876965542961191,-0.7701430499958336,-0.12382655321369404,-0.20906438967078952,-0.11590940354133994
23.12706064799998,0.5678251960683285,0.3668159738208124,0.842347091846966,-0.7101572909068984,-0.16178321116035943,-0.13020851542704556,-0.14368775533383332
23.20363378099998,0.6424435356184138,0.45952104200355076,0.9244312811244237,-0.8109292221264919,-0.18378908119425733,-0.20450542113081396,-0.1617814184848011
23.272537465999978,0.777160198696271,0.479582069359844,1.1075241985221393,-0.8671236200728342,-0.20416234827424815,-0.23209832329526464,-0.16564748984329006
23.34342216999998,0.7647279173189107,0.5178753937036551,1.107894674085182,-0.9314750722147934,-0.2035484001545475,-0.2701608507234516,-0.161584439243485
23.41865872899998,0.7113989040438016,0.533687103493348,1.0318137856190652,-0.9525509109781697,-0.18830495978791204,-0.28212185925576044,-0.14783855717861485
23.498939508999978,0.7581501132190146,0.48659940785380584,1.0757772755158481,-0.9177351565850426,-0.18635647095096838,-0.19378059809767723,-0.13471807803255806
23.58223151599998,0.7519958007660863,0.6156487908669733,1.0493325494678962,-1.0965413149886765,-0.18614618852062312,-0.29956146608264705,-0.12667209182447817
23.64984416399998,0.8107335454541308,0.6669423891727548,1.1108195665811613,-1.1696357591051996,-0.19796292803946336,-0.30623836132016313,-0.13664595888209763
23.71822499599998,0.854676187742191,0.6312918587345967,1.1789689353209534,-1.1080539740444735,-0.1991719210743154,-0.26357297385136413,-0.127440253538984
23.78959464399998,0.8191508256916954,0.6177166567293311,1.146772758706748,-1.0996378102397666,-0.1798990557329255,-0.2616405888640866,-0.08764998578984261
23.86135768299998,0.9380263698281189,0.5989950072378429,1.292985255787711,-1.0196106036921304,-0.21438589639206115,-0.19986353105911173,-0.14290910486950026
23.94063281399998,0.88701838391947,0.5470978419861272,1.2453506835316863,-0.9342921574153873,-0.20084652461118782,-0.16369604072232044,-0.1311327352793527
24.01544451099998,0.7808527064133616,0.5210400036165304,1.0866092618289074,-0.8698687495195215,-0.18257917647144614,-0.16086708882320513,-0.12038397480029844
24.083278172999982,0.4780023009284155,0.3670798581222846,0.6555112166632151,-0.7107306361440133,-0.10620433231179367,-0.14423249421020515,-0.06275076246135153
24.15653681099998,0.20817828002142214,0.30378654687113316,0.32021068406681064,-0.6932475595509423,-0.05183558881460586,-0.18521818615973137,-0.018220584442477206
24.25131964099998,-0.08886843363477938,0.20672409673309755,0.012386385363758511,-0.6309086963177195,-0.0019312910208421443,-0.1971278784791269,0.009229184265797776
24.33919858399998,-0.40023875913814744,0.12093282291219343,-0.39138113008832687,-0.614604714093866,0.057246361403840165,-0.24732738953444197,0.051635945586757916
24.41351270199998,-0.6196678829299183,0.06267427890979077,-0.6471027390134193,-0.6102954855187378,0.09665098917232565,-0.2812262765565004,0.07921794879342063
24.48801326199998,-0.6688099893906799,0.049321292722689536,-0.7711639468275171,-0.6135488473440812,0.11295369934997734,-0.2987754840601658,0.09088958463995861
24.56430339299998,-0.7751770737435154,0.017162193637863317,-0.942823658900219,-0.6115325620207253,0.13686454232699016,-0.3199848556310212,0.11158529934168408
24.64159464299998,-0.8530473834613199,0.0006628200811572144,-1.0392569607880366,-0.6082181358451118,0.14833142099143073,-0.33034969039053924,0.10957691483972325
24.71993755799998,-0.9264039766097997,-0.032783930636469866,-1.097091373954481,-0.5873202524778228,0.1608223100317089,-0.32396380934121227,0.11853836489413669
24.79688047899998,-0.9281629936331618,-0.03709529231389972,-1.1035508056787382,-0.5813839554653065,0.1670674675083807,-0.3184624120634959,0.1256054970669045
24.87567114399998,-0.8237377864937213,-0.008769603935289234,-0.9576838606332204,-0.5519877439791926,0.14104263629953112,-0.2839770592032468,0.09555150593431612
24.93976449599998,-0.9670614587748145,-0.044600164537068644,-1.0637120274856204,-0.525694150713414,0.15419973413711127,-0.28841469224990873,0.09329709268962263
25.00000285799998,-0.8980915669775665,-0.03806710396453638,-0.9363754038110441,-0.49666610964988,0.1324533098391907,-0.2527256690221659,0.053717554914911626
25.06100821199998,-0.9229688723931647,-0.005197118042448567,-0.9174934234775658,-0.5153668560823195,0.11391486906842876,-0.26235276841053207,0.008339080609476064
25.121913429999978,-0.9283707527182794,0.009969051012107526,-0.8754406898314199,-0.5325405729613538,0.10256161605514674,-0.26386169981382956,0.013546451721679396
25.182168956999977,-0.8875163358590548,0.01865144685229295,-0.8067986282440422,-0.5209485831438617,0.05814560515536451,-0.24594935527130368,-0.0012600210738451232
25.241843696999975,-0.9448461568509858,-0.0029989853451912814,-0.8005412744318285,-0.49271117700751865,0.05280368645883803,-0.23286596856763403,0.012920757521916622
25.317575450999975,-0.9688451503134513,0.008633999280053341,-0.7413105664764875,-0.42413610641701976,-0.07587386737467762,-0.17977805104642636,-0.1862379479369864
25.395353313999976,-0.9164416803856483,0.06040821299416437,-0.6766337930301863,-0.40761104216954636,-0.20878354126872772,-0.17862983543782326,-0.3568073671883748
25.464759345999976,-0.7679320539764964,0.08703155789955176,-0.5598500465373325,-0.44569656256487056,-0.1669924413178745,-0.17388275695218716,-0.312036923452977
25.528753991999977,-0.5619577148473697,0.1508907518282451,-0.3950624375967652,-0.495900645823501,-0.14537341008944496,-0.17725588390917968,-0.34125119131955345
25.601392264999976,-0.3648236531641285,0.25143184103257454,-0.2402780484800251,-0.5737974471909643,-0.158494566110081,-0.19822639062267383,-0.43507941821555307
25.682279105999978,-0.22420393454237544,0.36384510963602024,-0.10288385159226072,-0.6610703576870255,-0.19780079698704056,-0.23101849059898572,-0.5394320674597455
25.75913500399998,-0.172847065097798,0.3716454787358014,-0.0285877932865442,-0.6582705369394178,-0.1941432300793006,-0.21825665641091316,-0.5495357249652219
25.82290052999998,-0.13434041938253463,0.36898261751612665,0.005207791972492885,-0.681906550015061,-0.15729334317079138,-0.22420029866815494,-0.4700460168043958
25.88899325899998,-0.1268173769487119,0.3582599528423853,-0.03288026652092226,-0.739100957743251,-0.09299073342516173,-0.27183314321208973,-0.2993531759569718
25.964169020999982,-0.08385599724953272,0.3671295997744167,-0.0018587797187758132,-0.7753221598796892,-0.0722929306697947,-0.2729049546846114,-0.22690544495824544
26.04865240599998,-0.0006713104725326419,0.41839988289974384,0.07173616337170231,-0.8564668433921808,-0.06399197000435602,-0.29697204786206355,-0.16572675417562818
26.119578117999982,0.10088889907158287,0.47486309128759596,0.19593553660529142,-0.9026655613156617,-0.07314828436820886,-0.30529944831091854,-0.131826644750863
26.18631648499998,0.2098056795911883,0.59000567933219,0.33552638244998184,-0.9931433310524895,-0.10733054757437394,-0.33903897678551725,-0.1601878565326943
26.257143015999983,0.34939115416811867,0.6145143142857583,0.5064262870737903,-0.9990174538735905,-0.13364085173225398,-0.3200035266303544,-0.16915253345846262
26.32274579599998,0.39603310348729287,0.5902688815119961,0.5650982206970703,-1.0120342584395263,-0.1173048013576445,-0.310487508144237,-0.11627238719845163
26.38880896199998,0.3919807761414216,0.6015550142836272,0.5970088019699424,-1.0040011805607116,-0.11842201061879583,-0.3019381149184639,-0.15170194735936438
26.45420288699998,0.42867233346497907,0.5483205604563763,0.5957960217952388,-0.9556907377643317,-0.10010697018117212,-0.2767094674510132,-0.06139063952656516
26.52218079299998,0.44003815316506345,0.5081407883693339,0.6139205501644355,-0.9159769424951527,-0.08167087401530611,-0.25242129913445266,-0.039209560509683467
26.59142040899998,0.4194798658772082,0.4484426792324428,0.606468877675081,-0.8538848467376731,-0.06279011611745128,-0.21792774683050614,-0.01649378831250339
26.66045021699998,0.45824966755468766,0.4115587547143128,0.6258954426860462,-0.8578366069985143,-0.021357288621511282,-0.21391248733566948,0.10910988908489178
26.72977208699998,0.3904784648963617,0.311786489706248,0.57590667500038,-0.8126791204311649,0.03821412825613704,-0.1882138969254545,0.23382147057855424
26.80574798199998,0.5133903436914405,0.22315154236703882,0.6721579188905734,-0.7933736229030686,0.08012789126402545,-0.15750408082518266,0.42089315908049924
26.892751927999978,0.517983674806642,0.1611484883015507,0.7045758360958319,-0.7657740022406541,0.09917896772242878,-0.13182460138091634,0.4775129253040202
26.977047676999977,0.5790565637566661,0.16274891652143422,0.7564558250914137,-0.7530281924948671,0.07849438929423953,-0.11296511915751861,0.4674504270816455
27.04632877899998,0.5951087222273038,-0.001110955545504728,0.8426922481077086,-0.5571077907471914,0.08078912004751435,0.055272059624291096,0.4904354186422089
27.12886452299998,0.6448850202184351,-0.15215734108182832,0.9673546388033483,-0.31791201130601004,0.05121416795150821,0.2222469469930316,0.4297475680156789
27.21507763499998,0.6476623694320753,-0.29966399441521485,1.0669827394028668,-0.05287520362022545,0.0110692137552403,0.373589414197267,0.3280665774488597
27.28305577899998,0.68946906417509,-0.3891807069673213,1.1533572915808732,0.10391167669363363,-0.0071500659345691215,0.4123917153789179,0.3058649519128007
27.34944200199998,0.6942998604610453,-0.4041186389587544,1.1890385136447092,0.2164374236348533,-0.05774381173032772,0.4331876705030866,0.18943994427185568
27.414852854999978,0.6322496302709626,-0.47699026993623883,1.1364540825756788,0.31801627959999185,-0.04518576713880271,0.4670614443844566,0.21617529639413952
27.49076723799998,0.6096409540057907,-0.5456705638849542,1.18947498524376,0.48900659835028953,-0.09184363851659687,0.5538247012097313,0.09622470842736473
27.57665228599998,0.529940677405655,-0.6098265731576427,1.1316852797080048,0.593079978309669,-0.08120650117169732,0.5736084976877462,0.12014376739192445
27.66786598899998,0.5931368813138932,-0.5954303806378498,1.296852596057351,0.6735905432346123,-0.16555168248825172,0.6255174395399551,-0.06542267095017129
27.741049048999983,0.6398251204703093,-0.6534326495782389,1.4159327748853505,0.8000029338531794,-0.21110147580629332,0.6961521304902689,-0.15018876161562902
27.826878782999984,0.6981611197403824,-0.7320654231288285,1.5474423695380335,0.9352025716905643,-0.24083648055304616,0.778709888324599,-0.1764675687249783
27.901661392999983,0.6686268300952599,-0.8109038941780691,1.5605113534163397,1.0780889884885938,-0.24851418770228073,0.8428716499455856,-0.18709021544719637
27.974927422999983,0.6293860431858792,-0.8632151695946289,1.5326196249879884,1.166967821390265,-0.24529419583181514,0.8770802160743167,-0.18561147519773374
28.050670859999983,0.6886998491458751,-0.8982571366129101,1.6432056707574914,1.1574307920817744,-0.26058857052353784,0.8860026634050753,-0.19410925797287618
28.124054429999983,0.5857413502409892,-1.1149961035681768,1.55017520202446,1.3105102264734905,-0.20681270140020597,0.9681340694521192,-0.13598436658482632
28.209337708999982,0.5551430769982632,-1.1688423176311944,1.4970481926167913,1.2648432919185935,-0.174685510699921,0.9381906811456571,-0.09425501312103814
28.275851484999983,0.5255261112351407,-1.1824988881483258,1.3717582476756074,1.2071229422157361,-0.1368581835703662,0.9006376277956638,-0.045151642860427776
28.362970348999983,0.5368262030562354,-1.2596372220163414,1.4001874041624334,1.1612267118227204,-0.1126220207947083,0.9037832836812517,-0.009791631626675163
28.435140129999983,0.5753958758447308,-1.337018418283729,1.4348965976612695,1.1398755741877558,-0.09903061013009706,0.9356891752531551,0.016329046284336225
28.506969925999982,0.5195965314218598,-1.372817189997673,1.309763014711559,1.1067223417248275,-0.041139110384344285,0.9322743561681484,0.07955997802117379
28.57688140599998,0.46997253855251037,-1.289100286610936,1.1772374017279008,0.9532762115115393,-0.007207308295815344,0.7761200636324459,0.12455915203129247
28.65242504799998,0.4477071010432191,-1.17480409552642,1.0343055337527838,0.811534973395843,0.012728207675121719,0.6998786031955764,0.14040258183161436
28.72520160399998,0.4760939403979669,-1.0598375664952715,1.002439274003979,0.6876833255174712,0.023282183009938864,0.6835537351585408,0.1093557103761392
28.801619526999982,0.47071631065151304,-0.9604529168232767,0.9478115231112964,0.6239967706788184,0.021543772052673556,0.6812300926879182,0.11851208035094803
28.882678028999983,0.41202358961892177,-0.8481589526806609,0.8046631447764023,0.5492399951348508,0.03991035983576476,0.6734988270867136,0.12475515230316074
28.958488460999984,0.3061244754206002,-0.7974578505379996,0.7079057618789488,0.5364733624308368,0.053522525433765414,0.6418888791362477,0.17015278771176273
29.024414058999984,0.20700051137291778,-0.718627353500163,0.6249944840867508,0.46968325477668094,0.06742889153527415,0.6023659841893657,0.2169027346964552
29.085334535999984,0.22733546693289206,-0.6973726430777871,0.6430477717821195,0.4492923090260475,0.048379858612317306,0.6063450457424543,0.2023944883889013
29.146871801999982,0.20891949520242245,-0.659984423141588,0.5799910485465212,0.38146721800331873,0.08111383410367146,0.5384711464630626,0.258268996697802
29.225492235999983,0.32060988551600217,-0.6531141379664275,0.6624803853170796,0.3765934148379839,0.02283450926150868,0.5492632778512243,0.23724802417289914
29.30228733699998,0.40620102206409214,-0.6974948912857108,0.7535965513206542,0.46067209993048086,-0.004826853475420931,0.6160303481191275,0.1722970620143431
29.379895683999983,0.4352127857782234,-0.6111237788495691,0.7757172595773083,0.3906701059286394,-0.024462787416476225,0.5878770243791467,0.18818576466096923
29.460674758999982,0.4045543848311517,-0.6064910085476336,0.7443772634107121,0.34382975695093393,-0.016347768829334763,0.49940178785820294,0.22467900912746253
29.542300220999984,0.41511957036528807,-0.6071539392111892,0.7510701115016036,0.36647827667471067,-0.03183089236274313,0.5053676715922051,0.20989286088761439
29.625581737999983,0.48075915254468227,-0.5984190599510172,0.8134703524391524,0.3878810052096298,-0.06327579690742777,0.574475871099508,0.14239052797758311
29.694317098999985,0.44617607685685495,-0.6246077347160495,0.7497591270719508,0.4288288553042522,-0.049801280580840934,0.5965744968495026,0.1280232413976891
29.764136787999984,0.4341044998749635,-0.6932864075347556,0.7580062437814445,0.44789862141326997,-0.032913761380667865,0.5526064473847373,0.17046611147165713
29.839714046999983,0.5084207214679887,-0.6567724120963508,0.8282452283189553,0.44496720953477126,-0.07347037002424604,0.6012759519898773,0.11233550664387564
29.911113258999983,0.44272766532396807,-0.7189680804923707,0.7541183552551379,0.45424685057772657,-0.03372132107136866,0.5402805483917956,0.1504091730909447
29.980761524999984,0.3990320002005506,-0.6741522894590994,0.6873989672384974,0.37682233296026585,-0.022330616039105453,0.44764159879383253,0.16867356105278644
30.046868558999986,0.457736924329524,-0.5998166686282524,0.739212180539799,0.35376546899444317,-0.06622560627704496,0.49663159946303154,0.11221786980102406
30.113770242999987,0.41141292105678523,-0.606467038691512,0.6805056211847763,0.35921943017791075,-0.0494414439461458,0.42976715940235194,0.12670559766218148
30.182665582999988,0.35063548196196087,-0.6671207590212465,0.5819966585920269,0.4494316418005945,-0.0171425088744173,0.4430051982541098,0.12145562730738764
30.255536790999987,0.3432923566836394,-0.5997326483713017,0.5708883590828147,0.39318368564687467,-0.03110472666970733,0.40179428062467054,0.13027843834661218
30.326704975999988,0.3799730315608092,-0.5379741815157131,0.584640451475522,0.3970200895287253,-0.0630734339525587,0.4722168220439184,0.05288357562311889
30.396505829999988,0.3388001673754073,-0.49641379666428637,0.5086561496435356,0.4023289037065912,-0.05828392290533281,0.4932276130795003,0.03171451271276676
30.46566772199999,0.3572149918484852,-0.49892421793433556,0.5123177122264225,0.46335441325920484,-0.06826453023228285,0.5937269684679006,-0.03546630008315108
30.53409194699999,0.3436894121234603,-0.5746764736722825,0.5110545982542483,0.4818959335676159,-0.04156699498830274,0.5624440430607498,-0.01567982410405143
30.61779021999999,0.3220486931667833,-0.5881816167376765,0.49361823023139717,0.4400563619757386,-0.02202569278590993,0.5264109629632291,-0.005343853429652143
30.69964360899999,0.3762297785204024,-0.6224178749612154,0.5227567957530107,0.49378766950251424,-0.03531983118912297,0.6083467201627316,-0.09360852493016897
30.762579676999987,0.29818098145659117,-0.6310695629045752,0.44843866244189134,0.4864750904896531,-0.008355415609904866,0.5238277067980296,-0.006648685356039232
30.835613247999987,0.24849787567890375,-0.6004776814421604,0.38206980720023603,0.46518978657397847,0.0022095214579175067,0.48664506524391427,0.012733929690308498
30.914441582999988,0.1296189039645471,-0.5245546701047379,0.25738753786227464,0.34134305580025387,0.038142330000091734,0.3699185171385363,0.08451517151671663
30.99152564799999,0.022779155583414257,-0.47099680707504404,0.12268369850892813,0.20322600161489,0.0796696468722809,0.24656468841707904,0.12601231431426818
31.06587505099999,-0.007170319721565631,-0.5249785124874302,0.046904710926308206,0.2872711473270537,0.08951201511036745,0.25206693347055,0.08351152456758686
31.14252328599999,0.04318696382320456,-0.6181471433147456,0.09794283304953309,0.4527684591537194,0.07648109857864949,0.38173775285478334,0.0623423073666082
31.21702336999999,0.005571267806636321,-0.6115633397948589,0.05153792512634918,0.4413260288442961,0.08849885989288817,0.37709629933714417,0.0668522953036388
31.29142093399999,0.005492221437270697,-0.7568489745346288,0.014316819318726982,0.7471891744093014,0.0932059685128667,0.48502556005700137,0.04311099731747458
31.36867451399999,-0.0037729271757270997,-0.9005426265504,0.004150997850686252,0.9875585790697524,0.11640482958592374,0.6196503207869158,0.0439619441319987
31.44341659299999,-0.022540321039422228,-1.0357651408244046,-0.014557277648274958,1.1304501746308773,0.1328910228627914,0.7041669883734731,0.05952045881598286
31.518172261999993,-0.057789787770938156,-1.0959470536930433,-0.08585594532619387,1.2089129252600692,0.1668265683667638,0.798905645601014,0.08963592820498678
31.589356181999992,-0.14825083167466943,-1.188810131083406,-0.19276471845739274,1.350517684362205,0.2133445903474255,0.8796061465892983,0.12248278693776762
31.655610320999994,-0.1317233033530097,-1.210168863874393,-0.1875461804774432,1.3754207312011446,0.22669577539492936,0.9857642654255506,0.14136907728094067
31.736666200999995,-0.22638311644202155,-1.180919394980839,-0.25990848003416034,1.3089628059361098,0.27145696714184264,1.01769997513054,0.17270941407414495
31.810099361999995,-0.3084773064531906,-1.1570014314854575,-0.36699638315164634,1.2457518286382865,0.3248275714335328,1.0636776634800054,0.20751471824769277
31.872496841999997,-0.506767141375275,-1.147259488885101,-0.5736006867544061,1.1854185581624332,0.41867097783496177,1.073611597978702,0.2706050765930303
31.937119958999997,-0.5556588857448204,-1.1848206938482007,-0.6231433159618591,1.2246246512038323,0.44659260571642106,1.1259228273587387,0.279766342665077
32.005412576999994,-0.6506288292999202,-1.1486439539273479,-0.6637623583636999,1.153100266506586,0.4863223098218938,1.1561797331158876,0.29594649035064896
32.075309037,-0.7571691249945739,-1.1790631265588762,-0.7259699266255982,1.1885061925205498,0.5301765747882676,1.2098145002851557,0.3017843513877937
32.14471983799999,-0.712108885076989,-1.2346548650169962,-0.6783311915589785,1.2762109504061272,0.5166411415503313,1.2945451754245623,0.2701276776708597
32.210202931999994,-0.7160061346815554,-1.2817728503736197,-0.6539185398873009,1.3526612402496778,0.5165031891264946,1.3592827349514616,0.2497986095754595
32.28292083699999,-0.6826543808533166,-1.2631318928161168,-0.6515806210308304,1.332695124751647,0.5194242875884343,1.4094975911720824,0.22090013249811316
32.362212418999995,-0.7420407070458207,-1.228555211272498,-0.690431139398334,1.2635031832225827,0.5562161830826592,1.4603820078537642,0.21836635622765355
32.430916069999995,-0.7437338458085241,-1.1976334727781106,-0.710056458911858,1.2067227800612097,0.5690130695905228,1.4781964846871045,0.20032402804579746
32.51074456999999,-0.814941113650858,-1.1704452338102367,-0.7872085030186882,1.1464630095094979,0.6138466329973602,1.5077727462489094,0.19109663868965748
32.589442012999996,-0.8709579489485191,-1.1287976816833771,-0.8791366201536706,1.0593720529404267,0.6571370965027912,1.5090268384105707,0.18923101368363224
32.66119909099999,-0.905160442981154,-1.0371259454223263,-0.8920145391974349,0.9039781772326645,0.6750618428276759,1.4820396393947137,0.14931264972077116
32.73389839899999,-1.0122698845884202,-1.0245453687215518,-0.9699365755528928,0.8655981863103758,0.7161906269737479,1.472611319613619,0.1399993775085725
32.80596542099999,-1.0348683683269764,-1.0005839989541585,-1.0363583931908997,0.8148689967662828,0.7287360534569056,1.4623483704753277,-0.00048456227301045855
32.87288450899999,-0.9139616519868607,-0.9426504790868481,-0.9346694633504391,0.7440411236322947,0.6449248853245012,1.3914175267524291,-0.2552610079940744
32.94595002899999,-1.047192100922616,-0.916568353973286,-1.0267209113127083,0.6739097421084485,0.6952938785413195,1.3185369148420731,-0.28432172165023
33.021232363999985,-1.0456294286568724,-0.9366772156528512,-1.0792857537227478,0.6726419653437649,0.6985625507371889,1.2804531499414213,-0.3232785403376515
33.09882449899999,-1.0160588752656052,-0.9688753616230589,-1.0522325743900183,0.7019515902715069,0.6800009364117066,1.27027614021742,-0.30689013280167454
33.17301606999999,-1.0957345344109433,-1.0043891994000842,-1.0707742373541895,0.7275187660255041,0.7052207624189902,1.2780426192905163,-0.25410808158841924
33.26440691799999,-1.0603349242212587,-1.0910009251041821,-1.0768282744804891,0.8181463756168548,0.6919073245906752,1.3338895623423168,-0.2299768613207433
33.34405183599999,-0.9148100670757253,-1.2484344069011835,-0.9908001143884936,0.9968412984576884,0.6223743081420967,1.4451925354691906,-0.22009349541464482
33.42292189399999,-0.8757421119333888,-1.2618742102882137,-0.8949370906781001,1.0141694837153707,0.5824148096734708,1.5065802556641072,-0.24358020229753152
33.50756144299999,-0.8512824373446848,-1.092238681161244,-0.8530004975307073,0.8097912979983113,0.56054022581812,1.4099569668733907,-0.31326280167177023
33.583749530999995,-0.7837058629173762,-0.981855630596807,-0.7672944376479061,0.6657192105772529,0.505291057644196,1.3094854674039749,-0.36906046704325085
33.65562248,-0.6946341570982842,-0.9986677066766969,-0.6707568328238607,0.6697148040770651,0.44204630927912625,1.3010955287737183,-0.41276158164302695
33.733577011,-0.6067843515823969,-1.0786972330201443,-0.6040834131796419,0.7564380320080909,0.3993191370437037,1.3710478020721693,-0.3807766539918179
33.806165932,-0.4843950371451875,-1.0626756916361375,-0.44338584870030767,0.7602134336462286,0.29700020967364504,1.3613277235756294,-0.4657569751806839
33.882782934,-0.42327647619869313,-0.9853222803698256,-0.35953326103414623,0.7155927337823648,0.241511489783358,1.2971689288467703,-0.5780572191898533
33.959151504,-0.4637729794923485,-0.9132780751907931,-0.39318485667085623,0.6624074930960889,0.25409980395736814,1.2471167247140686,-0.5519646172275172
34.030867574,-0.473967183692414,-0.9977123673804233,-0.40567893617754863,0.7996841227310788,0.2578728297316304,1.346304121252901,-0.4689523767535376
34.101820705,-0.47212850456507616,-0.9102852807794988,-0.4002287518461496,0.7632921074762327,0.23925619652585844,1.3115481825124664,-0.47064579880195656
34.16710615,-0.466337804625669,-0.9750074158614921,-0.3894170298576344,0.8674284583801027,0.23010363115866958,1.3763716902838352,-0.43479856988307575
34.235681532,-0.4635970678270108,-0.9322516352729601,-0.37908492949887906,0.861380375986177,0.212549566269286,1.3674907125226785,-0.4213542675087516
34.305077313,-0.4458374367735475,-0.9902030656571945,-0.361038536317659,0.9427544986729068,0.20423825396201908,1.420487075350418,-0.4079646698548433
34.370290755,-0.44683976832315586,-0.9612632877454332,-0.3562087137347622,0.9291956697876634,0.19448326519155454,1.3828749650119798,-0.399062602822509
34.435220478,-0.44993589679461216,-0.8917615034058897,-0.35502209614432584,0.8772298565361699,0.18897304293036174,1.3757294434898175,-0.42270332169750874
34.501779076999995,-0.4442414014402604,-0.9369467722409491,-0.3386326898491318,0.9365573091039422,0.1721948431879767,1.3925209299225407,-0.40601048690961644
34.565574166999994,-0.46580836831425076,-0.7879359297040275,-0.3568915894630547,0.7785205911084091,0.17043285817746012,1.285366477557409,-0.44600097845842857
34.63663959299999,-0.4495909605005388,-0.9392655923534856,-0.33479285008718357,0.9468069703242781,0.16311416009724786,1.3504818732714807,-0.40538402519509636
34.71235465799999,-0.4678766086794737,-0.8702879486075582,-0.3452774694653985,0.8542969242596355,0.16555640817311604,1.308444991465337,-0.43275384199936273
34.78558301799999,-0.4711753047506695,-0.8737520435254034,-0.3428723993365298,0.85842614514993,0.1571114083672957,1.283066021949757,-0.42989110277578524
34.85997247599999,-0.48272584575864236,-0.8074217307611279,-0.3471111181277939,0.7868718996253785,0.153892396562152,1.2334635664911664,-0.4520451691150999
34.92745637799999,-0.5015880295953482,-0.6873829061240203,-0.36609923110912407,0.7014536076762351,0.15609196796498365,1.156123734954195,-0.492004732617803
34.997306106999986,-0.4955387840699669,-0.7133912170536764,-0.35106199695943746,0.7428377625325745,0.14639791197844798,1.1093945441436623,-0.5010751909134087
35.07722759099999,-0.5091647262647948,-0.6443993062164494,-0.36082875981123336,0.6486057332282789,0.14816181993705163,1.0322251279655894,-0.5313391141710325
35.15079641199999,-0.4959796406210812,-0.6444093459149471,-0.33630955067678014,0.6002333394372554,0.1348204600372335,0.9492384360136564,-0.5465204852663489
35.22992086199999,-0.45880665963887474,-0.6894542053950904,-0.2902003541394431,0.6262365893015459,0.11506519048574941,0.9333086497697977,-0.5528356417193887
35.309302566999996,-0.49461920908399626,-0.7331675418879399,-0.31594099579638363,0.6609136698526731,0.13729499039634882,0.9270732286986534,-0.5231416933144758
35.37439298499999,-0.48822385044656574,-0.7856256168331087,-0.32956673933097197,0.6838584485093628,0.13681947232105782,0.9224404983084303,-0.5199620507938408
35.44368362299999,-0.5080530826049859,-0.8288452204411537,-0.34403757135679647,0.7239021496436068,0.14804118957160076,0.9406133738272917,-0.49889475546139384
35.51967048499999,-0.5123524889948738,-0.8180189726940978,-0.3475683730206091,0.7123341453955379,0.1479141448059162,0.9247382690640581,-0.5045516597724152
35.59469938099999,-0.5131329194285936,-0.8673085010522059,-0.3464198735753366,0.7841165015614188,0.150359918088762,0.9524867402412514,-0.4926338441581502
35.66758584799999,-0.5198696237314993,-0.8335612666896612,-0.35571370811554387,0.7429174654890749,0.15351485045721622,0.9221089432661232,-0.5060328386357701
35.73179173299999,-0.5215843587415873,-0.8241278269309089,-0.3560827219739452,0.7321020721562462,0.15454722465215015,0.9064950768077985,-0.508282143365822
35.80418586599999,-0.5183697806183272,-0.8377480395830398,-0.3508488332837332,0.7477213789954725,0.15288224144557508,0.9101464519007698,-0.5036823335395486
35.88047885699999,-0.5119663071963328,-0.8348095926566328,-0.347379251227676,0.7438766063949266,0.14995610921691968,0.9032749206517104,-0.5123362611545219
35.95426273099999,-0.5128650750922122,-0.8491292243228558,-0.3458193770317052,0.7603946870285427,0.1508521802896296,0.9049116757268161,-0.5016023044837499
36.03077530699999,-0.5121754928850623,-0.8463177673290869,-0.345410444404485,0.7572758422502962,0.15055025287317558,0.8994347711655152,-0.5052593356949223
36.107324121999994,-0.5136186604926574,-0.8474447864094483,-0.3473845905812527,0.7593894118437442,0.15227633487554865,0.8932580288828484,-0.5040339118164504
36.17160129399999,-0.5149694333478932,-0.8701481683601485,-0.35004803026964976,0.7851322896509638,0.1550593077170709,0.9084860442693474,-0.49037684041813834
36.23322248299999,-0.5138867257840867,-0.8671275998547099,-0.3486226852967752,0.7800034735592046,0.1544155044339091,0.9042294907249337,-0.49426477491884147
36.29972171699999,-0.5087332775954146,-0.8805414355125349,-0.34177072686758336,0.7983559201395616,0.15112898042830725,0.9113599239146303,-0.48913291745350634
36.37579369399999,-0.5090640052550607,-0.8817350597027827,-0.34172653168284267,0.7991023920655693,0.15185175617878902,0.9152221174274349,-0.49037637448186233
36.438135383999985,-0.5127515258025916,-0.8790867732697561,-0.34436050990038447,0.79575973822557,0.15341197692688188,0.9114920501084759,-0.48979141353614997
36.51399445299999,-0.5086570804531432,-0.8784365910324381,-0.34063408759041885,0.7958376995817881,0.15086486131899393,0.9109167432361182,-0.4927665351929728
36.599233148999986,-0.5082456816212099,-0.8839058069965706,-0.34227815979632203,0.8019977815253325,0.15281467429557044,0.914322546167433,-0.48745623590738274
36.678835867999986,-0.5088811275265132,-0.8825485407858528,-0.34153304807246626,0.7991408821252358,0.1522504777196413,0.9157939040108264,-0.4895667851537071
36.75283169699998,-0.5087970991207099,-0.8821346486215527,-0.342408883118396,0.7997868503221878,0.15207527854081446,0.9129593944723249,-0.4897138265667706
36.82677817299999,-0.5132091189631174,-0.8832124013641492,-0.35297325659622353,0.799951540291339,0.1563551675779218,0.9147037593280317,-0.4853170127464593
36.90301108299999,-0.51279934862694,-0.8827971631248033,-0.3450300222415953,0.8002531198980986,0.1534687548839527,0.9143777244581281,-0.4876182300010986
36.98089718699999,-0.4517843565880835,-0.8821002925218371,-0.2720367098693517,0.7953967192673523,0.11828088487574862,0.9040005473801228,-0.5104750798579325
37.061530588999986,-0.1341653759009022,-0.9086522842893404,0.052824136105415795,0.8001290072819561,-0.05341005093148275,0.8605669604517197,-0.599450670166583
37.141907213999986,0.1459179361974884,-0.9264223440674376,0.4077999061351637,0.7817211347683266,-0.21298613552812817,0.8147801090101832,-0.6892496775240534
37.216982362999985,0.25236158332503245,-0.9466267731756671,0.5786605661416374,0.7917889198110734,-0.27389812123588425,0.8069101353651318,-0.7173303089934948
37.288401839999985,0.14215848931035868,-0.9254509622246646,0.493929871551574,0.8024956266637755,-0.21061272105253062,0.8208517644152873,-0.686345953140907
37.35146546099998,0.019191511228145556,-0.9114174131743019,0.3782052105791595,0.8151965429743339,-0.13476421720569626,0.8437901459301513,-0.6409960309338771
37.416160818999984,-0.11584937927543332,-0.8936986704547893,0.24584512980853665,0.8276588864723359,-0.06093505825367722,0.8605799658990646,-0.6052706069231901
37.490681645999985,-0.19993470111988942,-0.8861923250438761,0.12052809400121137,0.839713590047704,-0.0015521150164933854,0.8789970828151027,-0.5706890736823974
37.57060193799998,-0.30441572315255155,-0.8684310245117459,-0.06729752891094433,0.8359168050902337,0.07568793706464727,0.8958346316209049,-0.527492262823127
37.64717745599998,-0.3696690852894076,-0.8657241591905498,-0.17536033838016998,0.8411074245352724,0.1292425736289868,0.911212180445,-0.49962733141553073
37.72440051899998,-0.3739840935562531,-0.8634082973033574,-0.17593614623287993,0.8366260138181698,0.1227191347520142,0.9097656213106061,-0.5013586266017924
37.798471925999976,-0.36055567151631934,-0.8635551695795683,-0.1688655937951098,0.8372012435992884,0.11770267501698518,0.9055230670220072,-0.5013856774123319
37.87153815999998,-0.36446274647425403,-0.8618213806539438,-0.17163577102645278,0.8345938184731493,0.11867445964137056,0.9054286106714248,-0.5051874709389282
37.96148919899998,-0.3650932027672884,-0.8588492134653246,-0.17151567168925938,0.8317235554182358,0.11843553243793595,0.9026499794952749,-0.5040004223749187
38.03975915799998,-0.3611239350445565,-0.8637063475871333,-0.16826708093558884,0.8369165423403704,0.11593060887435953,0.9025860006237391,-0.5021020488151156
38.12700271499998,-0.364135503100627,-0.8644308247306083,-0.1729457142658942,0.837601019412909,0.11978569313396757,0.9054608271760962,-0.5018455888295295
38.21220850799998,-0.36314884371068434,-0.8567207477572263,-0.1680959569782974,0.8303969735141495,0.11588713670983461,0.8991954044503463,-0.5077677104055083
38.29452800599998,-0.36319735281185966,-0.8618855316177657,-0.16943991873809805,0.8350359060242191,0.11837733267859483,0.9035378067948595,-0.5052310516044971
38.378574131999976,-0.36437003920668787,-0.8562119119174297,-0.170360579286045,0.828137608936623,0.11892035167204958,0.8993065542683625,-0.5069498780898981
38.463675259999974,-0.36196691921590374,-0.8534918225053706,-0.16885204262706863,0.8253028701627767,0.1168106694311329,0.889952934991363,-0.5064759162644837
38.536074399999976,-0.36795497129152976,-0.8434202305056283,-0.1750108903901728,0.8101027325115545,0.11996256350272216,0.8836347444795077,-0.5118795518274918
38.615289925999974,-0.36580897839132753,-0.8449352163247864,-0.17227554107556745,0.8118054464886845,0.12040804530764705,0.8850648748796139,-0.5124134537785244
38.69557046799997,-0.36335855096878994,-0.8622507685518073,-0.17114918175261873,0.8334567737935495,0.11911359890079046,0.8958824155705997,-0.5016938973561957
38.78604435799997,-0.36554979910193913,-0.8478578657052828,-0.173971249530479,0.8169017292186983,0.11971740358106064,0.8838434669478625,-0.5101987165364669
38.87797426999997,-0.3683148902044521,-0.8595230681845404,-0.17506426109684659,0.8294409047589975,0.12180938740626757,0.891099487689241,-0.5001968171220446
38.96546983599997,-0.3644312149835255,-0.8518518558014208,-0.173011809211444,0.8202956045165861,0.1182866874078498,0.8843862184088831,-0.509265256606387
39.05331373099997,-0.36409715060821196,-0.8618968941307914,-0.17086277959305052,0.8343279123376239,0.11842032093920568,0.890911924302533,-0.5008953413581625
39.123424767999964,-0.3618332693166706,-0.8653044563960085,-0.16887184149356202,0.8367785504107322,0.11721636316942202,0.8905332680509852,-0.5023791278726488
39.20619130099996,-0.3598431780276336,-0.8670575759483581,-0.1673945923239202,0.8395764781886104,0.11675659957640168,0.8902779724691232,-0.5014577149057479
39.27969813299996,-0.3638206911325412,-0.8662765344200144,-0.1725136221654899,0.8373175429869041,0.12021874737466653,0.8929104723110525,-0.5002196966893063
39.352863310999965,-0.3591924640119464,-0.864375730595706,-0.16824962539768432,0.8362542539298811,0.11764252029241735,0.8905022759537374,-0.500779184463828
39.42604780099997,-0.36505000383425107,-0.8642092746882659,-0.17222464057510475,0.8358398261704761,0.11986727261427955,0.8901486052345753,-0.5026559002448642
