hisham246/franka_example_controllers/results/tau_nom.csv
Joint 1,Joint 2,Joint 3,Joint 4,Joint 5,Joint 6,Joint 7
0.0,0.0,0.0,0.0,0.0,0.0,0.0
0.009679471877090375,-0.2823453107018448,-0.0004326601887039965,0.25989380281960556,0.011309272988985881,0.24317167692144384,-0.00027470016657629714
0.059614751514251225,-0.14210639140970527,0.05325042892906491,0.17373439634034044,0.02316690457787432,0.16719100329397196,0.020184482744108403
-0.10258996197073164,-0.20049853162981576,-0.12871885514657244,0.15637231667995993,-0.018945391073703702,0.18408478053977703,0.00636463032173358
0.03290455333481897,-0.1406920302294077,0.053952374500549946,0.142171299503469,0.00245336107783806,0.17139079639111773,-0.0065395626552989805
0.03290455333428059,-0.14069203023166832,0.05395237449973347,0.14217129950558752,0.0024533610784722402,0.17139079639165006,-0.006539562655610065
0.10559186211418115,-0.27928312259926635,0.10261760129087208,0.27944637076900325,0.02704874038482162,0.23928187947071158,-0.0008226764162395086
-0.05317529879306239,-0.2266310080420115,-0.04063931378747781,0.1914233650261846,-0.02643148466340101,0.21364341942257345,-0.022272197327961204
0.06496324948243423,-0.22243885480293657,0.06333877560261753,0.24685862915986445,0.019400782431760397,0.20940153553219698,0.0044706353700997604
0.10559186211680861,-0.2792831226001909,0.10261760129081149,0.2794463707721995,0.02704874038578271,0.23928187946847845,-0.0008226764185595061
0.10559186211750873,-0.27928312260128757,0.10261760129097347,0.2794463707741164,0.027048740385497157,0.23928187946797833,-0.0008226764197668043
-0.049111686492518125,-0.1956453200223508,-0.02667185301007491,0.17231239609094096,-0.03212976181338605,0.18880861878993793,-0.023186545856947852
0.05961475151620591,-0.14210639141564632,0.0532504289208873,0.17373439635220303,0.023166904589991835,0.16719100329436834,0.02018448275000533
0.009679471870598456,-0.2823453107082413,-0.00043266021463808646,0.259893802828583,0.011309272994292833,0.243171676923536,-0.00027470016994864815
0.045862086928449716,-0.1838296987718746,0.047200291473073225,0.24677627585895098,0.01853186351967335,0.20748332077699738,0.010207526338947885
-0.10258996197651911,-0.2004985316187032,-0.1287188551669511,0.15637231666407536,-0.018945391064337166,0.1840847805462707,0.006364630324132596
0.0649632494854585,-0.22243885480419484,0.06333877559334183,0.24685862916432003,0.019400782442986587,0.20940153552949167,0.0044706353755900215
0.05961475151781957,-0.14210639141911574,0.053250428917482794,0.17373439635837432,0.02316690459604221,0.1671910032947929,0.020184482752635236
0.0329045533270069,-0.14069203024008195,0.05395237449173707,0.1421712995160692,0.002453361080831353,0.17139079639157587,-0.006539562660288566
0.06496324948571969,-0.22243885480531878,0.06333877558935969,0.24685862916686965,0.019400782446406768,0.20940153552931567,0.004470635377384735
0.009679471867062268,-0.2823453107116153,-0.0004326602287975812,0.2598938028336102,0.011309272997490426,0.24317167692459266,-0.0002747001717016643
0.03290455332719103,-0.14069203024236052,0.05395237449230314,0.1421712995184788,0.002453361080769184,0.17139079639168073,-0.006539562662285933
0.10559186212754915,-0.27928312261024596,0.10261760129240757,0.27944637079288503,0.02704874038667146,0.23928187946341112,-0.0008226764309909023
-0.03590293522418063,-0.08764855871881445,-0.009576233631969973,0.0712531468929891,-0.02989193950523158,0.1408504296416865,-0.01697006553992459
-0.04911168650466914,-0.19564532000666054,-0.02667185303868616,0.17231239606718615,-0.032129761802852534,0.18880861878302724,-0.023186545849820876
-0.03590293522688699,-0.0876485587164597,-0.009576233635523672,0.07125314688926129,-0.029891939503768537,0.14085042964038208,-0.01697006553862728
0.03290455332497235,-0.14069203024483928,0.05395237449030737,0.14217129952137716,0.0024533610807876936,0.17139079639127916,-0.006539562664544307
0.05961475152008777,-0.14210639142642112,0.05325042891087215,0.17373439637054502,0.023166904606881786,0.16719100329689648,0.020184482758242507
0.03290455332450528,-0.14069203024618795,0.053952374489886316,0.14217129952303148,0.0024533610809759077,0.1713907963918417,-0.006539562665145573
-0.11692237721396904,-0.19473827726196147,-0.1544487838107197,0.14769622342958075,-0.015459109622752092,0.1812984489981555,0.018536788944439737
-0.11692237721483278,-0.19473827726137596,-0.15444878381305105,0.14769622342854585,-0.015459109622248689,0.1812984489991574,0.018536788944434213
-0.11692237721595455,-0.19473827726158963,-0.1544487838153607,0.1476962234279173,-0.015459109621770044,0.18129844900017275,0.01853678894468057
0.032904553321401235,-0.14069203024723698,0.053952374486225994,0.14217129952487784,0.00245336108192816,0.17139079639086377,-0.006539562665922715
0.10559186213593141,-0.2792831226174695,0.10261760129394773,0.2794463708068275,0.02704874038824228,0.23928187946036655,-0.0008226764386005713
0.009679471862043595,-0.2823453107197443,-0.0004326602506036989,0.25989380284353525,0.011309273002050034,0.24317167692778802,-0.00027470017513520073
-0.03590293523473162,-0.08764855871038356,-0.009576233646979876,0.0712531468784519,-0.029891939497299444,0.1408504296373246,-0.016970065534190764
0.04586208695218989,-0.18382969878963853,0.04720029148003563,0.2467762758852577,0.018531863547500263,0.20748332078231796,0.010207526352042876
0.032904553321287694,-0.14069203025051727,0.05395237448675213,0.1421712995285818,0.0024533610816461077,0.17139079639147933,-0.006539562668657968
-0.04911168651314293,-0.19564531999179238,-0.02667185306201178,0.17231239604451998,-0.03212976179187826,0.1888086187766712,-0.02318654584225307
-0.04911168651446708,-0.19564531999196014,-0.026671853064503065,0.1723123960442716,-0.032129761790896445,0.18880861877696892,-0.023186545841263194
0.10559186214136443,-0.279283122621455,0.10261760129592207,0.2794463708148731,0.027048740389197242,0.2392818794581437,-0.0008226764431775785
0.06496324949000004,-0.22243885480913034,0.06333877556538155,0.2468586291794604,0.01940078247227603,0.209401535523682,0.004470635391894524
0.03464487272501038,-0.2784782098206783,0.009548891363642203,0.31788310565663713,0.020930690118193828,0.2537276915734579,0.009707643813008315
0.0329045533187072,-0.1406920302517667,0.053952374484247494,0.1421712995303049,0.0024533610820790253,0.17139079639022417,-0.006539562670560696
0.009679471859133617,-0.2823453107239941,-0.0004326602630430002,0.25989380284920904,0.011309273003216155,0.24317167692963834,-0.0002747001792138201
-0.10258996198748034,-0.20049853160108222,-0.12871885520281248,0.1563723166378146,-0.018945391051568224,0.18408478056102837,0.006364630322965952
0.03290455331852645,-0.1406920302536346,0.05395237448430208,0.1421712995327427,0.0024533610818451915,0.1713907963907875,-0.006539562671903157
0.04586208696040478,-0.1838296987942155,0.047200291480985035,0.24677627589341294,0.018531863559307887,0.207483320783034,0.010207526358931351
0.10559186214653099,-0.27928312262553284,0.10261760129798983,0.27944637082322626,0.027048740388425755,0.23928187945572715,-0.0008226764497453153
-0.0359029352454986,-0.08764855870240343,-0.009576233662848883,0.07125314686468096,-0.029891939488428294,0.14085042963384406,-0.016970065526671275
0.009679471857692273,-0.28234531072609736,-0.00043266026939889693,0.2598938028523084,0.011309273004380447,0.24317167693059608,-0.0002747001805377524
-0.10258996198892009,-0.20049853160202596,-0.12871885520838075,0.15637231663720827,-0.018945391048935376,0.1840847805655196,0.006364630323761043
-0.0359029352469627,-0.0876485586999221,-0.009576233665213,0.07125314686158786,-0.029891939486766314,0.14085042963255348,-0.016970065525423458
-0.11692237722412058,-0.19473827725545478,-0.15444878383843666,0.14769622341533706,-0.015459109622299926,0.18129844901378284,0.018536788934754966
-0.035902935248188696,-0.0876485587004503,-0.00957623366714868,0.07125314686094175,-0.02989193948577991,0.1408504296327909,-0.01697006552473797
-0.11692237722509757,-0.19473827725818382,-0.1544487838404695,0.14769622341766414,-0.015459109622527056,0.18129844901682443,0.018536788933843744
-0.10258996199042181,-0.20049853159958184,-0.12871885521215307,0.15637231663420573,-0.018945391047975595,0.18408478056643726,0.006364630323522055
0.0596147515217039,-0.14210639143687281,0.053250428889593505,0.1737343963905935,0.023166904635332556,0.16719100329713174,0.020184482776827956
0.03464487273742836,-0.27847820982548604,0.009548891369023704,0.3178831056650821,0.02093069011585818,0.2537276915746662,0.009707643799598166
0.05961475152219768,-0.14210639143879533,0.05325042888856157,0.1737343963931525,0.02316690463729194,0.1671910032981736,0.020184482778416855
0.009679471856305272,-0.2823453107285677,-0.0004326602771692334,0.2598938028560254,0.011309273005452123,0.24317167693135985,-0.00027470018305459677
0.03464487273956933,-0.2784782098240722,0.009548891370177032,0.31788310566476086,0.020930690114785263,0.2537276915728839,0.009707643796264747
0.045862086968934235,-0.1838296988006955,0.04720029147998622,0.24677627590322027,0.018531863575183577,0.20748332078461662,0.010207526369949843
-0.04911168652644758,-0.19564531997449197,-0.02667185309362885,0.17231239601818604,-0.032129761779400814,0.18880861876940874,-0.023186545833401857
-0.049111686527820594,-0.19564531997279389,-0.02667185309603659,0.17231239601616352,-0.03212976177838031,0.18880861876831864,-0.023186545832209533
0.10559186215388619,-0.27928312263078797,0.10261760130014974,0.27944637083475427,0.027048740388435927,0.2392818794516453,-0.0008226764584809013
-0.04911168652805978,-0.1956453199704789,-0.026671853097137432,0.17231239601331091,-0.03212976177782824,0.1888086187670972,-0.023186545832089973
0.0329045533134446,-0.14069203025884688,0.05395237448118239,0.1421712995394124,0.002453361080127614,0.17139079638997218,-0.006539562680090177
-0.10258996199195251,-0.20049853159618708,-0.12871885521866921,0.15637231662857345,-0.018945391045727393,0.1840847805703605,0.006364630322142728
-0.10258996199180953,-0.20049853159470704,-0.12871885521908918,0.15637231662722803,-0.01894539104558883,0.184084780569881,0.006364630321699812
0.032904553313432006,-0.14069203026208751,0.0539523744813122,0.1421712995430517,0.0024533610800497214,0.17139079639160051,-0.006539562681213362
0.03290455331341743,-0.14069203026025717,0.053952374481923214,0.14217129954105265,0.0024533610790966956,0.17139079638982815,-0.006539562682422378
0.04586208697295119,-0.18382969880276195,0.047200291478529555,0.2467762759068646,0.01853186358358365,0.20748332078442944,0.010207526376133001
-0.1169223772298495,-0.19473827725536472,-0.15444878385231023,0.14769622341111596,-0.015459109625204394,0.18129844902546818,0.01853678892478415
0.059614751521993394,-0.14210639144186976,0.0532504288793924,0.17373439640019428,0.023166904648648755,0.1671910032978805,0.02018448278678141
-0.05317529883178183,-0.22663100798277303,-0.040639313882557655,0.19142336494675907,-0.026431484638429682,0.21364341939909073,-0.0222721973264497
-0.03590293525964079,-0.08764855869170002,-0.009576233685036795,0.07125314684659169,-0.029891939474812033,0.14085042962895758,-0.016970065514949034
-0.10258996199306236,-0.2004985315934951,-0.1287188552234375,0.15637231662453788,-0.018945391043818684,0.18408478057266636,0.006364630321513398
0.03290455331284524,-0.14069203026297694,0.053952374481978246,0.1421712995442512,0.0024533610784562045,0.17139079639068158,-0.006539562685018846
-0.0491116865326984,-0.19564531996722145,-0.026671853109842852,0.17231239600603132,-0.03212976177182789,0.18880861876683463,-0.023186545827536542
0.03464487275339806,-0.2784782098281831,0.009548891378599489,0.31788310567157885,0.020930690110582018,0.2537276915739286,0.009707643780692875
0.032904553312645114,-0.1406920302650059,0.05395237448203468,0.14217129954627597,0.0024533610785111536,0.1713907963912683,-0.006539562685911798
0.1055918621611269,-0.2792831226354786,0.10261760130389083,0.27944637084460533,0.02704874038688983,0.23928187944853133,-0.00082267646796078
0.03290455331208279,-0.14069203026579888,0.05395237448154406,0.1421712995475116,0.002453361078190587,0.17139079639185675,-0.006539562686577096
0.06496324948944107,-0.222438854809535,0.06333877552465364,0.24685862918974819,0.019400782513129187,0.2094015355145695,0.004470635423279062
0.10562150036302631,-0.27821933508860164,0.10261155182946402,0.2784893145879741,0.027146400169101005,0.2380760399707724,-0.000780168994568467
-0.11674897151656954,-0.19244747736864598,-0.1544507958151492,0.14687406762071606,-0.014908460461134636,0.17697340970003786,0.01870985498340914
-0.05299315507007051,-0.22875763822013157,-0.04073258545011799,0.1978128830555334,-0.025589943426757356,0.20977731722914422,-0.022085441717218834
0.10566928670503192,-0.28680741897943846,0.10237556525213964,0.2937892468590835,0.02797449234556261,0.23727487033267522,-0.0007750371533551594
-0.04914326953218752,-0.2069677620855562,-0.027125971047326253,0.19221572368807052,-0.031134475093925626,0.1881661110054437,-0.022983487065468936
0.059460466012948784,-0.15581576381410064,0.0526641479933099,0.19730601611148335,0.024129609264210487,0.16749073425133576,0.02010335117437571
0.03460048589133713,-0.29300879811891883,0.009070369574105341,0.3430718176515099,0.021810624840701728,0.25458461714617275,0.009482136633714397
0.06473728958444316,-0.23673746520971642,0.06257312876639114,0.27202989607489975,0.02036128557805488,0.21050876258983672,0.004242555099776897
0.10548777135133569,-0.29240496184276193,0.10199578646684623,0.3033847127677454,0.02800613080501617,0.24044667922846327,-0.0013085819853641848
0.059153485137457745,-0.15206152441210974,0.052266907328541,0.19410052624556223,0.02396710473830028,0.16690611822968912,0.019849425493570032
0.034780853555535785,-0.2854678021287481,0.009162796546075713,0.33593758361351417,0.021829959174269237,0.2513306185581051,0.009224555652205231
0.06492869050209782,-0.22757835401798174,0.06245681332290458,0.26552919383301316,0.021155515165357273,0.20308086923208893,0.004218474808679193
0.03259636235152529,-0.15266093275204826,0.052314965146949284,0.17308924868759631,0.005044319455605037,0.1659672364923257,-0.006004870333713788
0.10600156761018238,-0.2942584251150232,0.10181254014921129,0.32036311215770114,0.030259198824719783,0.23050018448234272,-0.0018017244226395356
0.06488065773195603,-0.24762891616153396,0.061503287686757585,0.30882412332179293,0.023570316028698492,0.20000590647677552,0.003806810753255497
-0.03691023470939695,-0.12543135502606026,-0.013124853569606708,0.15795410403010512,-0.02518117027097432,0.1314340771512249,-0.015531243026935513
-0.11748432650308932,-0.24088987597171105,-0.1576686686828929,0.25223344222177857,-0.011673184853656732,0.17351425891938643,0.021147034515630117
-0.05329718038346702,-0.2787877880439056,-0.04419582703749085,0.3111962148962166,-0.020914354606076026,0.20772862856573646,-0.020572714679395532
0.0449024890608702,-0.23554852526438802,0.04330880752999551,0.37513117059407725,0.02474445817956096,0.20151384620562549,0.00826920238742511
-0.038960162883792865,-0.14088992080530624,-0.016589484776002014,0.2077097448424078,-0.024303881940377667,0.13663820531762536,-0.01479503180352499
0.06362941679120387,-0.2638554479482081,0.05810652373047315,0.38193612445168396,0.027083698786641356,0.199787186370462,0.0013820075905007327
0.10677741202417042,-0.3135851324989232,0.09977276881948755,0.41780983987151316,0.03677532216633675,0.22749315319909724,-0.00670774858506489
-0.04109337352067255,-0.12234184268220813,-0.019429990179669003,0.21820963654514217,-0.024652916078370633,0.1366635398815295,-0.013947268938232634
-0.10565335045685853,-0.217539402645424,-0.13728602199655185,0.2947111487350536,-0.016504690765844227,0.17826956018799467,0.013091162647747796
-0.05530044888162099,-0.21599268682739522,-0.048162883599930685,0.3097570362869884,-0.022717334058733496,0.2094666875453465,-0.01844640683314288
-0.12280430041464341,-0.14541470113279065,-0.16429216998086899,0.23017014112233758,-0.02014765529014384,0.17000427250986797,0.026776018346706808
-0.045901814478038636,-0.0037832736851279095,-0.022667276173572802,0.12200226275332415,-0.03057474196762531,0.12777384926316404,-0.012179019154419324
0.02548887899385185,-0.026430702684161485,0.04050124038541751,0.16699637591061273,0.012232119048327703,0.15090328606073597,-0.0028704635316767237
0.11097253601617471,-0.12552864900187513,0.10500852137707473,0.27283133121143344,0.0397135740204934,0.20231033672620663,-0.016063114911800208
-0.055954576685632584,-0.060719527922147305,-0.04720089532745251,0.18089938978056302,-0.027703488383267284,0.18270499102694163,-0.015048948586996845
0.044167516662786926,0.002828048040218096,0.04542260941192339,0.21980914639884827,0.022986781225859843,0.16888939252990728,-0.0004862035617426508
0.11411763902956767,-0.07800005036314221,0.10878012407483958,0.24182826661575718,0.043183209018822555,0.194501972601462,-0.020118314139612112
0.11512609091642417,-0.06792103109853406,0.11001007719513925,0.23300443328037665,0.044181895828295535,0.1941778539983946,-0.021592322844492452
0.018457383508857977,0.01587410761169309,0.019368249208672084,0.13789346983204778,0.019253927416637336,0.15876471066054948,0.0013936697779882955
0.04578017056175117,0.011425509127322833,0.02573798869969548,0.16586883896166676,0.02743801325243217,0.1525860888594195,0.005672812179429274
-0.11441183989185683,0.047703805097085626,-0.1378245657042067,0.05742809827325404,-0.040679387705260486,0.12689446020118064,0.024636674427582918
0.053674744393217566,-0.01829452534049858,0.038068086075383645,0.1924956444568922,0.02271537210456575,0.18338699410679124,-0.014605561889000224
0.06515657571085824,0.016631761596626937,0.06278799262103923,0.1445571137733376,0.02390871035270751,0.159278484416875,-0.021132933552668817
0.016714612347796497,-0.04502845871574195,-0.0020956554188835477,0.11727284770730478,0.026186473553864494,0.17229777502040963,0.003527017831254864
0.04997106535167975,-0.0054332378370965315,0.032491301931787515,0.08820664208031104,0.02785792315060917,0.12487270922630811,0.0006677424429751221
0.016258754427947823,-0.01187207363633119,0.02056093094389798,0.056350729494948446,0.01960045637323896,0.13034223257449215,0.006494310253339384
0.09796616832422908,-0.027445768466461344,0.11136495518336453,0.08590262410547043,0.04846954572236098,0.12239981393906701,-0.01363998994337603
0.011296880873852909,-0.038426904365169434,0.017187907394235893,0.07332668931084933,0.014861027067590347,0.12735400682735437,0.00962510885410547
-0.07551773339729846,-0.0343561498211995,-0.046641888543704796,0.05547966132134094,-0.051509029810401966,0.10795205548959506,0.007221109724449268
-0.09017894437365265,-0.022844373702210236,-0.10795110379466208,0.02925512745637114,-0.05106281148409997,0.09099783776041953,0.022678588819743727
-0.09109083545034236,-0.012711907404604924,-0.11722591598285412,0.02097558434545031,-0.052984815630492565,0.0833197589761237,0.026777183301371545
0.07067385844421212,-0.008626440825176333,0.07275583073116765,0.08612111194563735,0.033233681689411876,0.08378792336232427,-0.02309914256951772
0.006714706448008041,-0.011049859410211069,0.01646604708753532,0.07379133348533841,0.02048409845849087,0.10863999125111372,0.006646440899717158
0.056606979316838335,-0.053090086068680965,0.040998527544203356,0.1815906704923661,0.04207298083657385,0.14419742948562053,-0.01327678999034134
-0.068467551468241,0.11558910259008147,-0.034678350721389514,-0.04288749810296094,-0.05926600596226192,0.05325623215671002,-0.0008229064502473533
-0.07408818632096098,0.019098670456874092,-0.05219068965800964,0.03921476612708115,-0.05297774093945745,0.10132416277699405,-0.0014820439765629127
0.06130737512876136,0.10380929971061532,0.06059126799129838,0.016588919458011345,0.029042221580583436,0.04843328488416019,-0.02050587191740806
0.054971777044170334,-0.003146709856988658,0.04125517260635381,0.1536216803416926,0.04181800709885132,0.1347378847016322,-0.015482349077653203
0.06171949706267926,0.11688750259177769,0.05998215290428926,0.001942478870713596,0.029929671474651864,0.0459752295907658,-0.022768802918286063
-0.10107687334762147,0.08723992123077054,-0.11685650288443274,-0.038070827575953196,-0.07107744377867624,0.05532602330476344,0.030528795238020094
0.011889179125108118,0.06645058624189402,0.020671731200966024,0.0064654911824190975,0.022000996869371764,0.08070915356123246,0.004588233695859981
0.11096276975834232,-0.08301439573685451,0.07736517065031216,0.1225995371344536,0.08864876985352364,0.1271966504313851,-0.02876801759190567
-0.07367964506434443,0.07598112121269443,-0.031074649437076413,-0.04939983323421786,-0.07331804074327197,0.03929372824399596,0.0143266970125175
-0.07892843714286381,0.08595265736623003,-0.03323767188365291,-0.0726815908986593,-0.08481786230674336,0.02413310187071329,0.015306005463578385
-0.07799719185268715,0.0716165677510867,-0.03144629933913194,-0.07186087927867728,-0.08551957908796601,0.02116818253815425,0.015620771438215747
0.07699795889097441,-0.1003592482153784,0.035542165037226126,0.1272675150689649,0.06653476372972131,0.10802866588599133,-0.027495980662065996
-0.08853526598785885,-0.09173316044251933,-0.10628017526336893,0.020652258357034,-0.06703525088343926,0.06561349876801517,0.029564679521093484
0.016028503659719393,-0.061703719162428054,0.01213038170325986,0.016550377576859662,0.02609486456311411,0.05719798596730983,0.004063749365455189
-0.0665098804340235,-0.030021979808006458,-0.03338181385481559,-0.034012598970432364,-0.07376608417155518,0.019406496812486282,0.016718139425018014
0.07560560699604404,-0.19526531237243716,0.03493472981928457,0.16689396422518027,0.0714763636640877,0.1118172342141928,-0.02658262735844922
0.0198303775571372,0.004777775939370982,0.025781635273152304,-0.04732002464632304,0.023171276445453973,0.006627690704433406,0.0006011010421589913
-0.06330717144204948,-0.054582089441773285,-0.023568520541669524,-0.04579877062709479,-0.07589882283588752,0.014822497119073822,0.010192839247382629
-0.07841945419696134,-0.10139120787747863,-0.09151465995369128,-0.004277927814820615,-0.06706604408292914,0.023631397998454033,0.02881306565693445
0.04753674147437516,-0.07166378787320074,0.03640719636692284,0.06085202899704924,0.03483795593985495,0.04658191571835661,-0.019975830873634526
-0.06413928544202141,0.033375173089339,-0.01616072327587867,-0.08648458495915722,-0.08293736274189079,-0.02732558801698768,0.021588301293228987
-0.061805290431675874,-0.019911759638060147,-0.03523547029850127,-0.06178299636568162,-0.06728924443732193,-0.0063204507895627815,0.016301653194263598
0.029186877406183587,-0.08937236153416109,0.012336952418579253,0.027175360935282347,0.04613653152722915,0.03213749691867884,-0.0005353252023239871
0.04484380995773468,0.01951843109989339,0.026044969146120527,0.00404533775887321,0.038533006802588116,0.010658931201042422,-0.021245738293257505
-0.060587276847188926,0.005401758622546965,-0.036188946249312196,-0.07727480690527899,-0.06856540359268509,-0.019665629120630083,0.017229695666641974
0.021403598896969887,-0.028297034285908202,0.017383794846124453,-0.0202836769262532,0.03009349111189003,0.003567450634545291,0.0005969979156501028
-0.06177349343135961,0.02507205305572907,-0.034304769735081175,-0.0893889936981305,-0.07186621125082761,-0.030396788675126137,0.01887981308045055
0.02181259163410181,-0.02812591382768417,0.02032473120221209,-0.018006667814664562,0.028508944746165662,0.001030061273551916,-0.001849214733945944
0.02264803659589292,-0.0174538544053734,0.021122427701741466,-0.022783365894874272,0.029420256093368014,-0.0022244028821646125,-0.0028273263664590174
0.036917894803953105,-0.02933469979522358,0.015454895382901963,0.0455246033618916,0.038935948421078975,0.030873969526905715,-0.017936539350269214
-0.06200566095694407,0.05727495747835121,-0.03383063576718455,-0.10625694980900423,-0.07381404630407738,-0.04588464676636678,0.021612103691793814
0.02512468754763029,-0.01656907104070332,0.023379801393906285,-0.019800298919677994,0.031831822576507324,-0.004840988179747756,-0.00530044108102834
0.026467476300700496,-0.026271163793844466,0.024580045447056685,-0.015270603558367485,0.03312612567626346,-0.006709081953902518,-0.006417594237565341
-0.060869057661662326,0.037312258111786484,-0.03238354905842473,-0.10014340982950928,-0.07471345055888001,-0.0563513331864777,0.023735241757563322
0.029259304046183102,-0.05018968532518551,0.0270658937709114,-0.007880195549565067,0.03578868318132918,-0.012588232244600983,-0.008511253120635366
0.030709249667783257,-0.061524593160382564,0.02835950883624976,-0.004659995390377869,0.03709313472143436,-0.01468742937165922,-0.00960226682498083
0.031715500406800747,-0.06947570660489621,0.029251562122365193,-0.0022904501474826228,0.03800845087927756,-0.016156209204201008,-0.010345040048216255
0.02849857469326309,-0.09630229608272442,0.007579529511220734,0.06577936565717271,0.035094010950078275,0.021116403047364674,-0.015511425038279
-0.05813247191006233,0.0013531191862988096,-0.029515756787707972,-0.09613110831945111,-0.07535705320280316,-0.07396709696939839,0.02623917846865739
-0.05747680129762863,-0.0022018821761270596,-0.028886733100437226,-0.09784798104564116,-0.07542734744462631,-0.07894905787765409,0.026749385466867975
0.03600248460877819,-0.09122572427148344,0.032973754881437785,0.0006733572052494974,0.04216186677171856,-0.025385079544025885,-0.013612323872559843
0.02413726505868414,-0.10830098217691157,0.004279431569101905,0.06009989425321623,0.032114972113203605,0.011240630037037763,-0.013404126127240838
-0.05580154774972248,0.009349805093589278,-0.02739373523915898,-0.11067487579490831,-0.07578617206107337,-0.09181687131732398,0.028023007528349013
-0.05536054445813251,0.016943538253592738,-0.027045434669196504,-0.11460525835333957,-0.07592226065368679,-0.09379332892234941,0.028304419426189765
0.039147305473449495,-0.06462306400999325,0.03544552057020392,-0.01478176876877095,0.04595987385588268,-0.034412624906100794,-0.01700609550634541
-0.05456392985206315,0.04544850820079888,-0.026527105897285505,-0.12930218260672827,-0.07617344605463923,-0.10195347463704432,0.029045308946234253
-0.05417525860160067,0.062365737254807804,-0.02633437274399232,-0.13673535717475538,-0.07628157327682922,-0.10518888087986142,0.029386092566519265
0.016322271104300207,-0.04991111447567438,-0.001717306991804269,0.02948776452441154,0.026743570411661532,0.001770296757820658,-0.010334390021072993
-0.05357099165924574,0.07552999272651047,-0.02603243470760152,-0.14013440322648835,-0.0762683630545305,-0.10727202468585753,0.029731338822838682
-0.05317194622480216,0.07892365744617838,-0.025828277399393834,-0.14034718124120105,-0.07616417152917859,-0.10873426021151839,0.0299192393623715
0.01272721437072575,-0.04400055645803795,-0.004396521402910976,0.029315354065614335,0.024418705649450798,0.00027440811567074064,-0.008914817466529466
-0.052164171130034624,0.07875979677694615,-0.025269711455636966,-0.13885708204505637,-0.07579915951857805,-0.11241476391455413,0.03027074965697323
-0.05156961044459763,0.07615561578289637,-0.024911230255057128,-0.13770776520910835,-0.0755655030833553,-0.11446076209604433,0.030415381406539665
0.009780892929098277,-0.05345446831337247,-0.006414527560094644,0.032313838945701584,0.022350630106589747,-0.002736676240391492,-0.007498725985214276
0.04286494420432775,-0.037469781879838196,0.03744740389822772,-0.01777066289588474,0.05388201233777393,-0.042613843548224485,-0.024178745578289855
-0.049416262820340985,0.07261389137061375,-0.02352771453051508,-0.13926405824300708,-0.07479842262097994,-0.12228856738117229,0.030760197170793136
-0.04849903548218489,0.07069777374053021,-0.02290835095267245,-0.13904708928711856,-0.07445388023449848,-0.12448846188244084,0.03081707452133183
0.04406747661973557,-0.046064129127041026,0.03823872272705168,-0.014276018406125884,0.0560950300927866,-0.0449689135430017,-0.02608560984983219
0.005193045772433756,-0.06306276659052329,-0.009114983595429714,0.029577385902005426,0.018415698918663848,-0.01017345711130492,-0.004796873904981135
-0.04629745601955927,0.06702409036158495,-0.021415806191109728,-0.13900413144501583,-0.07357470930484705,-0.12956407472797846,0.030855440422432347
0.04500607834334494,-0.05217330857275184,0.03886758424557531,-0.012111238375838385,0.05786911110928399,-0.04737054650561701,-0.02759423117734448
0.03186659137541373,-0.03383453063783908,0.023803082616077,-0.03297203870160027,0.04964593949817253,-0.059721409735943566,-0.020279903030515894
-0.014379873361004873,0.08563213771461059,0.006110945692638212,-0.15180155342740262,-0.05990787898678649,-0.13805900400444948,0.01253593913368483
-0.019710690617349612,0.06984199008989088,0.003520491644240554,-0.13702065655213522,-0.06236192954327115,-0.13196482411300353,0.016385316396423873
-0.010700619711514057,-0.05828851812425988,-0.023973841878385034,0.01642964144623013,0.01014714991940096,-0.021681808123153984,0.007681471978937586
-0.01124716600474667,-0.05506057985909979,-0.024157697865934025,0.013972360000355899,0.009477647586683603,-0.022988425067816343,0.008066508964246192
0.034117471776440894,-0.05278314283675112,0.029404788539041115,-0.014509230165583538,0.05419642028854148,-0.05337559525648556,-0.025170789166970055
-0.016438080964678158,0.04596346053414721,0.005654840822430309,-0.11822329880228344,-0.06033589214745965,-0.12811016089152863,0.016099698033090547
-0.02878694460400924,-0.09691079014186708,-0.04150828856147626,0.037925450892626,0.0065549066490223976,-0.018871596029471804,0.008941693671171973
-0.02437126877558391,-0.10739355743376756,-0.036527534825897705,0.04094188095652741,0.006959867821946221,-0.020486476371527007,0.009279879238189778
-0.022639751213030884,-0.11167807633969944,-0.03450471516936318,0.04002115804297533,0.006095347237947246,-0.022676758534077968,0.010474656598997253
0.03395131557650706,-0.1053733685219484,0.028909901491582075,0.0077174336193115145,0.0556904914848369,-0.055620642583027353,-0.02614205905218836
-0.01355122627609958,0.024002831554160844,0.007513053571727376,-0.11793638923011485,-0.05861926220077196,-0.13803753249106382,0.01561070082460319
-0.012385936114333973,0.030527010304515073,0.008554234105620437,-0.12277004351131861,-0.05834585290706338,-0.13948269356936474,0.015475009809218156
-0.011090627006266819,0.042233109907394956,0.009687425396092852,-0.12973112842298293,-0.058062313790344974,-0.14097559530827428,0.015296321110864604
0.05679910664626012,-0.07002327142835596,0.05185686434526486,-0.014727521835700304,0.0619435955440136,-0.059960570623724244,-0.02709822504891988
0.03408723047026507,-0.05731521445654807,0.02886721888039448,-0.02065351280116939,0.055529662693987195,-0.060484025111149704,-0.02662537106961374
-0.01479076602152283,-0.050556176963418284,-0.025210471453717544,0.0006647446415045666,0.004528079005300285,-0.031118601042090577,0.011708384197687247
-0.010861560256257743,0.09429154217116206,0.009407967162871754,-0.15332079143412158,-0.05775418260514548,-0.14370562885452431,0.01473145488826346
-0.010620428801930301,0.10537837399728009,0.009561945985057965,-0.15756287375918096,-0.05766414713853627,-0.14397840187441924,0.014624629400063066
0.03438682531974955,-0.013441093140785022,0.02911678141794944,-0.037683418178791006,0.05542782412753832,-0.06087228966002651,-0.02685742115994492
0.034006953957710716,-0.0011489716530002714,0.0287154334723229,-0.04181144788074974,0.05535223940822787,-0.06082901403436858,-0.026922631445858946
-0.010863555119603019,0.13752010212561402,0.009056762997136033,-0.16856781335847212,-0.05745744869301301,-0.14452957818721893,0.014305900639359263
0.032748744640188704,0.017993808513301575,0.027422335182985553,-0.04734451391534591,0.05520179864616801,-0.06065340912220379,-0.02704570358741292
-0.018236300720513954,0.017584831746725316,-0.027948919876991066,-0.023979799761978365,0.002297378805471109,-0.03201278992626433,0.012829637017638257
0.03175379425226943,0.025344689603734163,0.02641240255595784,-0.0487592521031971,0.05513376772859686,-0.06053694013517641,-0.02712008349946566
0.03126300191776674,0.0275187944094329,0.0259162767333796,-0.04887925473909679,0.05511506291726423,-0.06048936405140273,-0.02715593743647015
-0.012928938202952649,0.15929332695073756,0.006681033973272247,-0.1729774082751744,-0.05721143396018332,-0.14497122671973112,0.013952604187129555
0.030305812599278194,0.02924202528892507,0.02495096687658959,-0.04799903223485703,0.05512009017206505,-0.06042021504539289,-0.02723424496705295
0.030051324209338724,0.028991541697208207,0.024694436558598012,-0.047409984158519415,0.05513841713026583,-0.060409891015607134,-0.027260796748869744
-0.02136677915199287,0.024032332046160232,-0.030722453023853322,-0.023360891831677832,0.0013812156613561416,-0.03230083541888418,0.013335464852494715
0.02964334323534148,0.027027389265415803,0.02428149613556741,-0.0455487049070737,0.05522234724439499,-0.06041555557167082,-0.02732727307689615
-0.021857666406786498,0.02164053216225051,-0.031099115129471704,-0.021683608623508654,0.0011980301568336321,-0.03247310842552556,0.013488945496537485
-0.021980262061175662,0.019850838468546544,-0.031152715442961606,-0.02065150429785781,0.0011082815615862038,-0.03259935013865317,0.013581862257380267
-0.021991600290320597,0.018397956788255287,-0.03110606020977591,-0.01988020802968185,0.0010400172402671645,-0.03271786131645149,0.013660603794484336
-0.012917133683311516,0.15264383270921406,0.00635210956305517,-0.16694712123129052,-0.05646133004174933,-0.14575772739968434,0.013638449295828865
-0.012731517090791483,0.15209906312613786,0.006507328847439119,-0.16661681893905875,-0.05638425231432438,-0.1458396622126125,0.013614056206807664
-0.02185126741380896,0.016400628164038256,-0.0308524157004141,-0.018908903970272173,0.0009066295585481166,-0.03297760762148172,0.013816661912272881
-0.012337555541494846,0.1514941551810905,0.00683878310170475,-0.16621051858105745,-0.05623359792923812,-0.14601051565957934,0.013564794408713342
0.030312041305256224,0.020116848245059604,0.02491752914759282,-0.041042732715591224,0.05567605985124163,-0.06068315959314641,-0.027549976076193652
0.030405114439315227,0.020269850563210574,0.025006698167438435,-0.0410573400399197,0.05570690293547571,-0.06071794182890149,-0.027570826995962763
-0.021685208508677924,0.01661440361790109,-0.030555491780071154,-0.019062451247536916,0.0007107340721082545,-0.03330730355532621,0.013998613346028027
0.030518751095223888,0.020884562704794055,0.025114297789129443,-0.04124583257503828,0.055747034790496246,-0.06077590415433851,-0.02760498517577628
-0.02169943280541366,0.017599557519224873,-0.030513986171361505,-0.019532384431414335,0.0006053165731445889,-0.03345115147545115,0.014075244416547013
-0.01147674905515671,0.1539497663838094,0.007520373169252061,-0.16700889999673196,-0.05588865721904769,-0.14652394797317078,0.013425354343520157
-0.02178415418576696,0.018952820250948466,-0.030542754952715166,-0.02015399698666931,0.00048763574337262056,-0.03359582522231032,0.014151009266037417
-0.021843627726968996,0.019625661582446913,-0.030576932392381198,-0.020457119799305007,0.0004316693937348459,-0.0336613731617592,0.014184836858479002
-0.021923362754501366,0.020391320013358832,-0.03062808414722211,-0.02079859910334808,0.00036727230646226017,-0.03373575528317707,0.01422276480562501
0.030507524617103217,0.024698961988172403,0.02508923375258189,-0.04261911113475321,0.05580262209423463,-0.06097165339105547,-0.027714715730844844
-0.022096323211343572,0.021740189269026655,-0.030747038054633715,-0.021394214402730483,0.00024508625298903797,-0.033878231462824565,0.014293773440032354
-0.02217652484545213,0.02226076004131841,-0.030803066996075833,-0.021623674008483,0.00019130705042297302,-0.0339433362148613,0.014325400354521478
-0.011269422209399763,0.15835419899762862,0.007577975634913133,-0.16861874171993496,-0.05567329016095341,-0.1470034601189627,0.013307566125575359
-0.011248274279227286,0.15871569846293243,0.00758091077291469,-0.16873785327389035,-0.05564519529914871,-0.14706511086222115,0.013293494243848097
0.03034072796672232,0.026888909151853154,0.024916566144322853,-0.04334296307956076,0.055826983571072956,-0.06113137814876869,-0.027791987798213
-0.01120433646080644,0.1591583286451146,0.007596057328432236,-0.16887619223950362,-0.05559861933184755,-0.14716327794729359,0.01327148878948841
0.030309451629197355,0.027255460059088462,0.024883172525690975,-0.04344076181967244,0.05584181639047412,-0.06119114604577665,-0.027817774155095475
0.03030126196666653,0.02737466550762265,0.02487391714738014,-0.04346876626764715,0.0558498202248421,-0.06121979441548841,-0.027829689493959156
-0.02252659258312166,0.023849219013681172,-0.031022752726261333,-0.02238050852510115,-7.708685122011921e-05,-0.03431720958969056,0.014497087911278758
-0.01108103157570578,0.15968476016900537,0.007663471367184659,-0.16902895658003786,-0.05550253534978773,-0.14735479081977315,0.013229421044322245
-0.011056754800964404,0.1597530006269049,0.007678359853557436,-0.16904973612842178,-0.05548606867811896,-0.1473869742827995,0.013222387690834322
0.030293833227262514,0.027633676690280103,0.024863221690352585,-0.04353071168338109,0.055874551862508684,-0.061303875751320146,-0.027863554437234695
-0.022613679173828845,0.024127145692369678,-0.03106228086931061,-0.022562979517544907,-0.00016921980279966525,-0.034462352323617065,0.014560605661350905
-0.010963238463075203,0.16002899323547312,0.00773669609043575,-0.1691443967751704,-0.05542476754573007,-0.14750765276700073,0.01319590619547064
-0.010944073839776268,0.16009673447111694,0.007748576697017555,-0.1691698404099662,-0.055412249681590954,-0.14753271182774594,0.013190370902629443
0.030292521654592626,0.027915732805732393,0.02485897589083014,-0.04362572529240132,0.05589588956733581,-0.0613817120367085,-0.027894207367900124
-0.010897467532885823,0.16029226209411393,0.007776985075118616,-0.16924627223476413,-0.05538130772853135,-0.1475957383424483,0.013176390904080758
-0.010872963998031632,0.16042057515554434,0.0077915662763832876,-0.1692986226657145,-0.055364594634421706,-0.14763077927565074,0.01316861095384228
-0.010856445984897156,0.16052584685503835,0.00780127932798428,-0.16934356943133305,-0.05535313569524783,-0.1476556884081214,0.013163123737972175
-0.010836605736046029,0.16072853512395463,0.00781314487794605,-0.16944025399551121,-0.05533951617307442,-0.14768902692964178,0.013156047103293916
-0.010814782750242894,0.15928938896687525,0.007816885884870211,-0.1685854371324523,-0.05529088382147814,-0.14772035960431706,0.01314319071980366
-0.01079178025147445,0.1606093645616343,0.00783490792813854,-0.1693349050401213,-0.05530450452344426,-0.14773568543740376,0.013142600407489765
-0.010711834445042149,0.1573672330437262,0.007907780432180666,-0.16652864696640854,-0.055247386582974206,-0.14594281195155095,0.013079585170290307
0.03105135584430918,-0.022753676966649438,0.025600024561670588,-0.006255417237579771,0.05671745383673651,-0.04505633472972059,-0.028387695773315673
0.031586068587981,-0.06768845438574181,0.026140075037307874,0.016960945699104737,0.05741045710453566,-0.04504476826071719,-0.02830596615005406
0.03239177651165065,-0.12521842390647825,0.02693314054914288,0.045890711121370414,0.058090111731915736,-0.03966263376046073,-0.02832821719453442
0.033584795983211915,-0.2023664060292553,0.028101549316120626,0.08363608721089956,0.0590177530890551,-0.034177637953074304,-0.0282548324503303
0.03429313638970982,-0.24479979987798509,0.02879433741996456,0.09713405775798258,0.0593638557616704,-0.03813928228149526,-0.027909067209664934
0.03487449973168621,-0.26734087543358215,0.02934498331804166,0.09680490568486032,0.05930905239560082,-0.04400550862293777,-0.027451695295235314
0.03530341798452907,-0.2730957774406411,0.029746248331229463,0.090470651658168,0.05901623826667779,-0.04783546784138689,-0.02707491855337022
-0.016813333023546078,-0.28047298604784043,-0.02549876125506824,0.10980113680838952,0.003159942579984469,-0.016574763562424003,0.014662653603486033
-0.016047180736369588,-0.2921016840452754,-0.024841025095782777,0.11535231264667983,0.0033299072121579856,-0.012825648390090011,0.014581236123367432
-0.015368248808026248,-0.300105331690488,-0.024290811154102164,0.1177164649323097,0.003537306545764486,-0.012073529600795677,0.01458244226174729
0.03715416645090192,-0.29656728354435663,0.03151273437700247,0.09213761465246328,0.058171338549362996,-0.0415537564294884,-0.025906872006879512
0.03717075985698867,-0.280190881855533,0.031523177526626554,0.0776982740674182,0.05759721704638658,-0.04588877986947914,-0.02535217099407619
0.03699282868837196,-0.25208788250774783,0.03134685698095702,0.058140481341586135,0.056816038857177883,-0.04921606523895694,-0.02481394833927964
-0.0062080149103224125,-0.07366223300519456,0.013744981633519993,-0.09540833781179842,-0.053797005514138796,-0.13806885499589613,0.00938891520368211
0.036034802718015645,-0.1638571642854464,0.030430147752467475,0.007988951166249356,0.054770611873664776,-0.053259006083181654,-0.02367599360562988
0.03545065471940639,-0.12269764408242555,0.029879865002662962,-0.012392366176788863,0.053905096314790756,-0.053802500781071766,-0.023229260519423693
-0.009689337467915747,0.0572150229278271,0.01113371842068854,-0.16020928806266876,-0.056318567226768146,-0.13918077289281122,0.008742007358855254
-0.01183076839234834,0.11769751578638964,0.009455274193469445,-0.18555293475203116,-0.057494784371211194,-0.13779935641540408,0.008507003725206536
-0.014460040496341623,0.036764873114106256,-0.025890897219482675,-0.05359382203811047,0.0029668329902541313,-0.020489581253792827,0.013433330796425651
-0.014512942249559558,0.07871446327956116,-0.026435020385163033,-0.06606359443921567,0.0035505844089629007,-0.01779875956015732,0.012922425259277007
-0.018673190568477466,0.2416909604327021,0.003955434374467326,-0.2256852775200031,-0.06033543102541122,-0.1297105524577471,0.00815008690421392
-0.014157237704981248,0.12845988339730136,-0.0271137752092124,-0.07372640758965351,0.005337298244516814,-0.011746542300375903,0.011782106406481736
-0.022614200317468167,0.26901155663583254,0.0007664458197258403,-0.22489450671012523,-0.06153755811394967,-0.12290484335306284,0.00812680384098606
0.02699554505824467,0.14511426342521175,0.022131632430076632,-0.0976841887886028,0.04727355394677465,-0.03946023371862942,-0.018533568784840432
-0.012248574211054249,0.13229475982227437,-0.026749426313191313,-0.0545202766080565,0.008939869087957485,-0.002726938534278231,0.010036748671958777
-0.011196096179415842,0.12174236055797943,-0.02618475734091123,-0.043829364493422174,0.01027545476238291,9.633379251139385e-06,0.009411709568814873
-0.00934410010778778,0.1088461664028447,-0.02612770152022594,-0.03179083816227504,0.013956461565691795,0.002826074184014052,0.00908952445358332
-0.028316873711056314,0.2211129685420613,-0.0035745696049761418,-0.1782357640226409,-0.06287624602347341,-0.10692513297416176,0.008286216221481055
-0.007526870190988848,0.07831784633403785,-0.023833812406173726,-0.010381861394406555,0.014134899943496357,0.007217256733527022,0.007701675430093287
-0.028127378338123885,0.19959022063970988,-0.0046418598574680565,-0.1646944095829307,-0.062099245638520685,-0.10463064640833036,0.008186976325277893
-0.02970873915022758,0.18047246153031504,-0.004442869015218245,-0.15217305170417167,-0.06317942351504122,-0.09949145801676076,0.00835729474745894
0.025131805760645543,0.053074605618937114,0.02121800202623236,-0.030406678126866565,0.04442238909751466,-0.025167608604405006,-0.014418728965320034
-0.00248158292243297,0.02431669448017204,-0.020262159504185834,0.02953942989118316,0.018360057289306453,0.023179067174080886,0.005596643371642552
0.0019810118946390447,-0.1913879988092328,-0.01609410062383429,0.18648700182239214,0.02056123133060292,0.09477095706294786,0.0029146728124969934
0.008842925908231422,-0.5820111812336541,-0.00968300937669122,0.40323594577720334,0.02573540075910115,0.1374520939233984,0.001657399875768927
-0.01866992025393912,-0.7828512651384797,0.0067935178195319135,0.368657391266039,-0.055485954324411245,0.0356004510676587,0.003322416890212376
0.020760061477326786,-1.136111351038501,0.0018571252135485272,0.5888473347478889,0.030818836175402452,0.13877895064417628,0.0020260665036167524
0.04625005434219704,-1.2637114736804822,0.043613584188940006,0.51701324586312,0.048728156314073554,0.07114654395821646,-0.011467632792673313
0.04742569991028236,-1.2363376946109954,0.045845766873881616,0.41857552911831986,0.044903545584839874,0.03768765657845566,-0.00898229213168088
0.034258528465858966,-1.1892038918931107,0.015990851991854318,0.3932782302463541,0.03229387149090057,0.06513007497274724,0.005772539093209293
-0.011836560669499965,-0.9384873942889497,0.016640876173590634,0.1175859280596169,-0.06382092178849261,-0.055947356112897965,-0.0023459040647108922
-0.013893340369590196,-0.7174956272351305,0.01597174953288308,-0.0468521831150106,-0.06814742385238097,-0.07064808447427247,-0.004200903499873098
-0.015473815721270386,-0.5503308334336934,0.01521287171660983,-0.15758786941687825,-0.07083625086078293,-0.07677038678816744,-0.005620623300445539
0.04122203390501804,-0.4191764058064586,0.02818403334832622,-0.14834610784775237,0.02393219776085259,0.0055340458226282585,0.007655714252116642
0.03772490126239618,-0.16425547515763864,0.030719959843680422,-0.2962766187781456,0.016571699299949713,-0.011186401693801779,0.009442434887421594
0.02659310955253087,-0.019869995185533302,0.03452102980701812,-0.41810000254953616,0.00880109038965789,-0.03748108514902327,0.0037388292729836296
0.037484081514589526,0.129255119738115,0.04783723806101092,-0.4825152277731999,0.010933005312512269,-0.03172380906896527,0.0005484370962375315
-0.06473611327246268,0.3613911813421518,-0.01944022196899163,-0.6398177280746954,-0.09861480987411309,-0.08249737129377192,-0.0019600283981487635
-0.06243826537745053,0.31983900494704964,-0.025556283402400244,-0.5724541654685106,-0.08681083087809247,-0.032983936598328004,-0.0007666461659534413
-0.0667468396124638,0.365166299926563,-0.022900280934185575,-0.5539082186601474,-0.09056593014710869,-0.011492187604581358,-0.005305596995296722
0.027885093693716334,0.347021648094566,0.01990545016735487,-0.39537671580945627,0.016512667948288123,0.04977752693275208,0.012546668032413315
0.07461636592082835,0.4149469675273841,0.09145923549202156,-0.42247784241290426,0.039496813797917196,0.02718184042108099,-0.004586702375507769
0.05112141460311019,0.4729846724381643,0.0623224366664517,-0.3930416319744888,0.017510024749754882,0.016728603341178372,-0.0057682913842511
0.04251633293888521,0.3475393464074706,0.0411450103138882,-0.17555452801446714,0.03102878055747757,0.1265665329093284,0.003310192673171085
-0.07623002423359448,0.5277140937608537,-0.04210561046230721,-0.30564682426339107,-0.06674832763073982,0.06144038878514005,-0.011329126125769268
0.058435375295284864,0.4134304801730053,0.056214025641957904,-0.06013047856673337,0.035772512923209564,0.14244692709551104,-0.0055128552613651575
-0.06824248738288752,0.45899647100829927,-0.052170766225355346,-0.07271146270870119,-0.04344650128308562,0.14273101262867469,-0.017876930173591564
-0.07584877656731104,0.5050951052392437,-0.06322590110916426,-0.030503963924960298,-0.04580493067230598,0.14466441698083599,-0.00904085010859847
-0.07047053037019947,0.4934071501296665,-0.05779671819744886,0.03472960454758792,-0.03663626281514455,0.16545597795783487,-0.020637396048681336
0.03055471419115291,0.5336600848357309,0.029649526075278432,0.13228168001762894,0.028490886278393718,0.17395176034861407,0.005417779805121821
-0.007236318710561698,0.42686177953940585,-0.02409671498827931,0.20844186314015026,0.021035676772896823,0.22138614981871865,0.00244259143791671
0.02299560534158976,0.4798663474694522,0.008876804075100053,0.2703688505145632,0.03116654212079758,0.22116470094469073,0.006638932227995279
0.0674626086881708,0.42629590263798145,0.04442964124991691,0.30278425889604005,0.04436725058733465,0.23221984946520616,0.002387912342729292
-0.14589320718959212,0.5657697314889852,-0.1965883489030923,0.17048669621581056,-0.015172197243905769,0.15361800059300745,0.01770358040464447
-0.08320914190716591,0.4707501893917522,-0.08912894952671982,0.28960775184528764,-0.020780717687056263,0.20325346659094132,-0.019985287456199846
0.019788864957656596,0.44576146369498354,0.0017058815703189373,0.41801827464257574,0.031846163253554806,0.22931330441813055,0.010486384892572712
0.06158888282444874,0.3788716651958153,0.0326032812608463,0.43543582172348416,0.04290848944466252,0.23660489883115537,0.01173944814708951
0.007200060891919038,0.44547830473463956,0.01318386746829587,0.3722930756613774,0.012694939299668674,0.1919847036852738,-0.01174711514358141
0.006945840173556181,0.39175088508166644,0.012109208795501612,0.41141031641208436,0.012236091530041848,0.1932664969939996,-0.012442616634097202
-0.1351952855785672,0.37392019500492624,-0.18967986230196304,0.37361021077374484,0.009665487812552116,0.16146557921477325,0.008951535096586076
0.008486570028262506,0.2871549004191625,0.013127879017442223,0.46530841370065706,0.011569401249705995,0.19351518053595784,-0.01330935460831588
0.047935299785146684,0.270632718298295,0.023194641399255214,0.4873456232273101,0.03636051170393584,0.17032500048563062,0.025560573874887207
0.0504691656187671,0.19326232716771652,0.025249149197982906,0.5153361970979176,0.03642970994500135,0.17199331054837586,0.026876913691772013
-0.1270951089965525,0.11040167309555622,-0.17849792820936874,0.4728824539008466,0.018021545819359375,0.1648983590381604,0.0018748591169831727
0.06284246144634391,-0.155754246531782,0.02123761767165369,0.6820583886458452,0.046218580126716854,0.2666865712576433,0.031102691409958454
-0.043194698460596856,-0.061952995011171796,-0.028979102912369468,0.48215964017238944,-0.009307647675611562,0.16041377475268775,-0.02823635047780864
-0.040390147586626596,-0.16503184598904988,-0.02481794166216689,0.4758156399735085,-0.009925065143862486,0.16072768503983603,-0.028727449414173833
0.07141894651777589,-0.44978473655435014,0.030467168142910783,0.6946213071051471,0.045133155094367904,0.2858118891009344,0.038081597078833566
0.056492022976783685,-0.4818676226462543,0.0199600259525499,0.6371630106949933,0.03878711315273133,0.2592909523812699,0.03944901549754952
-0.0541016957917685,-0.4746992008243001,-0.043414050546368765,0.5069508283854254,-0.00895615348720584,0.22513914411111496,-0.03399192856882644
0.1026156891674757,-0.54514214219889,0.09743844383594816,0.5561809596291682,0.02542581640245789,0.2540793264389754,0.03420262267895313
0.07771658306787985,-0.5620893811252698,0.07027852414615778,0.5273982703712539,0.017507967512425112,0.245927546087446,0.022628192524056068
0.029902697982260446,-0.6903189471152344,-0.019185105971176036,0.607479707485047,0.04316743027305887,0.31282558395679705,0.03853418092860236
0.05041357724954154,-0.6169128331497662,0.029277776839092766,0.5095722797666689,0.0304418352196157,0.2609811123987157,0.04089319110168091
0.027516276102985546,-0.6166778494444679,0.041780372912272566,0.406594594387374,-0.005910659560590583,0.23116535402874436,-0.015739323688568507
0.06458532386039191,-0.6872904338990592,0.0322811975849951,0.48326594808200857,0.03490446629247691,0.2609928848506299,0.04507214211263538
-0.02949634724177715,-0.6164539778797576,-0.0030189308943338183,0.345928661203493,-0.019508320067390818,0.2060280618680271,-0.03099887724233621
-0.09139535773200835,-0.6489957224886925,-0.0998646573971239,0.349391070023065,-0.005971145109429428,0.21092930106995067,-0.029644913463652917
-0.04443867280823249,-0.6427815685314563,-0.025378037681352772,0.3524495014166481,-0.017718439282461997,0.22566768944682775,-0.03684693659622735
-0.11918680106260564,-0.6842187739299975,-0.1554989338884441,0.37922395925370495,0.01040143350823769,0.25826323317792665,-0.017055887538136097
-0.02509794449955674,-0.5565045465985762,0.014017534017690389,0.3056193804760758,-0.040022293132935746,0.21946532403470706,-0.04859277144488847
-0.032019292998234083,-0.502983104530389,-0.003987207296646436,0.26567817676593275,-0.023865503089070626,0.21476027057040212,-0.03154762828634493
0.06164008265246179,-0.5390354785992647,0.033156724104920154,0.38115882820882574,0.03025117569224834,0.27120356532940554,0.04395097512515421
0.10502431471251344,-0.4485187073892305,0.10564958949634176,0.3207570511642776,0.018446223928398207,0.2545614536944876,0.037119628982902296
0.023147764302103017,-0.3542974914506459,0.040140750018321604,0.24456407836268987,-0.010822419258057357,0.22964896286155967,-0.01578872015916479
-0.05154888455734678,-0.2656948045667763,-0.031695914602237446,0.1780826139815375,-0.022955554541562673,0.20855475022261297,-0.03624565629079689
-0.12516913972293653,-0.2784693238473259,-0.16276309600372368,0.2052533494693704,0.005000102846163715,0.23418971323746898,-0.011844216601525147
0.0731425159685691,-0.12442495759092255,0.06726208735394133,0.17171072706202017,0.015672388951970498,0.1880390753988558,0.033610049348283454
0.05697919262670685,-0.18060581321947297,0.033265184529964596,0.23748466715005734,0.025168553703652098,0.23371926732612094,0.03994518457470366
-0.05772235555286987,-0.15668197933577654,-0.04226168701524364,0.17638155091679766,-0.020383990284409053,0.23075400174001207,-0.028860224959428377
-0.12638726571127346,-0.13426872924674582,-0.16331368940497873,0.1590125835106494,0.0033266397336348882,0.2184990588265307,-0.0077302437528257995
0.03181175637868247,-0.1564381247573109,0.0015786278380228447,0.2881578003002622,0.02771801276989774,0.26672766940124526,0.034457283162225384
0.014663528234562385,-0.060888900710034194,0.026817598865310422,0.14664645848035138,-0.006390483178194392,0.20051082522341032,-0.007254565718528699
-0.04895630882355545,-0.08037588858141662,-0.0168494583276914,0.1518389851160326,-0.03791724182097176,0.20443312994951604,-0.04627508017078199
-0.1054835282391832,-0.08918895891910437,-0.12328381360117902,0.1365341374528671,-0.00956937530668793,0.19992892610058616,-0.016956151474602558
-0.059098081861124176,-0.12214657559110625,-0.045334311975708294,0.16995580617996028,-0.02077268540335993,0.22456181421226426,-0.029560383258633575
-0.04852529674535881,-0.10587799252025751,-0.01708509701396002,0.15962889355328383,-0.03711179148358986,0.20571066954867387,-0.044615133906684964
-0.04829057628167449,-0.11516056385219187,-0.016940459387287776,0.16177445144103303,-0.03699132227433785,0.20611444523283493,-0.04429960635348927
0.06639309422515538,-0.0981708254017206,0.05454199596697746,0.18928235804485544,0.0205277723970687,0.20142505645764883,0.03449422086145029
0.0648202737047198,-0.1865057984416912,0.058721828793912516,0.2613019409120822,0.014105070926233771,0.24279792320446447,0.019452752569126656
-0.10349538620538115,-0.15505857164567213,-0.12187165818326806,0.1515332109056275,-0.010056592370136966,0.202720936758793,-0.014562700116608852
0.027186651314661803,-0.2668056551065175,-0.006916053511410614,0.3345966358970209,0.028483147675526094,0.28551194614520087,0.031009441118775738
-0.030006079314560466,-0.07135485698108217,-0.002499210704970979,0.06932102826280251,-0.02721282067838525,0.15402119760703809,-0.02409389383566285
0.04648773331769318,-0.19321138870893936,0.04306523946781435,0.26164772843919226,0.016287365468232874,0.23187441380597218,0.022614807084824287
0.06596252859570637,-0.2475494931685152,0.060593902261199234,0.2706479597564356,0.014477902522672528,0.2438259384508798,0.018403301743141018
-0.04597266727076747,-0.2101072657097876,-0.014949174952910468,0.17914720809647056,-0.03650009371553453,0.20950966797330442,-0.041999507520298095
0.06743809001227746,-0.1818578931492024,0.05653822616710851,0.20183744759185818,0.02097466881343097,0.20253733762609605,0.03308957874097938
-0.11362369086387877,-0.22114877415091866,-0.14525145989189414,0.15803457203009938,-0.0021787929540199105,0.205421306804941,0.00036889353298742017
0.0991775266621363,-0.31491867573661764,0.08984229849894047,0.29715774268621387,0.020278526128925455,0.2682346086238618,0.021393111467626114
-0.029331285103744935,-0.11438482940556025,-0.001778829153274035,0.07608997494342397,-0.027312946682220087,0.15523020837593854,-0.023533238044289657
0.06740949233124231,-0.19190746043152104,0.05676119962510671,0.202517653876502,0.021151141389465247,0.20174111536595038,0.032636826939281285
0.028708029280240993,-0.32442269631783593,-0.0037110228899983333,0.34241333050771344,0.027243792708930726,0.2851596370230803,0.028526540597591077
-0.055357788376328695,-0.2528852389879695,-0.04096101074293417,0.19532706566639269,-0.02214437867235187,0.22927775216044038,-0.028296986934329034
-0.11355632091389214,-0.22587237930511042,-0.1455537646273416,0.15873139620012547,-0.0029692663905996584,0.20419577891014887,0.001646138678781349
-0.029631116091728235,-0.11096430754260224,-0.0022530859644074724,0.07601682193120934,-0.02733637277033582,0.15433109368800732,-0.023164453164889298
-0.04574387663328981,-0.21843647534509364,-0.015637003584086887,0.18080018761239236,-0.0359283332585944,0.20789351280835675,-0.040012732470104215
-0.10158517044017829,-0.21811278805387152,-0.12093121587689484,0.16285159680499525,-0.011569738352955147,0.20255538841877352,-0.010588132013591104
-0.10164614187533605,-0.21517395964042402,-0.12113162259688137,0.16262712721154926,-0.011594795009312393,0.2022586464476693,-0.010377324790704984
-0.04594730080361917,-0.20966424904644648,-0.016253276550174056,0.18004381612722134,-0.03565594545893717,0.20699076976662065,-0.03943122573421712
0.06629748920201092,-0.17062712991223608,0.05589139292900646,0.198691347081159,0.021537369779895607,0.1975921501396241,0.03141325504250694
0.06620762640377031,-0.1686293129919464,0.055807142638431506,0.19844846774107677,0.02155981428378017,0.1973003116842773,0.031325217463389586
-0.030283964716640743,-0.09291583059016442,-0.003228884875555199,0.07492542863224061,-0.027286127726449425,0.15280957707694873,-0.022748299287989195
0.028285516565875773,-0.2973512982881611,-0.0033913444776447477,0.3383140232001384,0.026379043661551062,0.2806827500239834,0.026312359905559315
-0.046161051055415236,-0.20063841336870233,-0.016995306745620775,0.17966142215776185,-0.03528892711385885,0.2060056647278919,-0.03867847605116327
0.0037546345771852334,-0.28465064858042927,-0.001907254262442563,0.2655761070389981,0.003970831613655031,0.25978048235231765,-0.005822721331047213
-0.05580546399820176,-0.22615762265491118,-0.04198705394678656,0.19430243642742184,-0.02246557636023842,0.22662195372465269,-0.027591470201722007
-0.1018885181182037,-0.2018750514482645,-0.12227717887740566,0.16246846494055323,-0.011738876248691417,0.20070495570128583,-0.008997047077156126
-0.055519845418891996,-0.2256811977353961,-0.04076621734266033,0.1947922290992769,-0.02373677427520236,0.22663931090604203,-0.028018214573137575
0.005467326833967716,-0.28364449548675275,0.004343489904843505,0.2660474976476244,-0.0005009991274051648,0.2599295252423173,-0.007557784168966606
0.0682766841594668,-0.16028979485423797,0.066166992807609,0.1969699866710312,0.014682699240398889,0.19589506763006534,0.027550566072243
0.031723830181929064,-0.29299857807935853,0.010364021782574256,0.3366160754832062,0.018287970399454907,0.2798457299656298,0.022050402819358033
-0.051743243007650784,-0.22613489240733228,-0.026505946426420412,0.1932032240291339,-0.03121471777879093,0.22689147531803316,-0.031237683987575208
-0.042119494947821634,-0.19920562203365427,-0.0007376182266095321,0.1781871261149571,-0.044581600739626304,0.20586722708708727,-0.04179308868606266
0.06916592326220578,-0.23911743538531596,0.07824447752903294,0.2657291351042266,0.00590074875900181,0.23723771126412693,0.010401881429650303
-0.11026667164122886,-0.20011164203369766,-0.13112360839806775,0.15347911500020475,-0.013815185869351689,0.19924570592991891,0.00044254163535241767
