hisham246/franka_example_controllers/results/tau_optim.csv
Solve Time,Joint 1,Joint 2,Joint 3,Joint 4,Joint 5,Joint 6,Joint 7
0.048686027,-0.08997744577341554,0.09011872711012034,0.09387901438055488,-0.2477268817214025,0.40431478606348503,2.9416152003194345,0.21556983733889606
0.105273246,-0.08101213409133096,-0.12141701751437795,-0.07297348924935579,0.07946428178755381,-0.03927426221242752,0.14424845769539973,-0.024088360983353634
0.159219264,0.08217352256944664,-0.26778688462705436,0.03482778704422605,0.2868308055085667,0.03460290613638083,0.24118897969666075,0.03434322752045744
0.211295127,0.03456126944786623,-0.24059671878946737,-0.013730006871963674,0.3015489736017067,0.022709595980530378,0.2361087026108071,0.03277571066255397
0.263267278,0.0147208433018397,-0.21275659018791646,0.004121403437436602,0.20448435758621644,-0.006614274326858352,0.20430387389761778,-0.0082199481691515
0.316767454,-0.05314711320724887,-0.1518803367089582,-0.041849184089853254,0.10943588945199094,-0.05121421805703036,0.1526086774322437,-0.039272725198127634
0.362943411,-0.05314711320867179,-0.15188033670926926,-0.04184918409242414,0.10943588945094984,-0.05121421805640887,0.1526086774328287,-0.03927272519830558
0.414828539,-0.05314711321058229,-0.1518803367058588,-0.04184918409559429,0.10943588944590471,-0.05121421805531599,0.15260867743147918,-0.03927272519735312
0.466189146,0.0345612694600668,-0.24059671879707958,-0.013730006869415884,0.3015489736165082,0.02270959598776586,0.2361087026205849,0.03277571066435437
0.5170540809999999,-0.0810121341037627,-0.12141701749594892,-0.07297348926883945,0.07946428176202493,-0.0392742622015826,0.144248457693329,-0.024088360976703374
0.5676460269999999,-0.08101213410536501,-0.12141701749415598,-0.07297348927093465,0.07946428175948156,-0.03927426220087751,0.14424845769328176,-0.02408836097662187
0.5997848519999999,0.014720843298737452,-0.21275659018861473,0.004121403427868674,0.20448435758858544,-0.006614274326741843,0.2043038739000172,-0.008219948174156074
0.6409256469999999,0.08217352258485278,-0.2677868846376114,0.03482778704389127,0.28683080553647256,0.03460290614111428,0.2411889797068553,0.034343227516958105
0.6928658489999999,-0.05314711321929459,-0.15188033669738935,-0.04184918411119709,0.10943588943105496,-0.05121421805086557,0.1526086774293635,-0.03927272519579246
0.7268199929999999,0.014720843296637823,-0.21275659018706194,0.004121403423585004,0.2044843575874492,-0.00661427432636684,0.20430387389948923,-0.008219948175249904
0.7793822289999999,-0.05314711322214064,-0.1518803366944848,-0.04184918411619578,0.10943588942637685,-0.0512142180493513,0.1526086774287479,-0.03927272519490965
0.8316922179999999,-0.08101213411373047,-0.12141701748369649,-0.07297348928310245,0.07946428174560227,-0.0392742621953434,0.1442484576919678,-0.024088360973169902
0.884006738,0.08217352259147741,-0.26778688464298533,0.034827787043402364,0.2868308055481447,0.034602906143815546,0.24118897971183842,0.03434322751627794
0.9221043579999999,-0.05314711322747917,-0.15188033668856468,-0.04184918412421993,0.10943588941725822,-0.05121421804822661,0.15260867742617557,-0.03927272519540554
0.9737458219999999,-0.08101213411628864,-0.12141701747891727,-0.07297348928746238,0.07946428173890797,-0.03927426219274861,0.14424845769184116,-0.02408836097173155
1.012613534,0.08217352259564621,-0.26778688464532524,0.0348277870441674,0.2868308055545636,0.034602906144284705,0.2411889797141451,0.034343227515002
1.045573234,0.034561269483163855,-0.24059671880727468,-0.013730006864758934,0.30154897364242356,0.022709596000653635,0.23610870263746453,0.032775710667044454
1.084233045,-0.05314711323173808,-0.1518803366848117,-0.04184918413179345,0.10943588940961044,-0.05121421804638265,0.1526086774257163,-0.03927272519489111
1.11905527,0.0821735225975106,-0.26778688464916467,0.034827787042736494,0.2868308055611606,0.03460290614524846,0.24118897971748265,0.034343227514655086
1.170874117,-0.0810121341222567,-0.12141701747211221,-0.07297348929613393,0.0794642817292137,-0.039274262188732506,0.14424845769106012,-0.024088360969070514
1.212940214,-0.053147113233839034,-0.15188033668403422,-0.04184918413664586,0.10943588940674986,-0.051214218044685254,0.15260867742717873,-0.03927272519428323
1.267159221,-0.05314711323631424,-0.1518803366791562,-0.04184918413986347,0.1094358894010095,-0.0512142180437496,0.1526086774239385,-0.039272725193622966
1.311647174,0.0821735226030376,-0.26778688465206407,0.0348277870434022,0.28683080556891355,0.03460290614758342,0.24118897972055553,0.03434322751462865
1.36425018,-0.08101213412783018,-0.12141701746438553,-0.07297348930392045,0.07946428171945648,-0.03927426218530027,0.144248457689388,-0.02408836096700435
1.416157004,-0.05314711323970407,-0.15188033667576195,-0.04184918414585139,0.10943588939452234,-0.05121421804268702,0.15260867742319414,-0.03927272519380148
1.449284311,0.014720843290690903,-0.21275659018881574,0.0041214034086136395,0.20448435759148673,-0.0066142743295405475,0.20430387390312502,-0.008219948187379424
1.503697153,0.01472084328993009,-0.2127565901876493,0.004121403408155824,0.20448435758982086,-0.006614274330703128,0.2043038739021799,-0.008219948188948627
1.5499086340000001,-0.05314711324331294,-0.1518803366736202,-0.04184918415183946,0.1094358893897999,-0.05121421804170809,0.15260867742326417,-0.039272725193832146
1.601671453,-0.05314711324447234,-0.15188033667170014,-0.041849184154163555,0.10943588938733441,-0.05121421804024876,0.15260867742252907,-0.03927272519295158
1.653240438,0.014720843289574103,-0.21275659019010446,0.0041214034056410226,0.204484357593231,-0.006614274330652435,0.20430387390449561,-0.008219948190567358
1.6920561740000002,-0.08101213413455156,-0.12141701745481283,-0.07297348931393499,0.07946428170624417,-0.039274262180138214,0.14424845768841543,-0.02408836096452725
1.7234134630000002,0.034561269504540956,-0.24059671881849579,-0.01373000686189552,0.30154897366914846,0.022709596014647865,0.23610870265466938,0.032775710671775475
1.7546656090000001,0.03456126950493881,-0.2405967188186161,-0.013730006862494763,0.30154897367016853,0.022709596015422426,0.2361087026553911,0.03277571067219741
1.7880299050000001,0.014720843287686951,-0.2127565901894456,0.004121403402489299,0.20448435759251812,-0.006614274331784748,0.2043038739043892,-0.00821994819335599
1.8275377710000003,0.08217352261357197,-0.26778688465882594,0.034827787042039766,0.2868308055884472,0.034602906151992976,0.24118897972727846,0.03434322751362838
1.8664131120000003,-0.08101213413625123,-0.12141701745134308,-0.07297348931781884,0.07946428170124972,-0.039274262176734936,0.14424845768902886,-0.024088360962081598
1.8982751330000003,0.03456126950988282,-0.24059671881879338,-0.013730006861159511,0.3015489736724832,0.02270959601929846,0.23610870265705905,0.03277571067416324
1.9298200570000004,0.014720843287579175,-0.21275659019141155,0.004121403400815978,0.2044843575948476,-0.00661427433220816,0.2043038739063356,-0.008219948195131943
1.9709289040000004,-0.08101213413937286,-0.1214170174480298,-0.0729734893217651,0.07946428169667745,-0.03927426217589951,0.14424845768845368,-0.024088360961829522
2.0047547780000006,0.08217352261658772,-0.26778688466225725,0.034827787040697056,0.28683080559572177,0.03460290615392521,0.24118897973073528,0.03434322751382514
2.0487179720000004,0.014720843286301745,-0.21275659018927534,0.004121403398845697,0.20448435759251513,-0.006614274332700527,0.2043038739050405,-0.0082199481969068
2.0804281200000005,-0.05314711325402264,-0.15188033666113646,-0.04184918417054034,0.10943588936816435,-0.051214218037111126,0.1526086774194872,-0.039272725193634284
2.1152760950000005,-0.053147113255919774,-0.15188033666048176,-0.0418491841728489,0.10943588936673039,-0.05121421803741003,0.15260867741942982,-0.03927272519391692
2.1501097650000003,0.08217352261893904,-0.2677868846640874,0.03482778704012486,0.28683080560072943,0.03460290615523617,0.241188979732732,0.034343227513806925
2.1916408510000003,0.014720843285370877,-0.2127565901920074,0.0041214033963446,0.20448435759614567,-0.006614274333429104,0.20430387390756852,-0.008219948198859529
2.233820435,-0.08101213414448084,-0.12141701744142333,-0.07297348932944564,0.07946428168774099,-0.03927426217194663,0.14424845768767144,-0.02408836095920189
2.284814116,0.08217352262062255,-0.267786884665893,0.03482778703888727,0.2868308056052292,0.03460290615703653,0.24118897973400258,0.03434322751465686
2.340366121,0.08217352262007056,-0.2677868846655307,0.03482778703794202,0.28683080560550295,0.03460290615646064,0.24118897973400452,0.03434322751391701
2.391832109,-0.0810121341463938,-0.12141701743922123,-0.07297348933311734,0.07946428168441676,-0.03927426216928883,0.14424845768819686,-0.024088360957350206
2.44353294,0.03456126952301536,-0.2405967188265388,-0.013730006859939366,0.30154897368994954,0.022709596029102455,0.2361087026687297,0.03277571067856452
2.49271011,-0.08101213414908452,-0.12141701743591055,-0.07297348933648298,0.07946428168024221,-0.03927426216863686,0.14424845768745684,-0.02408836095692058
2.5269801579999998,-0.08101213415027166,-0.12141701743337435,-0.07297348933816443,0.07946428167720586,-0.03927426216742293,0.144248457686086,-0.024088360956217473
2.578380819,0.014720843284628294,-0.21275659019202628,0.0041214033933685956,0.20448435759668546,-0.0066142743357112685,0.20430387390800445,-0.008219948204793031
2.629425283,0.08217352262554015,-0.2677868846699037,0.03482778703779368,0.2868308056151923,0.03460290615897184,0.24118897973801515,0.03434322751392368
2.6806812239999998,-0.05314711326336219,-0.1518803366496032,-0.041849184186067256,0.10943588934787046,-0.0512142180351075,0.15260867741592563,-0.039272725195659726
2.731819387,0.03456126952740798,-0.24059671882817849,-0.013730006861688277,0.30154897369623973,0.02270959603431957,0.23610870267273476,0.03277571068159318
2.783048387,0.03456126952871957,-0.24059671882888667,-0.013730006861733807,0.30154897369765893,0.022709596036133498,0.23610870267369977,0.03277571068302594
2.831446643,-0.0810121341540897,-0.1214170174289085,-0.07297348934445082,0.07946428167027735,-0.03927426216409059,0.14424845768683062,-0.024088360953971585
2.865736718,-0.05314711326732031,-0.15188033664617764,-0.041849184191562805,0.1094358893414617,-0.05121421803513421,0.15260867741479173,-0.039272725196981904
2.900104041,0.08217352262988563,-0.26778688467258416,0.0348277870371848,0.2868308056232913,0.03460290616182273,0.2411889797405063,0.03434322751475851
2.9515595390000002,0.014720843283005491,-0.21275659019329024,0.004121403389664486,0.20448435759817052,-0.006614274338294448,0.20430387390953894,-0.00821994821061191
3.002701516,-0.0810121341567322,-0.1214170174257586,-0.0729734893481912,0.07946428166589825,-0.039274262162548965,0.14424845768649217,-0.024088360953168582
3.053961033,0.08217352263133748,-0.26778688467344675,0.034827787036259855,0.2868308056258721,0.03460290616314779,0.24118897974185124,0.03434322751522074
3.10611462,0.08217352263101292,-0.26778688467337086,0.03482778703510359,0.286830805626638,0.034602906163456584,0.2411889797419569,0.0343432275155861
3.151727193,0.03456126953412511,-0.24059671883119232,-0.013730006863273211,0.3015489737055646,0.022709596041900593,0.2361087026787155,0.03277571068620894
3.2024247580000003,0.03456126953547398,-0.24059671883256373,-0.01373000686274636,0.3015489737077967,0.022709596042477156,0.236108702679855,0.03277571068658448
3.253878825,0.03456126953650076,-0.24059671883325606,-0.01373000686287588,0.30154897370866424,0.02270959604382875,0.236108702680999,0.03277571068739128
3.303012126,0.014720843281282142,-0.2127565901936726,0.004121403386701776,0.20448435759898018,-0.006614274341430623,0.20430387391027963,-0.00821994821617939
3.339228862,-0.05314711327321025,-0.1518803366426719,-0.04184918420125972,0.10943588933265012,-0.051214218035361345,0.1526086774150199,-0.0392727252000636
3.381505721,0.03456126953921519,-0.240596718834906,-0.013730006862376316,0.30154897371261913,0.022709596046084607,0.23610870268325662,0.03277571068886779
3.4264709879999997,-0.0810121341626783,-0.12141701741702497,-0.07297348935726172,0.07946428165486172,-0.039274262157266676,0.1442484576848275,-0.0240883609496265
3.471671098,-0.0810121341618843,-0.12141701741831552,-0.07297348935742314,0.07946428165609143,-0.039274262155742486,0.14424845768671238,-0.02408836094800234
3.514589542,0.014720843281679469,-0.21275659019297075,0.004121403387104145,0.2044843575980465,-0.00661427434378781,0.20430387390987617,-0.008219948220512186
3.546389812,0.08217352263701613,-0.26778688467696854,0.03482778703400085,0.28683080563678715,0.034602906167526815,0.24118897974599116,0.034343227517135755
3.587482208,-0.053147113275364144,-0.15188033663918465,-0.041849184204932104,0.10943588932692293,-0.05121421803509472,0.15260867741352846,-0.03927272520128233
3.6393871239999998,-0.053147113276372934,-0.1518803366376998,-0.04184918420608912,0.10943588932476969,-0.05121421803525813,0.1526086774129647,-0.039272725201681236
3.691822045,0.03456126954344042,-0.24059671883599384,-0.013730006863232122,0.3015489737168287,0.022709596051105747,0.2361087026865299,0.03277571069218972
3.743935101,0.08217352263859011,-0.2677868846793648,0.03482778703292037,0.28683080564183133,0.0346029061693311,0.24118897974809836,0.0343432275179138
3.797047847,0.03456126954407503,-0.24059671883614436,-0.013730006864507155,0.3015489737184756,0.022709596053090256,0.23610870268741832,0.032775710693910186
3.849837059,0.08217352263958405,-0.2677868846800941,0.03482778703217687,0.2868308056437562,0.03460290617041,0.24118897974888617,0.034343227518662076
3.902745718,0.01472084327964792,-0.212756590192007,0.004121403383469659,0.20448435759704695,-0.006614274345463391,0.20430387390938273,-0.008219948224722575
3.955621952,-0.053147113278928806,-0.15188033663369854,-0.04184918421028492,0.10943588931748438,-0.0512142180354375,0.15260867741158593,-0.039272725203470735
4.007530445,-0.08101213416962312,-0.1214170174084312,-0.07297348936801389,0.07946428164338233,-0.03927426215148819,0.14424845768422054,-0.024088360945356643
4.058963532000001,-0.053147113280419406,-0.1518803366331887,-0.04184918421213298,0.10943588931588522,-0.05121421803601418,0.1526086774115938,-0.03927272520455529
4.111220116000001,-0.0531471132797099,-0.15188033663309577,-0.04184918421164103,0.10943588931532301,-0.05121421803581836,0.15260867741180717,-0.039272725204723434
4.163086408000001,-0.08101213416996879,-0.12141701740640938,-0.07297348936955968,0.07946428164055434,-0.039274262149145846,0.1442484576843961,-0.024088360943629043
4.214748614,-0.0531471132818028,-0.15188033663228723,-0.04184918421415616,0.10943588931390291,-0.051214218036557096,0.1526086774113907,-0.03927272520585743
4.26667475,0.034738562118790846,-0.23981845890307782,-0.013564550899453583,0.3008744735610446,0.022836246563877286,0.2351490075542708,0.03281465415657348
4.318028443,0.0856746155438713,-0.26583447537874816,0.03702724543128959,0.28753573508204394,0.03584962848736621,0.23375057577413583,0.03465601783256429
4.365468734,0.0903300368054539,-0.2777588485629651,0.03824900414183234,0.3048451781468349,0.03673341604868173,0.2328817494311578,0.03466488678441546
4.417688125000001,0.04834092186783874,-0.26580709371843914,-0.009614501248179846,0.34265535686993204,0.026589638107230185,0.22416257769519582,0.03324680899487891
4.469197028000001,-0.03520055599126945,-0.20461020422808088,-0.040662491589677684,0.1880195841383383,-0.045574283100365216,0.1426287738024294,-0.038069650695558226
4.510708087000001,-0.0335632753265948,-0.2282731262258699,-0.04544638510958156,0.22097982361145224,-0.04400462597288437,0.1441678051056353,-0.03764350526839145
4.5422439510000014,0.05475762573872594,-0.3341659943007719,-0.02106368743721158,0.4384026742298077,0.030194292976882614,0.2298049259594506,0.032259033171534494
4.5737421450000015,0.03490651783521089,-0.31758955334370637,-0.007771779218743931,0.35891977903111566,0.00311973797687457,0.19903516387625353,-0.006839042104626235
4.609905237000001,-0.03423679737678927,-0.2680500649323208,-0.05900163576985405,0.2819523976606979,-0.041163960521124796,0.14973149153540455,-0.03635797332990162
4.643793100000002,-0.06213878021629454,-0.24285705206406008,-0.09273390916539023,0.26351103775063955,-0.029688589938143477,0.1406894063666747,-0.02194268217190523
4.693465226000002,0.10098631124144998,-0.38476459017360487,0.012279914320047148,0.47933669238871157,0.04659792176748643,0.22797492317358342,0.03142601284192494
4.740176194000002,-0.06619792644464939,-0.24682150850865983,-0.10583816851678178,0.2954112657923289,-0.02788069027863762,0.13616147603953418,-0.02070920623629057
4.789587014000002,-0.04585527263382367,-0.2696176444071747,-0.08628990061732307,0.3360409126432221,-0.036753509564970734,0.1455958996881895,-0.03253990460865324
4.841184133000002,-0.08350656230139243,-0.22339792826213142,-0.1266700034046305,0.3069772209996166,-0.029128717034263105,0.14179081063527582,-0.019548065380639284
4.892387622000002,-0.07166646563478807,-0.20993877815290896,-0.1089984713212471,0.3119988571435726,-0.03861106150848086,0.14842278422391447,-0.029887284154274014
4.943844788000002,0.004703357580015401,-0.2337587356718941,-0.07897917287804343,0.4548087181521744,0.028418782314199923,0.2224583012142309,0.023447609775410203
4.995328419000002,-0.006440035151664847,-0.16645112593709058,-0.08011942752478624,0.4016038540578289,0.025695271968108786,0.2153672125417365,0.021868647145842652
5.047885649000001,-0.03512794576801243,-0.07592245122589171,-0.06715896774414144,0.2564135326086236,0.004751060815898655,0.18390166547024744,-0.002600031889396031
5.0993809630000015,-0.11295176457738648,0.05223942354048721,-0.11161829894926881,0.10476123473933036,-0.04892650575800777,0.12529197539357906,-0.023202488476997678
5.148309462000001,-0.02287761634066626,0.034091772209941765,-0.06156818155924278,0.2295659098745646,0.017292852734085894,0.188631892965219,0.01726998379776208
5.202739232000001,-0.11615003954320113,0.15583091946131442,-0.09488215484966178,0.010863356114225843,-0.05384379312639935,0.10932822305485167,-0.019841477209669216
5.254386180000001,0.03370172234131201,0.08377517277966835,0.01229959307236334,0.13789259048119465,0.03484648891250849,0.17488548462062897,0.00972666197179427
5.306250565000001,-0.1105915050247955,0.20244993917760867,-0.07613649270727915,-0.04319056301860005,-0.05776548066766078,0.09770505116708199,-0.016580451440031146
5.357277863000001,-0.030404894034558903,0.14205751479217382,-0.01571846926278775,0.03698295895850663,0.00010788828739329885,0.1453359250445162,0.001189001262273647
5.3974986010000015,-0.12534946475900297,0.21469132034919114,-0.08623214178480007,-0.08869907536025248,-0.06131841298376945,0.09010960218031087,-0.007862042215412373
5.449856990000002,-0.1198398500170359,0.1983906562973355,-0.07972444074012462,-0.09172905139752235,-0.06259590897029403,0.08762309508656638,-0.007007759526947335
5.5017087400000015,0.06695772746198593,0.03670605324820315,0.056790802306408435,0.0931749875837448,0.03706611477277102,0.1564764290108052,0.0014126380515195173
5.547582859000001,0.019263969776303777,0.03230530256087012,0.00773704421668503,0.11124487313441388,0.012259211611398674,0.14842239117545003,0.008288265960432604
5.599832529000001,-0.09851229315442987,0.10492862389236722,-0.06068629254943997,-0.0821717009445416,-0.06528098465918332,0.07669292382734955,-0.003929524010288827
5.651467318000002,0.08944559667744101,-0.07226258546315899,0.0728581176498947,0.11459716057912624,0.04218941119431192,0.14628877119895012,-0.00227861995853741
5.703558439000002,0.0365883206943132,-0.07766865752701006,0.018048074137860935,0.13830085833169292,0.014126597267373812,0.14075151367232022,0.006215616806864229
5.755352730000002,0.02105402479967902,-0.0885449975836085,0.02874324711352807,0.06520109225240549,0.007729357543798708,0.122345452780909,0.004198306099122748
5.808041329000002,-0.07999384181101078,-0.02152930106065695,-0.04902006039276738,-0.05320468160456759,-0.06786929868828945,0.06485287489054284,-0.0002722994624776638
5.860196823000002,-0.051462972366490056,-0.0728648965090799,-0.01717916482852227,-0.026952759264306517,-0.06341450260914336,0.11029385620477429,0.003461297149582045
5.9096682010000015,0.029946186410267393,-0.14845377969533882,0.03354064036137859,0.06837680941531453,0.013023939676324309,0.16707433011168288,0.014018659292352017
5.940987819000002,0.04642494667374537,-0.183120467289874,0.01950842082393013,0.1442888257639143,0.020007859611865252,0.21176324801097712,0.019936993597981918
5.9927179750000015,0.032084134994873406,-0.1637838195200433,0.033455935393358706,0.05983389269915458,0.017095134882882102,0.2222675825999389,0.024743441023698673
6.045013421000001,0.1105759315500295,-0.22783029694871013,0.07980722582714642,0.12172372011729707,0.058957221487017764,0.2851283313646639,0.017032623737817013
6.097616905000001,-0.042558272602726245,-0.10277797458010043,-0.011723590251012153,-0.05988005151328748,-0.057093004867714806,0.3102456141691892,0.04060922650658619
6.150029177,0.032385885530144494,-0.1626296770359954,0.03099798752576931,0.033281748813444555,0.022694277383317096,0.3469690195711905,0.04598304491129227
6.202312225,0.10953011166207945,-0.22168775081091738,0.07536351339241254,0.09246107355035686,0.06471522919373442,0.4059355742591736,0.034427794227164576
6.253733629,-0.03828061248659733,-0.08724335718391356,-0.009446805542288316,-0.09158521631711336,-0.054106340728809724,0.42735412490644814,0.05999911355128261
6.297801727,0.03626198490136061,-0.1693685077539179,0.0022869345088158194,0.08155798539489001,0.026060030170111395,0.47605037429503577,0.06411660782606182
6.339990849,0.03474251489065785,-0.16430181001577612,-0.0004014297001525676,0.07053410217658099,0.026300678996937152,0.5207459569200753,0.07065747600215129
6.374142164,0.03136260814636545,-0.13450548152083744,0.024388046206996986,-0.014690623897891688,0.028605186564522333,0.5318728887525881,0.0742782240774399
6.409232848,-0.03624021647496109,-0.06743002935259441,-0.011197647450485449,-0.12277570756097729,-0.05269472260265459,0.5583532444987227,0.07975936711226393
6.459159368,0.10496303124565945,-0.19692051447429598,0.06301977503471515,0.04274703766140125,0.07070889636998254,0.6107100149429932,0.06144885182745162
6.4918589529999995,-0.08389262189647317,-0.011457371383543498,-0.0667801738516277,-0.18577046221419075,-0.06675610646145992,0.602895641809058,0.1012806088745363
6.5233855179999995,0.10432365202670298,-0.19473502396979103,0.05971501619944053,0.03222167944785175,0.07142945749461355,0.6568744046354367,0.06716806571444267
6.555665486,0.10421295933069664,-0.19430277718403174,0.05841773758638665,0.02631027156719243,0.07177860179382219,0.6826749081024002,0.07046781428961076
6.606746665999999,0.028052540208530808,-0.15006721811007703,-0.013790210449050353,0.027835397093045902,0.024262647872080444,0.6991771897064425,0.0955423728160434
6.657986632999999,0.03419403802242402,-0.12770246479331504,0.018733908942353314,-0.05567490945153362,0.031023883659498444,0.7300769581299428,0.09927659956091214
6.690937987999999,0.03522908199473379,-0.12763117083913952,0.017817429280725383,-0.06526144832041263,0.031360878940803,0.7693937730422586,0.10381941091092647
6.722718468999999,0.10365015840594198,-0.195985602800241,0.051979365652680784,0.00025543159477376526,0.07213846885760347,0.7978194316344188,0.08301485589882175
6.7641398829999995,0.025181040296999736,-0.14814312664329032,-0.02188482832041211,-0.002536992440321464,0.021618102758788244,0.823846059768013,0.11098776821919666
6.796944373,0.034985132731056155,-0.12060344913284884,0.013240469996466032,-0.08256969389767867,0.031648910184373165,0.8383649982618769,0.11163300032811752
6.848346941,0.10070704531713517,-0.1878177988277772,0.04466687886358978,-0.018175647309756033,0.07194142076612119,0.870297495780057,0.09093543948117352
6.895916455,0.09900416836677216,-0.18363708800400919,0.04090680517151031,-0.026985720656956497,0.07128699280365411,0.9110032313184547,0.0944919222114214
6.947082989,0.018869171993780146,-0.13431875178927802,-0.034294417802191106,-0.03395179308112113,0.016955664407487265,0.957683913985808,0.125004459503259
6.998330586,0.03425434417163693,-0.10855280941207215,0.005058232314495448,-0.11112698047529666,0.030004521194956543,0.9730073933497699,0.12370336452900291
7.050411931999999,-0.08152054147474548,0.025563129682615565,-0.08368035353044133,-0.2870147611310924,-0.07776891884911995,0.9875821951112143,0.14805248609399044
7.101693621999999,0.0953919197554815,-0.17020952678595525,0.02904226564767549,-0.06595172474980171,0.06806350564292381,1.0605629181478968,0.10788893256482443
7.153305998999999,0.01391524244689782,-0.11318974860021233,-0.046109214984474706,-0.07804458322160603,0.010712142018441624,1.1033259160396638,0.1380360284417255
7.201646319999999,0.032218171452101776,-0.0758892210512106,-0.006410970217699543,-0.16367121891169992,0.027326556583376738,1.1418879078824895,0.13631505899701366
7.237428656999999,-0.023066603108054386,-0.0032996765146984406,-0.030063849486887045,-0.2692148175691663,-0.05747418907977765,1.170434228313048,0.14384306111128323
7.2791066089999985,-0.022779575211781,-0.0011459817345884883,-0.031701754355839815,-0.27708763494899585,-0.059217109893475325,1.2182386851214868,0.14529803657302975
7.327234736999999,0.031082684888473527,-0.06319651730379504,-0.014264154829228418,-0.1893238400651985,0.02263126086401133,1.2721575113080739,0.14264962855677069
7.376627674999998,0.0069972955272064345,-0.08632838476788463,-0.06204379490041253,-0.130851644211109,-0.0007380011892703838,1.3102848490026784,0.15023522562831396
7.428446998999998,-0.013720195107757016,-0.011251172421312123,-0.029268671789542594,-0.2997290715657691,-0.062945131313501,1.345122985732243,0.14972374452722248
7.480300417999999,0.009615434117133635,-0.09567723755014211,-0.06336720194150586,-0.1602242867168958,-0.006752107271465545,1.423670964447915,0.15323624341352968
7.530140390999999,-0.07206515754757274,0.06369859396291436,-0.09721938010610554,-0.4081808576268847,-0.09847622973567126,1.418773733939207,0.17159940367100657
7.561879148999999,0.09003827587405396,-0.1471240178003474,0.0011801148873679121,-0.19202098458677255,0.048883458129379775,1.519760684266594,0.12342833382632284
7.593574275999999,-0.0030333753004069476,-0.01767453042479888,-0.028490031131402794,-0.3489057627444667,-0.06862048845128428,1.5281992523635872,0.1491027065993864
7.630407800999999,0.041927819398137646,-0.07929228438883898,-0.019002385686060944,-0.2663245173238459,0.010608986822981734,1.5829453489247463,0.1429903932894845
7.662805785999999,0.04293442756786867,-0.08292214633956055,-0.01989272071381218,-0.272133563442784,0.008364835072970984,1.6145391888663192,0.1409073749388784
7.696196784999999,0.0031337032229082264,-0.030133992451520177,-0.028226279505107605,-0.368679923290841,-0.07363670252878697,1.6427113766211945,0.14578138255957676
7.727952469999999,-0.06335154481267792,0.053314275547628694,-0.10081599323751719,-0.47395969972802,-0.11467907972075768,1.682687329827516,0.16424488818149557
7.770699489999999,0.008396178402502721,-0.04400502528842841,-0.027174005705549016,-0.3864159034943126,-0.07848213560547782,1.740053761255076,0.13842879863788912
7.809648263999999,0.010790195635125633,-0.12450834313384823,-0.07512753905137906,-0.25284743771776524,-0.035165807871004554,1.7938422536053702,0.1428588914117422
7.862371193999999,0.011550264180497082,-0.13198762548197163,-0.07592414797332338,-0.2635261365762978,-0.0392839536154321,1.8429883927232686,0.1407834705805423
7.893897758999999,0.01819164939907508,-0.06949237632693933,-0.024153858033950502,-0.4141569112938009,-0.08656196136571885,1.8876615644836268,0.1235063131109999
7.9329531059999985,0.05415477479487857,-0.13281914187119112,-0.02201707263957867,-0.33670423677495176,-0.012158934721336532,1.9456059956756802,0.11337912550462967
7.965394721999998,-0.04904300178648871,0.011781618877905943,-0.09780119483807077,-0.5369265435084072,-0.1371162741343567,1.9738582558403714,0.13426123730433623
7.997441754999999,0.026133831597568654,-0.09791888383918988,-0.020573718941165515,-0.4369011302642147,-0.0953434483086449,2.0299049029170666,0.10247845621808553
8.038906799,-0.03523927969631629,-0.02846198613865034,-0.08280170480382597,-0.5357057368850925,-0.14597216474432484,2.043147937116688,0.12068300505921764
8.070429311,0.013687606039516204,-0.17704628472231768,-0.07746542794781694,-0.324861042445115,-0.06687324554138475,2.120209187946977,0.10223135498303382
8.105175719,0.07065599098583823,-0.1880215502252922,-0.009932944388825013,-0.3677272500852269,-0.022766961964267352,2.157160434173282,0.0762051754028983
8.157388195,0.07102953897256671,-0.19324506957524806,-0.010520535074662147,-0.3777345407746145,-0.026783875566107215,2.207247708698203,0.06866343120830204
8.209014877,0.07071508740140157,-0.19926711839179787,-0.010867083815035252,-0.3898438590004056,-0.032730743202718425,2.2679957419131824,0.05189856423148972
8.255459293,0.05079002237272743,-0.21406047357243016,-0.047032032175807106,-0.3701172669482117,-0.05871540285657678,2.349997699672349,0.02893310253820274
8.298412069,0.04962910899837619,-0.21839633819325233,-0.047131657250631766,-0.37890788043357515,-0.06475225757136621,2.388884791934082,0.01802361571505508
8.332718834,0.04886160016722726,-0.22466152871531392,-0.04715302632746657,-0.3903142296060541,-0.07151310260148783,2.444906660253134,0.007079309210865398
8.372061953,-0.028217339252442575,-0.0631803888144071,-0.07834447675741338,-0.6267705314541627,-0.1923039775078493,2.4546994989019897,0.022581066206108526
8.42412661,-0.02769861932144251,-0.0670527040833849,-0.07756783737257021,-0.6381252932523511,-0.19896638788043242,2.509198699273663,0.009812288478549322
8.4702432,-0.027495802542815015,-0.07429531476314533,-0.07507437234973918,-0.6472188868657932,-0.20743060200572166,2.5648490959890506,-0.014588054188344605
8.52184604,0.06764462246999191,-0.24827955254004772,-0.007637017504726173,-0.4532854167471192,-0.07616607817012015,2.6539645303542545,-0.06144929616117331
8.575155957,0.06649655895021982,-0.2576105045878086,-0.005543564852424148,-0.4590053626484806,-0.08289533891860576,2.7013088874893776,-0.08675229332603597
8.627814754,-0.025446848299617308,-0.09871638931982891,-0.06684091499500851,-0.6743337726192238,-0.23276859204203557,2.732524605513686,-0.07403996211571742
8.661395771999999,-0.02533544867596941,-0.10744649228553854,-0.06280236394378223,-0.6807883340626186,-0.24113511822150066,2.777996060916522,-0.10223064286458786
8.691597207,0.06361713226372062,-0.286770626496145,0.001359995157153415,-0.47924451120377554,-0.10753939872939036,2.859094718825584,-0.15058017805091284
8.743025048,0.03432802581744512,-0.2876468888266577,-0.03227736847336804,-0.47321678939657935,-0.14314262550270185,2.890360436752813,-0.1656272808949947
8.783048613,0.059941571768716624,-0.2988658272695354,0.005607500923346582,-0.49113951559546726,-0.12255615893109255,2.9432783827386193,-0.1970280950431586
8.816279395,0.029263404986707018,-0.2986698201542794,-0.027065927735769265,-0.489081519238813,-0.1613442607173911,2.978440756534562,-0.21311806812567036
8.849694713,0.056696081604890446,-0.30723552789489295,0.0095155930533674,-0.497521177574697,-0.1348052508063614,2.997370366435631,-0.23133332161852183
8.885546191,0.0253071503127799,-0.3051994121053908,-0.022996884616872347,-0.4998203272781886,-0.17495333449633857,3.03821923073597,-0.24709841029175178
8.919029219999999,0.022634805352351243,-0.3075344587272735,-0.020396322253453517,-0.504475855793894,-0.18187805054097161,3.0627742825832374,-0.2747736508071829
8.95182298,0.050755355743739225,-0.31827591414555706,0.015514749040033327,-0.5129130119236778,-0.1558991795445289,3.105327719787553,-0.29671320010099916
8.994856341,0.01817847041900972,-0.3121947753789967,-0.016199265640120693,-0.5168673020773262,-0.19700547467184654,3.1301312565949315,-0.31080284295139105
9.047001107,-0.03242013480040397,-0.13868692260282675,-0.03530438080621586,-0.7359278612453856,-0.31121132017168013,3.1135639423845984,-0.3038932740876987
9.088670238,0.043031129541589254,-0.32395934333852505,0.02252451030662871,-0.5268173569298886,-0.17992802766717325,3.2023906271243345,-0.36567050753667113
9.140109523000001,0.008895288511959584,-0.3142433248363989,-0.008003412179720866,-0.5359083815388833,-0.2242441506791348,3.2271071805229425,-0.379962072952534
9.179391606000001,-0.03799834066083921,-0.13898392576606233,-0.024319119844093323,-0.7558859996160587,-0.3408482380368582,3.231451777912257,-0.390946915986921
9.211670859000002,0.0024305005853960497,-0.31267104157329023,-0.0025498869033092697,-0.5478997765630793,-0.2423801962992092,3.2864515835389625,-0.4296328420882266
9.243573411000002,0.00018812233713502843,-0.31068336548686293,-0.0006055020779052334,-0.5495304562283532,-0.24758590212779902,3.29254692380628,-0.4448829573689768
9.295865520000001,-0.041899364562291534,-0.13511081066866237,-0.017053378367107234,-0.7663858305204607,-0.35972001038648205,3.292919011150178,-0.4442142822121781
9.340241416000001,-0.04398210802359323,-0.13241992488011553,-0.013321488026899152,-0.7686013924148493,-0.36833933338965846,3.3102401147591287,-0.47419745017637926
9.376261695000002,-0.007923883168061467,-0.3090481260921298,0.006781590693603325,-0.5638076760910796,-0.2720794936725474,3.373657795703305,-0.5107894565842869
9.427638038000001,0.02285526108322144,-0.32174265233645644,0.04018679631016658,-0.5537049500882624,-0.23913945021706892,3.3960620200151364,-0.5342834396116329
9.473580345000002,-0.048024554640830684,-0.13092089028223844,-0.0034831630414489316,-0.7790316166335617,-0.39210234264615373,3.3863522904372445,-0.5421823072411075
9.506651624000002,0.017482182024151454,-0.3184509193571953,0.04535250117408722,-0.5580015916836064,-0.25450778717156114,3.4272794555613446,-0.5888344199328225
9.538292631000001,-0.050767811219226966,-0.12738089033318276,0.0019194078306401239,-0.7845122689740239,-0.4055703407000201,3.420708697228119,-0.5862348850551545
9.570981249,-0.02002829654055481,-0.30225727038097866,0.019123998793371576,-0.581076177389774,-0.30888456291823907,3.4644680212101098,-0.6146835804270735
9.602391705,-0.021454456394435554,-0.29942027580100605,0.020240302312769853,-0.5810830782091677,-0.31168698218989277,3.4603353012963747,-0.6256511250542021
9.656504139,0.010515561363368167,-0.31334559840025394,0.05141001093784989,-0.5677608091680786,-0.27600293452887753,3.489349208303903,-0.6493077861246744
9.689253077,-0.026131442473339202,-0.2945790598623044,0.024529307461067205,-0.5870177307592014,-0.32557614756944814,3.490129230730816,-0.6657079264412972
9.725823626,0.00571789187257366,-0.3091026144645836,0.05614466700897872,-0.5718151643571219,-0.29097821799553536,3.5210783409705337,-0.6910717207879149
9.776907190000001,0.0045127985268128895,-0.3098081719743185,0.057628120572376894,-0.5712939661920532,-0.29538917197165027,3.5313148743667626,-0.7039172934836978
9.823331340000001,-0.031557558764864956,-0.2936026664497527,0.03129351673427199,-0.5928024937491355,-0.34542696970744874,3.538889663398098,-0.7194282628322898
9.855796321000001,-0.03347938351200543,-0.29244028552299767,0.03382962368180581,-0.5946610654135556,-0.35196850274691915,3.5510832424267593,-0.7337161685154517
9.903750641000002,-0.00021914103295842162,-0.3064204998665087,0.06394773670144151,-0.5718049973019868,-0.31147306400975666,3.549509415434477,-0.7515840054767913
9.956788046000002,-0.03648474518134105,-0.28926019141201037,0.03707762821948346,-0.5981219591388675,-0.36213655723850724,3.568022094143489,-0.7661712425842182
10.008525116000001,-0.03861104400325911,-0.28676559408158614,0.03945437791670595,-0.5999505686438266,-0.36932177725661075,3.578169213473478,-0.7874639756761603
10.054103834000001,-0.005578277483728485,-0.3008266586659693,0.06931249217661721,-0.5785913769893299,-0.3304213587963513,3.593048876879528,-0.8083046413052032
10.103423578000001,-0.041885682065710486,-0.281681758594262,0.04247033612783634,-0.603465126205419,-0.3796419035296604,3.593886907891088,-0.8176747010949466
10.155342800000001,-0.06528029445198348,-0.10176207728332586,0.03388820923902285,-0.802809087051313,-0.4837062133513971,3.573057497232464,-0.8243049312295974
10.206831438000002,-0.04543633618317534,-0.2766465805207534,0.046289540719091714,-0.6062007594248832,-0.39133355500263184,3.610104864220651,-0.8478684016316944
10.258842690000002,-0.06686100396210082,-0.09546605123468134,0.03739471734906492,-0.8019735210466651,-0.49236933248921955,3.572380464893626,-0.8570513883009863
10.309961064000001,-0.04837802608596226,-0.27213674268650406,0.04941595921261422,-0.6084112247043254,-0.4012863471065307,3.6230628208494755,-0.8750551688889905
10.361758931,-0.06839830294145449,-0.09138016093647297,0.040933221643992296,-0.8028627003890663,-0.5013831106418697,3.584271396304567,-0.8838272824818042
10.413073524000001,-0.015269437440175521,-0.2863097472161551,0.08007190980477871,-0.5839161490746534,-0.3659304312471268,3.641212023349985,-0.916027052061979
10.464475378000001,-0.051753730740539024,-0.26623927066342595,0.053495866251864956,-0.6082807604944963,-0.41319270690311705,3.6251909338386175,-0.911553482116865
10.514924272000002,-0.07035066343012551,-0.08807748135614275,0.04607144553398958,-0.8056223144314881,-0.5156511126432399,3.6132618611657397,-0.9264454341969366
10.566767677000001,-0.017950144597875996,-0.2827142436651218,0.08398715744365177,-0.5842724773912508,-0.3777980778928727,3.653139336241482,-0.9525923857023819
10.618098244000002,-0.05474451403536484,-0.26398456710575224,0.05765024387947392,-0.61179161746337,-0.4269615552211378,3.6519797080714063,-0.9502494418849283
10.653096423000003,-0.01942781508574667,-0.28107990277683637,0.08644804360225473,-0.5843458729120761,-0.38480346224535145,3.6601705482833826,-0.973067640516825
10.704508291000003,-0.05602901409447088,-0.2626666470658375,0.05968290357571211,-0.6120813948986362,-0.43315150136169234,3.6574064825984194,-0.9692167806564163
10.740622983000003,-0.07210133219962045,-0.08393533514272296,0.05258642507917191,-0.8047073219949454,-0.5318540323895488,3.627486786969229,-0.979566349098521
10.774124131000002,-0.05724968284688125,-0.2613566115132608,0.06159788527075521,-0.6123535480825057,-0.4390085310998233,3.6621323024560835,-0.986964100499734
10.826467262000003,-0.02113395754357892,-0.2781059669483356,0.08970864445382354,-0.5820348799642614,-0.39307581772355266,3.655399006915198,-0.9999536507419055
10.869264112000003,-0.021837621199268877,-0.2784960232080568,0.09098968979225035,-0.5843365857642975,-0.39814809436977444,3.672303459068979,-1.0143186370091386
10.921380268000004,-0.058613275790221284,-0.25868487104402205,0.06391346038344006,-0.6102231360187536,-0.44473749896696674,3.653169543176733,-1.0054197972920982
10.972266184000004,-0.07335483957757435,-0.0813758108953597,0.05778208950720259,-0.8038392243582289,-0.5446468588913287,3.6382537806380753,-1.0191921375851165
11.023057210000005,-0.07346343192391062,-0.07977480807793988,0.058654901624609845,-0.8012839566026767,-0.5451189613347551,3.625620549795193,-1.0212855444056133
11.073249804000005,-0.023612754031936335,-0.2761905244952365,0.09462241114383575,-0.5841422364613726,-0.4084016230477543,3.6794060875322265,-1.0450289662616665
11.107646691000005,-0.07397916956807736,-0.07949366566479003,0.0607495731298538,-0.8029009162725661,-0.5520465963894848,3.64144297847001,-1.0431729829450447
11.152797210000005,-0.07415614868648288,-0.07918090820157833,0.06144284726219947,-0.8029636100204021,-0.5538078526058535,3.6436935749489026,-1.0479707402710159
11.204781282000004,-0.061396958539489205,-0.25513020778289425,0.0686301759454169,-0.6105998977312899,-0.4591656778966571,3.6617835032943544,-1.0476835823428234
11.256644952000004,-0.061993577775688834,-0.2555016141835695,0.06961949767160917,-0.6129691466350271,-0.46356420122465997,3.6773497576528853,-1.0594522125184382
11.309573399000003,-0.062325854340412386,-0.25479196422686295,0.07024324750366273,-0.6127469527881754,-0.46569603475427823,3.676794958674239,-1.0667883590615463
11.362024056000003,-0.06280529836146168,-0.2543188006855,0.07103252672866633,-0.6130475454186632,-0.46782119953062457,3.6793365107797698,-1.0712466949895807
11.413788068000002,-0.0630139704836317,-0.25365727796417137,0.07139991842885914,-0.6128506594630925,-0.4694656984970653,3.6783370594836735,-1.0777817091855
11.463720071000003,-0.07482772777154777,-0.07580026909579832,0.0657979978600271,-0.7982996687533815,-0.5640697060817592,3.6340867878141725,-1.0828049920882579
11.515938747000003,-0.07435089997795492,-0.08214861335317207,0.06749158333227377,-0.7958572554283301,-0.5671996216106628,3.647806096692139,-1.0898669789076378
11.569587458000003,-0.07210403186338771,-0.09353924228217855,0.06946608470943476,-0.7845565083986543,-0.5660366713449123,3.6309066158957233,-1.0901498384694166
11.622032631000003,-0.05886816643368664,-0.28293385484492184,0.07816623760508723,-0.5931802243813148,-0.47412156286911594,3.673167648649327,-1.0931861560785632
11.673722017000003,-0.057348808400509224,-0.2872269496878802,0.07943901935772867,-0.5896243643239225,-0.47228043178089335,3.6521695395805667,-1.0913083272582575
11.709665525000004,-0.06800528396153824,-0.11196890311871514,0.07460995801447098,-0.7804060633715003,-0.568045970801792,3.6280212491997683,-1.0995939140932272
11.762082565000004,-0.05706426384138358,-0.28619736921290784,0.07981037669172233,-0.5921190383690992,-0.4724942981764119,3.6423361607262663,-1.0928671396268603
11.814392317000003,-0.01994998711580689,-0.3012281526869628,0.10767757729966275,-0.5675252328012489,-0.4272982489304007,3.6576775066052925,-1.1093323034156357
11.865555752000002,-0.019845820948427528,-0.3000460032522424,0.1070635801846367,-0.5635921681808669,-0.4252362371076024,3.6407188992731303,-1.1043889744958748
11.916666496000003,-0.057561304749739306,-0.2821075037155212,0.0788913764786844,-0.593704536820895,-0.47384756010022056,3.6409793173744194,-1.0938484024112998
11.955541123000003,-0.018995858547613417,-0.30203641447956053,0.10707061665357247,-0.5610960597684065,-0.42541112824553823,3.6380424023933258,-1.1026952098867022
12.004147757000004,-0.018030173402446746,-0.30491339770553405,0.10726945241269097,-0.5587004125330806,-0.42412594185948926,3.6334178831236756,-1.0992767907629701
12.056479920000005,-0.054805582989673016,-0.2886462568079898,0.07875129433115664,-0.5848495563599485,-0.46931315735708545,3.6137432205970477,-1.080523604575209
12.109528054000005,-0.05412951411243947,-0.2878922011832892,0.07827327819291059,-0.5862025201732004,-0.4674120925637181,3.6078726597918087,-1.075749063023731
12.154468764000006,-0.015218077320947961,-0.305549113826572,0.10610847927001003,-0.5561779291787758,-0.41725727066364515,3.600796400735489,-1.0792698413279063
12.187662352000006,-0.06418749270542619,-0.11250611554265565,0.07105514272878108,-0.7696574243062134,-0.556073048468283,3.5563988254765353,-1.0642382912488373
12.226368655000005,-0.05176646975892636,-0.28947104383322725,0.07605587448794088,-0.5781230016795086,-0.4593128439014323,3.567820184409122,-1.0518482046287152
12.277577389000005,-0.011971736275113446,-0.3118600343179233,0.10493679563509696,-0.5482636514167993,-0.4098436201760362,3.571808342167999,-1.055363670540332
12.316961515000004,-0.04830889547044336,-0.29819934925270924,0.07495043513200413,-0.5694340000771395,-0.4517313810213059,3.5413615051829215,-1.030034477537863
12.365573395000004,-0.007811311664371066,-0.3235822852159664,0.10460826561803067,-0.5379759568287545,-0.40171922151345035,3.5419023446200697,-1.030672030715844
12.418186415000005,-0.04266880265476857,-0.3184210743346661,0.07508544727496126,-0.5529622062975312,-0.44208284027371786,3.5080308432404705,-1.0022088325007141
12.449819315000004,-0.05193120084084953,-0.1598415062085524,0.07002193408256109,-0.7306871725255658,-0.5305052817039246,3.461801873947704,-0.9871465622389025
12.482098568000005,-0.04894053643194124,-0.17135485720887306,0.07013671806565024,-0.7197955759344796,-0.5237463865616094,3.4309789265885384,-0.9698847010595709
12.515418757000004,-0.03200873975834366,-0.3561179548621944,0.07691611096754156,-0.5297589688688287,-0.426000406464731,3.4568754035990517,-0.9561802094389869
12.548985471000005,0.009387680440012985,-0.38470525936457983,0.1075860221188357,-0.4969967110577358,-0.37410727897967666,3.4456327926279737,-0.9535486419878654
12.582131137000005,-0.026152909672722116,-0.36957724322870794,0.07594273892788829,-0.5189590754749184,-0.4121391632845207,3.4027439724934063,-0.920431413458285
12.632833709000005,-0.04006857902241382,-0.19992885398133547,0.06860968054650474,-0.7061530521868671,-0.5028063687661241,3.3633875315351665,-0.9102251128883111
12.684974421000005,-0.038186340350633174,-0.19372915573604582,0.06498350914197344,-0.7062921182250835,-0.49009987043431064,3.3069075057477875,-0.8726278562791936
12.741166580000005,-0.03854677137353067,-0.18442567864742057,0.059996786881815575,-0.7103089788888919,-0.4818544938490416,3.279624262795481,-0.8399067600533263
12.781918753000005,-0.038215111807483666,-0.17889667636753534,0.054137095462463716,-0.7054673528637858,-0.4701646452164694,3.237876878845911,-0.8106767637506322
12.813485849000005,-0.036792717062033936,-0.177745598888793,0.05098088830996013,-0.6981379369618462,-0.4600237893122654,3.192797995965455,-0.7728489509587392
12.867123830000004,0.024177415041000825,-0.3787541760735461,0.08955781122084318,-0.47465789650704554,-0.3122023180821927,3.2149901346708565,-0.7608734153696726
12.900354135000004,-0.03164717172686758,-0.19273522178141012,0.046180295244984244,-0.6825305492212326,-0.4416629738644793,3.1399062405042364,-0.7220018429250699
12.952182520000004,0.03231652416453413,-0.38733511936085013,0.08656786412008217,-0.4579006046407799,-0.289209874252257,3.1198469632568684,-0.6886727820442496
13.003914583000004,0.03688474750140925,-0.3885372311723729,0.08303164818752451,-0.45442408758169345,-0.2745770809495973,3.073796062395401,-0.6545219813122483
13.056503046000003,0.041190723981516325,-0.388104967535954,0.07989047531298557,-0.4450995085105362,-0.25866789919852934,3.0005577899884592,-0.6026842906652017
13.108973968000003,-0.022435824740767843,-0.1962255649033753,0.03069308216972391,-0.6452062667965733,-0.38459087666307107,2.8758077565514886,-0.5375844070429437
13.156630027000002,-0.020147451214210736,-0.19598735646076262,0.024439620780726125,-0.6412517461594724,-0.3685766585713292,2.82693582500732,-0.5005820349985315
13.190986144000002,0.01488562600720549,-0.3587528240516432,0.03328100171792028,-0.4344532397100769,-0.2531050708574636,2.7633634241836704,-0.44819197918534814
13.243739831000001,0.01813708685253091,-0.36375983648280485,0.03087597690308343,-0.42269108564174795,-0.2428576495572405,2.7229271298514357,-0.4186254581265002
13.296740758,0.024397376242416828,-0.36902593205812595,0.02906111551056136,-0.39802397016526314,-0.22284402430157346,2.6094219838630486,-0.360447812006283
13.333250987,0.029893805376259446,-0.37032699234912425,0.02650232017738458,-0.39045845229076054,-0.20687430024831568,2.5454576585643838,-0.3254076936112247
13.365144717,-0.011502590942174136,-0.18988151758670044,0.005688341409642235,-0.5782500293825165,-0.2923482928320064,2.399210342896239,-0.2668085465197283
13.396565425,0.06903588303261725,-0.35952120056883713,0.058078793091561484,-0.37319846680579183,-0.14183370613006935,2.386621388436193,-0.2523532807115513
13.431452977000001,0.06777937867322706,-0.3395167442736642,0.05440884129926888,-0.37693336186084964,-0.13452742909844098,2.331084022035792,-0.2264441207640884
13.481865155000001,-0.020196749775526913,-0.12957887900894477,-0.0126028856995498,-0.5842137227640841,-0.26278266862182253,2.2119063668057226,-0.18131610977212756
13.532470929,-0.02732089829498526,-0.09497545544704397,-0.023232177301738786,-0.5900207015668171,-0.25261092650365474,2.1496106965691237,-0.15294658370867972
13.584978329,0.02261775218938455,-0.22275231484712285,-0.00814432587784081,-0.3808559198240367,-0.1358191078636776,2.0755223981255924,-0.11894909964806918
13.638744341,0.054120129272985804,-0.20943439476668047,0.024257902086400086,-0.36466462758883095,-0.08512100110975471,1.9686124012574742,-0.07846804276789378
13.677652584,0.05092863811704635,-0.1802809504071024,0.01851783242949462,-0.35131740474467404,-0.07278574792317542,1.8573997240143547,-0.04051110513048314
13.710089432,0.048736291516964896,-0.16483612756542745,0.015472168913262878,-0.3419472056256793,-0.06683911596644801,1.7960104263251189,-0.022874980037331565
13.741983639,-0.05440221729805232,0.019406550810765623,-0.05986423994418723,-0.5236739778516964,-0.1964398298540068,1.6843119718159973,0.010813672234401736
13.7784469,-0.05813438173721278,0.03162340425068234,-0.06407368548642135,-0.5148754033929341,-0.19053885830761763,1.6340294300746712,0.026297190373039837
13.815302836,0.04202365725062302,-0.1179888503828046,0.006370919021035213,-0.3145931468580358,-0.04679320554598508,1.6067073007988095,0.024661257531143885
13.856446015000001,0.010707525100907648,-0.09367111876504003,-0.03791261320629227,-0.28754298182262517,-0.06768557760437238,1.540931973416405,0.038178921453947405
13.889192091000002,0.008901047546659047,-0.07896467527628356,-0.04065809970385035,-0.2686267716110036,-0.05973110462350516,1.4615907279483067,0.059040132434027524
13.921232687000002,0.007495283041115691,-0.06893431827355541,-0.04238929006259882,-0.25298705766470264,-0.05390492376497627,1.4023061130001289,0.06755860153069616
13.960194574,0.006555059073208183,-0.06393406047190185,-0.04378401461774333,-0.23820171349533384,-0.05067606184638136,1.3647370105202554,0.07525453688886752
14.009892927000001,-0.033458846291798704,-0.04161206656944017,-0.07799752306228339,-0.22165384398934526,-0.07232131366097247,1.2980602709540683,0.1028086691118987
14.061031566,-0.032157670693489446,-0.04075915843346518,-0.07559639283478524,-0.19124996613810527,-0.06455296187504363,1.214966082435893,0.11292491115821024
14.113020406,0.014676966695680355,-0.040305636165863086,-0.01623611325565462,-0.1967731966918486,-0.019636063333599595,1.141696351290565,0.09737608205255853
14.148968444000001,-0.09574844052145157,0.10896047820232663,-0.09679068570876596,-0.3455722354529079,-0.1337096715504967,1.0332713438416805,0.12089330589642508
14.201858029000002,-0.0208072046089431,0.007791578006326942,-0.015297414107978708,-0.2259115148528714,-0.09008279662373829,1.0003245897261217,0.09540554093262701
14.253958211000002,0.016449575728646082,-0.04036662837556253,-0.008742025443996083,-0.13061976814135526,-0.006164029582157256,0.9311792466686355,0.10626840927745042
14.306182370000002,0.0571965309306027,-0.09790998127881591,0.007580521014916377,-0.06730755774184108,0.028219059792191484,0.8689850916133396,0.09798099189009712
14.359468207000003,-0.027825217129915952,0.011911865972278661,-0.0149616846652312,-0.1669018166224949,-0.08205456467702184,0.7941012492367102,0.09498379914798914
14.410469279000003,-0.10083280073622579,0.10143261072974724,-0.09161875910685412,-0.2343995750164311,-0.11076970997298581,0.7049351278144789,0.11601058295098973
14.455629811000003,-0.10235538973302406,0.10140885109762335,-0.09153225717577188,-0.2143465833716725,-0.10742177857178441,0.6470230664784449,0.11225273530536228
14.504166112000004,-0.10302435562731484,0.09851799150652099,-0.09052970513381405,-0.19714714796632513,-0.1048663961082508,0.6036616597224692,0.10696814407923574
14.555183635000004,-0.01528577657371142,-0.044422824471586415,-0.048346609246267394,0.027606095731140264,-0.012548995873697878,0.5729598566639215,0.09661391732735398
14.607582317000004,0.06781797145119196,-0.10268963209943602,0.02847224980793097,0.041799708142664746,0.045844547697425936,0.5378962875885579,0.07004956524485288
14.660772548000004,-0.09870734133769471,0.06976395406935304,-0.07965441663774035,-0.13903202822479957,-0.09629805373287009,0.43192221320249846,0.08315660245144983
14.709617124000005,-0.03407314248589555,-0.011394746785746798,-0.005515867041539552,-0.05255868613675836,-0.07190541080394185,0.3767381194252052,0.0502560053136707
14.741730437000005,0.07964246819005971,-0.12909315653074338,0.04747001645028438,0.08416146424050965,0.051068888323924914,0.3593042273875264,0.04236933755495549
14.781687484000004,0.0016514815094117539,-0.08092666409212755,-0.023697284280724967,0.08957357286018333,0.00016283777814881214,0.31730856565442334,0.05599857170417144
14.818380580000005,-0.03297427561257651,-0.02351726202220814,9.157050596599719e-05,-0.03263339048976367,-0.06904528696102645,0.23785294587567987,0.024743171228989613
14.854216800000005,0.00410443655514291,-0.08238814319243708,-0.019573419517363716,0.1033508632511597,0.004438985709871251,0.2154101403682786,0.037184615130114014
14.889477001000005,0.004330920351012861,-0.08278772556159258,-0.019192766191734507,0.10860531010185687,0.0054317645217991746,0.18759678134688243,0.03131262182712729
14.934407697000005,0.004282984225961724,-0.08064106296292334,-0.01912579738799505,0.11451828427823788,0.00700268007994542,0.14892819684467873,0.023281979024171322
14.966868148000005,0.003966156616081908,-0.07932634054538405,-0.01945576416709351,0.12442582621278726,0.00848552159749211,0.10361738425591717,0.01305211438148044
15.010013089000005,0.02099076417820234,-0.07336169275902871,0.021650283252265125,0.0732001799275221,0.016628774438589032,0.10159194282771179,0.0026240642539147752
15.056114182000005,-0.045187726962389096,-0.01774663038644009,-0.011072871523340548,-0.0018563597636336857,-0.06734861962920578,0.0590055429959239,-0.015257763515349
15.094320759000006,-0.048081389757922664,-0.019258668820925022,-0.014257160509882162,0.0015988616691990918,-0.06850301469073052,0.06285471627092205,-0.015472548083558139
15.131683096000005,-0.050313997381106576,-0.019165896268817928,-0.01668565054314918,0.0030867862376787744,-0.06916802673566677,0.06486656816039485,-0.015656347728255127
15.184302315000005,0.004548210457639453,-0.0852326625290407,-0.01992285289384548,0.14080612499679301,0.007342424788320273,0.12022483414174154,0.012689020321188587
15.235453829000006,-0.09949443773789181,0.026169032071531317,-0.07336975260683075,-0.040568481044223975,-0.07841507692007334,0.0565435959582689,-0.0017273601929327813
15.287572608000007,0.07853406961946695,-0.12977332924781734,0.05249489064180673,0.13765246582359622,0.04808453288294101,0.13360024853711203,0.0010736201904534438
15.335204587000007,-0.05696457026476,-0.021418515812037145,-0.023327902851033585,0.006933475515618934,-0.07178042241711012,0.07544195142336099,-0.017253451847438584
15.367909655000007,0.006497460153071481,-0.08224847051598201,-0.01774771219234314,0.14503972001114504,0.007386651069223136,0.12886319030421203,0.013602026403719094
15.406372294000008,-0.09864843828397986,0.02388586526706561,-0.07352119321799214,-0.03071944607642213,-0.0755255311942298,0.06794874134074586,-0.005106940233430122
15.444411025000008,0.006011207155290742,-0.08237736535736008,-0.018664336131003923,0.1523430446976004,0.006994912926799071,0.1346607416576086,0.013883435661317625
15.494272933000008,0.07401121101918776,-0.12352687466482004,0.04787526396294169,0.15013519083892576,0.043683586650720176,0.14580389303634161,0.005630670225471831
15.528902040000009,0.009980222105371332,-0.07309647565888192,0.01103446449272809,0.10220521258744203,0.004506044841247565,0.13435094778681902,0.002172117193265814
15.566366659000009,0.004495163912715719,-0.08052934842102705,-0.021751964696455142,0.16741106397332198,0.007546386264009705,0.14281379604630445,0.015297347521286477
15.618364320000008,0.07054988033619246,-0.12136846395902263,0.043347179171877866,0.1665268822691733,0.04120782285585032,0.15485212451753708,0.008102240437846608
15.66050480400001,-0.06801128349898584,-0.01704146914648421,-0.039296891274513884,0.03705299125436846,-0.07084006575060589,0.09359705498658429,-0.021473745232054423
15.703260408000009,0.0033006357393031162,-0.0814507318180708,-0.024603352639032842,0.18561049789116782,0.008115023245676077,0.15141858420795076,0.016781103106780465
15.73546312900001,0.005642929589794968,-0.07430974633555704,0.00457787151130884,0.12962654827729173,0.0016058729954498967,0.1469197743866263,0.0013153244071737564
15.77270864100001,-0.10212491152082108,0.015258774816302825,-0.0826417915287064,0.020174406383991865,-0.06819280583122966,0.09290188441327994,-0.010728781805795942
15.804677950000011,0.06665470276091957,-0.12323634749301976,0.036986816165660526,0.1967332743228417,0.03835659402991143,0.16815335850069518,0.012029896146078505
15.83754538100001,-0.06967858494795508,-0.021455362845277395,-0.04492491842795982,0.06379682233377384,-0.0684035866736026,0.10316435202079757,-0.024102368317782306
15.87034891700001,0.004373473763034347,-0.07979534928148116,0.0013512013008694617,0.15131830324526863,0.0003187984809058383,0.15445325571816876,0.0006159593420844153
15.90294192900001,0.06571880061359509,-0.1282897923944887,0.03434247794719965,0.2142813234439909,0.0373771388324971,0.17466971798512126,0.013898367658834426
15.936563478000009,0.0036092923301117995,-0.0942239774000885,-0.02888222966070671,0.2288965232480012,0.009925986202763002,0.1678355685539274,0.01962783425666873
15.974607692000008,-0.10045959018040372,2.7693784810364768e-05,-0.08505658167719218,0.05558836865292671,-0.06339029904297198,0.10471076947060999,-0.013292229008527173
16.011407838000007,0.004513694531797688,-0.1013294423298723,-0.029310048767825066,0.24167070513372815,0.01045646617127313,0.1726334236986478,0.02043432100673849
16.052531229000007,0.004977263726100025,-0.0949197546913814,-0.0005280348775298684,0.1796169031854892,-0.0011487175368580815,0.16410624040299518,-0.000414129179338474
16.104675518000008,0.00545162803932364,-0.09932692018575143,-0.0005030581559578587,0.18503846807758634,-0.0014823388236571468,0.16610332346855364,-0.0006581120641546903
16.14250086400001,0.06656138542104632,-0.15027564996294537,0.031593462333028226,0.2500854980471529,0.03551820838896386,0.1886115888823824,0.017998752222437818
16.17545603400001,-0.06484201214399299,-0.05289286330207278,-0.04676690174143306,0.11236987716957501,-0.06379501315966675,0.11910331635771951,-0.028481259001762748
16.211830841000012,-0.09423901737938169,-0.027967532337822728,-0.0828128926301531,0.08773178335808478,-0.05815455715720436,0.11454751732327682,-0.015813503077147444
16.263844715000012,-0.09306173727615168,-0.03414269417292461,-0.08230388706610006,0.09324616638388297,-0.05755866528459644,0.11654409506618249,-0.01617552254637386
16.316300855000012,-0.06147794133137961,-0.07147584647294833,-0.045566705905582705,0.1278573641613781,-0.0625245899374555,0.12458685357621571,-0.029868889010920274
16.360443339000014,0.011363349965128765,-0.13339495734474646,0.0018612756529019885,0.21473196689297094,-0.002494288998936317,0.17435438388438768,-0.0020425190439845023
16.412438139000013,-0.05799264399288787,-0.08567584441767305,-0.04399839325903321,0.13783621847620459,-0.06122479954202726,0.1267711961541224,-0.030766947767383573
16.464620337000014,0.014622064974373015,-0.1503041525228507,0.003091829028137377,0.2283386179424956,-0.0026736101949371787,0.17784848468810163,-0.002515464483846132
16.517105803000014,0.07617822436010302,-0.20559505872584596,0.03314021192134986,0.3000327559982773,0.03550318549964281,0.2030700882299041,0.02312763952547272
16.570052371000013,-0.051956856831577594,-0.11369065344689852,-0.04220605783423887,0.16105577424360248,-0.059036985170159303,0.1308241723559167,-0.03192975974953613
16.603258834000012,-0.081127238528751,-0.09484552964318523,-0.07730669374801605,0.13809261193974026,-0.05165076370093628,0.12791237180823373,-0.018685167398410713
16.639003263000014,0.021966022036810577,-0.1989345415657397,-0.0241454989689216,0.32843614307659225,0.015327632472186327,0.20299804323818013,0.025858905407281082
16.687630163000012,0.022103693543834346,-0.2021955753865926,-0.023847923707908666,0.32738577078036185,0.015227046413954767,0.204199746264149,0.026013835296075087
16.739628063000012,0.07793990531384608,-0.23448834136550584,0.03329000009348884,0.31063999354413496,0.034340561612555984,0.21176461060200552,0.024856973903665
16.78977321200001,0.01888500921510222,-0.1911773190642458,0.005520201690416795,0.24194549707253454,-0.004450526259820667,0.18682749473605936,-0.003800372290130342
16.84054802500001,0.024028142906043375,-0.20995915985671543,-0.020778476191414933,0.31676881792675887,0.014936618245240157,0.20642103659106847,0.02663347723573528
16.89240001300001,0.01978725764950791,-0.19366724480355568,0.0077314809094043875,0.23185709986854453,-0.005096596852348694,0.18655153726040105,-0.004016906474255386
16.94392608200001,0.07973814432675005,-0.24339855472106428,0.036985961548592135,0.2955239837088928,0.032917835864612596,0.21464547840483733,0.02596246111776093
16.99542735600001,-0.04876815288603942,-0.1417224918721713,-0.03612680005314343,0.1394015086363037,-0.05947246811003793,0.13759039594375247,-0.033988113429942506
17.04659770500001,0.02597356771990099,-0.21678436130172454,-0.01664737824215163,0.3012831748833163,0.014471638353742575,0.20836824773847681,0.02724868760231571
17.10024355400001,0.01997469622755259,-0.19961171171015907,0.010761781581770274,0.21577573612423032,-0.006660960123060872,0.18850891033428463,-0.0044483879987155875
17.13932250500001,-0.04863842980999135,-0.1437526645798648,-0.033878443796982245,0.12587288385448,-0.059890672237866635,0.13818614350832165,-0.03440315737336912
17.17190860300001,-0.07737541429332775,-0.11605886253399585,-0.06725549597754538,0.09468956400320291,-0.05117972731836213,0.1317324006344645,-0.02042267828339082
17.22299955800001,-0.04848758214780643,-0.14420654154072923,-0.032914795571857704,0.12063410382932895,-0.06000749538343688,0.13831476422397687,-0.03456182579317219
17.274714693000007,0.026878585235864994,-0.21948301907153786,-0.013341774447588214,0.28577269094917285,0.014079691938123182,0.20978797129760868,0.027739185795169676
17.32678268800001,0.02017727671070454,-0.2013818586140339,0.013397983384864958,0.2012991696184377,-0.007609432824628998,0.1890353519516326,-0.004736489632086713
17.37819360100001,-0.048208700542078216,-0.14532584171134377,-0.031506291808297546,0.11349605985124112,-0.06005095782751184,0.1387144039853207,-0.03484544125500365
17.42886804000001,-0.04816888274428587,-0.1457101610768462,-0.031267636581583005,0.11221240760300459,-0.0600114160102018,0.13889123477977455,-0.03492370964444108
17.48255752000001,0.02754417420115529,-0.22165884507327563,-0.011862819787921369,0.2805503330302339,0.014225119643887398,0.21107815238875866,0.028084262749383936
17.53363417100001,0.08046099814744594,-0.25121391484465133,0.04228237096672942,0.26621270690413185,0.031159416246121136,0.2186507438316036,0.02768446713400352
17.57989595800001,0.02769182558091655,-0.22244111880166018,-0.011676779475375817,0.2800065815778589,0.014411063559411786,0.2117788355503953,0.028227694480008475
17.631353124000007,0.027721173184380565,-0.2226458918746653,-0.011674706924845523,0.2799764575472193,0.014502641764065885,0.21207525922603426,0.028283937112198253
17.66591714200001,0.01981907569902872,-0.20338806702926787,0.013892640934357601,0.1963568409138746,-0.007873121208471334,0.1904136021022241,-0.0050436655591334445
17.69763825700001,0.02773626767660744,-0.22280453834310107,-0.011751975841272312,0.2800773188717571,0.014683753441326134,0.21261231742547687,0.028381605588805602
17.72931168900001,0.027732820720166737,-0.22279542417528703,-0.011797255863115683,0.28013854662731535,0.014751016370746162,0.21280009754530238,0.028414780170387236
17.76187752100001,-0.07735127813548762,-0.11828302802012555,-0.06519475468399766,0.0811319735413718,-0.05002901286810314,0.13353416732502937,-0.021070957362660975
17.80928133400001,-0.04874037447891046,-0.14620755888432732,-0.0317255730030843,0.1094109814778558,-0.05928974941444517,0.140364409765443,-0.035350119586677296
17.84381125800001,0.027706820138719276,-0.22255887161163176,-0.011984419439993791,0.2803649376648218,0.01498620260833461,0.21342474289535987,0.02852231412285216
17.87653897600001,0.0800318982099921,-0.2513745179934371,0.04147548114085667,0.2663791054954232,0.03143093356611369,0.22060691442179398,0.02826937646212612
17.92635796900001,0.01911466624160495,-0.20253997916823105,0.013047409378573486,0.19613344673220728,-0.007776022870598965,0.19125454270068487,-0.005201392997427298
17.95848558700001,0.018986459671825443,-0.20230692487941676,0.012884678763956936,0.19608113209235623,-0.007753738091618635,0.19139510680350216,-0.0052284951800988175
18.01047752600001,0.07989200298711349,-0.25095559813088164,0.041167556326688934,0.2665316276996784,0.03152707361648524,0.22110562696548391,0.02840998871941482
18.044303877000008,0.02771832095698997,-0.2219677443274692,-0.012258017570938994,0.2806675345341525,0.015371785211217865,0.21439592435115157,0.02868008912847528
18.09574626200001,0.07982897007106604,-0.250747385230349,0.04098588860241765,0.2666273931192362,0.03159243397125268,0.22143968091457672,0.028501305544136935
18.14759348100001,-0.049450080933125834,-0.14464725728369843,-0.032782253658738124,0.10854877626687827,-0.058611982716712,0.1412722480440757,-0.03554253965105746
18.19944403900001,0.01855920456957666,-0.20169935475745485,0.01230012527363142,0.19585294589956226,-0.007657466741356302,0.19195353911413174,-0.005334494075041572
18.24744389800001,-0.07703180710708155,-0.11649858065365924,-0.0645739175712961,0.0799263151034112,-0.05045162548595649,0.13481708718954685,-0.022406143679663062
18.30020116100001,-0.043717266490280446,-0.1441729811704904,-0.025558954964341973,0.10793437323149604,-0.061544358337168086,0.14195860245990058,-0.03707268672556551
18.35198376900001,0.027470822183666876,-0.20072331641353777,0.02396504967540058,0.19488645044668773,-0.011678034889864217,0.19264051774644816,-0.0072209450496281136
18.404572470000012,0.08983020398996168,-0.2492541110996016,0.054241036538018386,0.2655619473032749,0.027688978263955295,0.22274019473214401,0.026963511361046456
18.457121356000012,0.03751522004649434,-0.22041827843392067,0.0007977407084263336,0.2795529401965945,0.011697577541931474,0.2160460964725603,0.026895812010626036
18.50257681200001,-0.06937240180250223,-0.11439681700862932,-0.05412882956221162,0.0777948523865811,-0.053078688102475916,0.13518553130998404,-0.023685122073743518
18.542071326000013,0.08865983190304376,-0.2492431727015755,0.05262960006371768,0.2655473735805393,0.026547593744956854,0.22321152855808893,0.026241093431350317
18.594839318000012,-0.06980341656255956,-0.11428127799445378,-0.05510999207799558,0.07759553306564987,-0.053686728985007495,0.13509358067527574,-0.024320190123445863
18.62681792500001,0.03599708262598083,-0.22086807981259757,-0.0019997472842112193,0.2798884809748143,0.009836986864743021,0.21655666802614598,0.02564643308897194
18.677502616000012,0.02633796803433822,-0.2000021015947019,0.022326371574332194,0.1939643407318655,-0.013998815575955992,0.19291228636905344,-0.009188038245127822
18.71122239400001,0.02569400781017673,-0.20013785405619802,0.021374298394144692,0.19398249436270168,-0.014592546566861753,0.19291648874749265,-0.00971271535063843
18.755237563000012,0.03472506828565079,-0.22130190341911993,-0.0041046663290937885,0.28008138817324185,0.008523806442010052,0.21669314830265868,0.02466249103157156
18.790078386000012,-0.07047577333421304,-0.11458517447011939,-0.05669488169162898,0.07736178458628497,-0.057097041941484676,0.1346069502256943,-0.027185599462901614
18.824305519000013,-0.0701783986759294,-0.1144257150090795,-0.056443526037610915,0.07714915531559516,-0.05734397781671888,0.13442720957501544,-0.027424381590091907
18.858271345000013,0.03518137629609808,-0.2214887224912207,-0.0035701794211061236,0.2798992305380233,0.006221769943394228,0.21675900451373206,0.023214118291356205
18.907168612000014,0.034564272782477194,-0.2215049407389022,-0.004278158558313268,0.27977912983957165,0.005998010643483795,0.2166790428419087,0.02299646651748984
18.959321961000015,0.08555167261141502,-0.25034233076763474,0.04782181851529962,0.26564806410836617,0.02106731415004634,0.22423649003647378,0.02257022107109423
19.011967168000016,0.032822380788879515,-0.2221683545715961,-0.00591977433598759,0.27979655759151234,0.0034615671581450353,0.21661758898258152,0.021267676921984866
19.063750729000017,-0.07095000049551349,-0.11458461165338162,-0.05670943298822497,0.07632846643708421,-0.061722009385411336,0.13309552031995153,-0.031199808749859288
19.115844234000015,-0.07203889917911792,-0.11452931921809242,-0.057830299647470496,0.07607584699008002,-0.06170743194408352,0.1326110342940486,-0.031437875907822724
19.163535341000014,0.032646822364911725,-0.22258311254674754,-0.004998135165978603,0.2791505220413451,-0.0008130930601813194,0.2163288057523727,0.01862762354076098
19.196592077000012,0.02659736041047308,-0.20050993056077152,0.024499854331812933,0.1920282711368256,-0.02583371962207979,0.1922685178519234,-0.018041687124196036
19.241987213000012,-0.04136707199742694,-0.1432429146800305,-0.019853651193408088,0.1041239184567555,-0.07728402820258326,0.13957016328457844,-0.05004568420416058
19.287488922000012,-0.041176317908355256,-0.14329910814656455,-0.018854633188375866,0.1038743987013392,-0.07898264167172118,0.13925391346441723,-0.05147862049990379
19.331590638000012,-0.041366828924266484,-0.14348597980655528,-0.01836925078407645,0.10376992638056835,-0.08061409473511259,0.13897342938625717,-0.052625685773264236
19.363547549000014,-0.06937313998198083,-0.11441156871295433,-0.05115262676855979,0.07433170098719329,-0.07109879670512766,0.13031230421529802,-0.03846645723531386
19.397436127000013,0.08367962665652644,-0.2513596904198182,0.050598301119194264,0.2630384181887115,0.007943215585257669,0.2244985233492773,0.014165393139775112
19.432241186000013,0.029117365771749223,-0.22312915133778866,-0.004999420681501108,0.27715819000298153,-0.00900707770316736,0.2148371779610957,0.013284618472321989
19.469386324000013,0.02747493488884598,-0.22362086162749445,-0.006439206869708682,0.2772248720862427,-0.010007053940408076,0.21459225506363627,0.012566740012654629
19.522174105000012,-0.0725844296498325,-0.1155365448257043,-0.05332751536613417,0.07445027623828364,-0.07465823704797038,0.128683019237429,-0.041627860826158866
19.57395313600001,-0.04486592127827056,-0.14537584974921988,-0.019104054548085968,0.10401355936066609,-0.0875881838131776,0.13696604728974054,-0.05877309597503817
19.62257765100001,0.023013816438716903,-0.2024415820978067,0.02628994346479604,0.19032276351402946,-0.03894864521638794,0.1904971545216228,-0.027970123746509364
19.65633939100001,0.0796082950772269,-0.25397394436689974,0.05023968257099182,0.26236974882770897,-0.0018169525285110647,0.22422104069468884,0.007769651020086845
19.69119261100001,0.025393780512625797,-0.20251430463016112,0.031084863272790926,0.18951772266524228,-0.043233406823381434,0.19017863178125208,-0.03079194062323332
19.72693060200001,0.02566003017535354,-0.20234030769928535,0.032251103222157115,0.18903521758776992,-0.04399288899241576,0.18989129840752567,-0.03135044664194464
19.75973938300001,0.026321019299224,-0.22572025232081672,-0.0011017343358496903,0.275527571899625,-0.023535370384468464,0.2125017117664853,0.0043392147757165146
19.79945753400001,-0.0690097263222212,-0.11658976265157524,-0.04291746769400646,0.07324023109430175,-0.08678699013624283,0.12520759826914882,-0.050611593491846386
19.83688233700001,0.023191665284853596,-0.226349968960406,-0.002814015734581856,0.2752337491640729,-0.025219304754757168,0.2115255748669496,0.003011634180845657
19.87168739600001,-0.0714735114662395,-0.11796476941400626,-0.0440692692324618,0.07398024616182122,-0.08959040776854361,0.12416470956780119,-0.05296968374860725
19.90370701100001,0.07650544202032157,-0.2557106057694236,0.052945163936587575,0.2607505206129489,-0.010955555589984331,0.22333849858314395,0.0022205177336308006
19.937006219000008,-0.04621764600166843,-0.14963181110882487,-0.011188110512909704,0.10545004585502196,-0.10325548720309977,0.13346752759992492,-0.07142576976927818
19.973267778000007,0.01606492650419506,-0.2293749893511433,-0.008607820133604229,0.2765470342277484,-0.028748979903962774,0.2099619637834751,0.000464656647140918
20.019651398000008,-0.07760069185385368,-0.12174363277520403,-0.049260429974238705,0.07677335848187354,-0.09278772294326053,0.12208416939825004,-0.056288152696345316
20.056561932000008,0.06700753757074397,-0.2606327773329797,0.04409974417939958,0.2636014151207576,-0.013683926360387936,0.2224503851678485,-0.00016658248534468648
20.108471617000006,0.00909480930381994,-0.23426732706534648,-0.014504992382493202,0.2796600054279015,-0.03297410002909037,0.208536360344643,-0.0025555905377225145
20.158495412000008,0.007339256551722028,-0.2357922493628593,-0.01548736673523644,0.28057819699826714,-0.0341403903132729,0.20789110615624237,-0.0034689008061188895
20.20906804600001,0.0640533295945313,-0.26497783679775155,0.043961755398194045,0.2659620088358162,-0.01867345246141127,0.22185966414884234,-0.0035217846063847614
20.24246572000001,0.06448556237348083,-0.2658304196752955,0.04593759991694136,0.2662387119592175,-0.02044644809367328,0.22167956443347256,-0.004446070860051498
20.294548497000008,-0.08049501337718493,-0.12975421267328313,-0.047234388119016646,0.08240422731965717,-0.0978886800238586,0.12911800345887608,-0.011493193669295276
20.329144702000008,0.00580103572234462,-0.24003076749956503,-0.011746156915263128,0.28290068990170786,-0.040645589161118025,0.20614681987285288,-0.006825930872746799
20.380679593000007,0.016075211357239348,-0.2154109507288372,0.035385364491010284,0.19534903756128932,-0.06130485787095808,0.19478579175538607,0.00010706283964189388
20.43854998100001,-0.07646173695661473,-0.1312838465972769,-0.038307068726359327,0.08307238577415783,-0.1007546646604587,0.13557087275827812,0.029656532339659925
20.486198888000008,-0.046637072587238086,-0.16302002432062784,0.002260767279690829,0.11520647529696576,-0.11455706195971002,0.1534272555311345,0.0435067097680396
20.519614682000007,0.020554178317041837,-0.21477634015593575,0.04576015758260097,0.19380146654281719,-0.0639397973616379,0.20065048814191502,0.03790984524170188
20.553459869000008,0.06868005165928921,-0.2664715310320573,0.06182787991176668,0.2638874974231934,-0.028176400421316597,0.22901040489233085,0.040966783007647674
20.59397123900001,0.021598712003520554,-0.21441326387785262,0.048964342287118816,0.19326408958327568,-0.06481198749663376,0.20283920822731547,0.053615843169585245
20.625948892000007,0.021672504042449168,-0.2143468133006059,0.05004248489753708,0.19309898322862162,-0.06483289132821785,0.20449700112048907,0.06673135288333847
20.66002200600001,-0.07151511281058053,-0.13148073323248757,-0.025446679492178784,0.08350067608030921,-0.10499916303790069,0.14165562363735176,0.08099781025787882
20.71328114100001,0.009381605649468671,-0.23906432148153814,0.004979222075187242,0.2794119069146288,-0.04785180770498877,0.21695191282060178,0.07673362494467081
20.75324128700001,-0.07102703553464118,-0.13157259905519894,-0.02317974576591216,0.08400083030766628,-0.10578392533951188,0.14307489678338758,0.09499230166400567
20.79071734900001,-0.06987186134988058,-0.1314359753178041,-0.02103346731221695,0.0839382780894587,-0.10658648986412347,0.14438954290694417,0.10636816195574772
20.834162221000007,-0.04123034356285399,-0.163480626602942,0.017998874199252494,0.11725537958428897,-0.12048882615004528,0.1611885847951965,0.10810618866897488
20.885326133000007,0.02419162317340674,-0.21267551441491128,0.05793664400702961,0.19154634217331712,-0.06792348151408714,0.20868706783330934,0.105385053773204
20.938093648000006,-0.07013481284414273,-0.13196392365468623,-0.019329765578072696,0.08511162867074923,-0.10734449649608527,0.1455628623283989,0.12403539647475881
20.989684568000005,0.06812741407858025,-0.26372524082537785,0.0707212317025791,0.25959330057358443,-0.032353844212523526,0.23749415352568248,0.11848147289022333
21.038060652000006,0.006416954016742687,-0.23897076387749508,0.00798857497056576,0.2786276459659971,-0.05184476572989091,0.22079567746018477,0.12854234948459656
21.089453684000006,0.0685276710159733,-0.26337840513705324,0.07277444625647113,0.258790986597881,-0.03376892168497158,0.23855859719542916,0.13123162881421493
21.122204291000006,0.00714550703655327,-0.23832230975267032,0.010461144033793278,0.27757170903423445,-0.052731008011330766,0.22172331607957177,0.14472088406376474
21.156834590000006,-0.06841027224249156,-0.1335224814446386,-0.014629173521620633,0.08717275011721397,-0.10908980130005479,0.14873309377027,0.16069120439910003
21.208989131000006,0.025124405980154463,-0.2128759070255606,0.0631069517523559,0.19132247645830888,-0.06990546055778749,0.21313499827082621,0.1555677640720779
21.260910260000006,0.06950500069927208,-0.26193684993360766,0.07667561208045436,0.25634821460389573,-0.03454614725712436,0.2406521041623689,0.15903636659298648
21.313263166000006,0.006581419976122587,-0.23804106690185214,0.012536140970666269,0.2765962630958784,-0.05401621664938765,0.22238185303830282,0.16463046590789385
21.359516132000007,-0.0672000256749852,-0.13490900595954206,-0.011121508115289384,0.08873608098588545,-0.11040041174163304,0.15061519524241082,0.18417618698665775
21.411379326000006,0.06952757778539205,-0.2612568140246784,0.07878222550736351,0.2549310713979738,-0.035724698777440146,0.2408963375019019,0.17070114689971427
21.463766325000005,0.006866189446521965,-0.23768356396017767,0.014935708506052183,0.27554840492892885,-0.05546035189071928,0.2231413113240469,0.18273867442451683
21.498133887000005,0.028315103484146294,-0.21166654497343115,0.07007615097487213,0.18929609569567052,-0.07157705389858014,0.21573886911616644,0.19243668842308925
21.548601378000004,-0.03627916679121794,-0.1677552220891052,0.03350642982723442,0.12379014633054533,-0.1261901229389449,0.17009321638981356,0.20237879435378608
21.593254317000003,0.00720125446215382,-0.2365267240377907,0.017074282184688393,0.2738318088508662,-0.055808303620861435,0.2237025304923739,0.19973592268608045
21.627207507,0.07006711625828993,-0.25929498310880694,0.0822757193911277,0.25172331363471334,-0.036310423365759015,0.2424584909951339,0.20074880967021475
21.667398919,0.027536696765721118,-0.21185124377275966,0.07039545172249649,0.1892182101799945,-0.0713998603233266,0.21656538194046174,0.20939336271052894
21.7007203,0.0059706849490019104,-0.2369164937682428,0.016580456748575733,0.27390486006392034,-0.05623476493685656,0.22365521042800332,0.2099890476116698
21.732854833,0.0696202728796752,-0.259084479112259,0.08254819775536881,0.25106019428527837,-0.036507763735135236,0.24287849569803022,0.2116181134240957
21.776715268,-0.03740219704500652,-0.17041465984519572,0.03389048594165017,0.12719142053422497,-0.12639631059739925,0.17187148977234715,0.22541572800892842
21.823541153,-0.06561179193828078,-0.13799169536845263,-0.00618464420493188,0.0924077719714853,-0.11134551428268058,0.1539888260123798,0.23389929839982626
21.874821413,0.06903478888034296,-0.25888927495236996,0.08263105341176726,0.25046894694076344,-0.03645996247536391,0.2427740156084203,0.2203967074930508
21.926576603,-0.037521784435118284,-0.17201294194898956,0.03454884665596636,0.12922392485688608,-0.12650649895603927,0.17295258237023017,0.23949156829943674
21.971281517,0.00420352852229778,-0.23744080383063898,0.01629048344442218,0.27373090103192593,-0.056059717297949826,0.22422150215834974,0.2381775069473904
22.005290259000002,0.0697641041806433,-0.2581821842621013,0.0848812093428363,0.24919198141436977,-0.03761337137430091,0.24335960881041865,0.2338546716164895
22.039361466000003,-0.062380440655151824,-0.13849059106550335,-0.001080837464311188,0.0932377929424446,-0.11293633283914073,0.1555837827779266,0.2532369051176957
22.072204340000003,0.007540588320337927,-0.2349644099097394,0.02169082635236276,0.27091864370225494,-0.05808622253804967,0.2242113029535546,0.24470558285761523
22.106234540000003,0.03241455556097558,-0.20912790180974083,0.07888648558451127,0.1858562340452762,-0.0729495598357982,0.21867990636991058,0.24981313496371393
22.150294055000003,0.009440985216539018,-0.23288362634299817,0.024899401748040124,0.26853653156297086,-0.058310128082024924,0.22488955575143213,0.2571717653518072
22.182790746000002,-0.03056499633365463,-0.16879898582941016,0.04589719049497578,0.12668027384857786,-0.12911329270247038,0.17531215325666633,0.2665011631848687
22.215568294,0.03339769663316104,-0.20703464775225405,0.08107943446492817,0.18366722302736976,-0.07252389934937602,0.21913563502014366,0.2629706035214951
22.257872095,0.07381438358933748,-0.2521129220372798,0.09257496822652421,0.2422046751177582,-0.03823559824327543,0.2444018751684682,0.2626092878628642
22.304894676,-0.03195189073437319,-0.1695753633795906,0.04468255610163095,0.1278280597940143,-0.1280872641492301,0.17637896615912835,0.28302159170345303
22.339052668,0.030947145890274252,-0.20796815271543262,0.07814263698876046,0.18464807463412394,-0.07145633499399212,0.21942299462596074,0.27543038437097717
22.37700986,-0.03379875056798372,-0.17136754580071892,0.04247007919993668,0.12997656681628222,-0.12793701327431511,0.1766216850543412,0.28846115021988844
22.410741797,0.030527233480111743,-0.20863660633472098,0.07742614458960481,0.18522082384153124,-0.07147490830453816,0.21999543392284548,0.284141619214304
22.45818018,0.07129764449026715,-0.2529355655296188,0.08960137857537452,0.2424411461744658,-0.037203010267787835,0.2452526994170984,0.287186162132589
22.491186847999998,-0.03345085037808314,-0.17237018151294436,0.04291906076773028,0.1312068526972944,-0.12800329852068654,0.17731313430332016,0.30095409411576585
22.522674789999996,0.07204815692646764,-0.2524780086840992,0.09092488953779983,0.24163933226858025,-0.038044388196716766,0.24539808111451977,0.2931575113386558
22.555878629999995,0.006609944035602806,-0.23267295332629076,0.02318557839792472,0.26737755483144093,-0.05788285229433356,0.2253503902417167,0.30232091854576376
22.589304913999996,-0.05970295838788916,-0.13906038266368148,0.0038803384659821744,0.09459008110700465,-0.11270249226800133,0.1585946326983825,0.3120614311795725
22.621564616999997,-0.03171937134537502,-0.1722111385547243,0.04568849979299281,0.13113298917481397,-0.12817537181672456,0.17841840589883176,0.3186348470342727
22.662063350999997,0.007098416564969606,-0.23207373318993,0.02449881580982492,0.26642107341250454,-0.05822059423578097,0.22527625153745243,0.31208847820197355
22.700731983999997,0.006641229451885177,-0.2321323931827308,0.024134073652850307,0.26627528781387605,-0.05741213210445225,0.22566372881526114,0.3223954268054446
22.754099598999996,-0.03240923010041121,-0.1730605261464973,0.04538757638957567,0.13219928690503638,-0.12733369999676536,0.1786576595286653,0.33195737150291454
22.789070597999995,-0.06148715357563959,-0.14140105479470733,0.0020361396611555554,0.0970429359572034,-0.11065345865503202,0.15943210331869995,0.3403403029290314
22.831986895999997,-0.06251229933457914,-0.14257534338925176,0.0006589540777892427,0.09828709266249361,-0.1100919621641086,0.15959278797378754,0.34528062462311726
22.867991677999996,0.001461874653796427,-0.2359933542548071,0.01797711162129741,0.2699157818328093,-0.0551634318821949,0.22530742064868153,0.34138879312041853
22.899720660999996,-0.03666665033071717,-0.17817155631405363,0.04001297965977804,0.1377765948520535,-0.12487019253406674,0.17951913017721313,0.35665908017206016
22.934381953999996,0.02737285557106873,-0.2120747842267201,0.07367582591204859,0.18778171187265924,-0.06719394203629919,0.22142149790231222,0.34905365548723893
22.988815537999997,0.06731598942315023,-0.25521027079449915,0.08621489365084631,0.24284865703152225,-0.033641017183835546,0.2461284893721961,0.3492371013751866
23.040396682999997,0.0673267262040011,-0.2554463039269479,0.0864813599750781,0.24297992544658742,-0.03350585146402209,0.246074152995447,0.3529550929554487
23.092429152999998,-0.03684825087506114,-0.18079062448517935,0.0404113978719852,0.14094474198602777,-0.12419812520750159,0.17974383015895365,0.37173523962530775
23.143479339,0.00046415685389854564,-0.23831440269262166,0.01783148906659163,0.2718926085226038,-0.05380066230147396,0.22486565548900092,0.36829524150727816
23.194900028,0.0007748336297641358,-0.23807495588392605,0.018692379663666114,0.27166005234579754,-0.05381084769838325,0.22472507403409203,0.3716300095722355
23.242749921999998,0.02895781620063338,-0.21220645452687834,0.07692536568061217,0.18792618126368618,-0.06570906758058517,0.22156412782662477,0.3768676679524898
23.278304330999998,0.001419865106064534,-0.23731906648439158,0.020434500944946466,0.27094509558385454,-0.053581861452255845,0.22447166120260179,0.3809734889926704
23.329797976,-0.03484273399446389,-0.180834692553094,0.044943414922889766,0.14205374130913437,-0.12384274721509139,0.18004061372678615,0.39170528133201693
23.380748741999998,0.0017876545161557365,-0.2365412238297251,0.02172044817256724,0.2703407956903575,-0.05378377008306334,0.22396446044839094,0.3838255375283543
23.427701943,0.028873940568597434,-0.2111376581693433,0.07789055610148363,0.18737016860173128,-0.06401452210773619,0.22085378664231486,0.3881135547334617
23.459308379,-0.06712945693458569,-0.15089614899015472,-0.0029693376235267865,0.10894171912620024,-0.10326845907915079,0.15934224757553966,0.4000531793941836
23.493958228,-0.045432413550882574,-0.18852314260531297,0.03268725261516928,0.1515627658962725,-0.11849022080364843,0.17870848183571447,0.39699097924718657
23.529325955,0.055327748905116846,-0.2625027524737046,0.07449858683530612,0.2509947090529443,-0.02571453427033224,0.24385451514746648,0.3864191649475579
23.56279444,-0.076359550850021,-0.1613087056400386,-0.015206123110667427,0.12064357898350424,-0.10151547150120975,0.15891579329938763,0.39436009799815824
23.608561032,-0.012065417091548585,-0.24891470616689673,0.004222215943384309,0.284321679184494,-0.04865432381487177,0.22221777233037485,0.38647592022135707
23.642498963,-0.007918625893149348,-0.24640050666589464,0.00968244409395578,0.28177763631524944,-0.05049289691631686,0.22191409927599215,0.38145346438671673
23.682459586,0.06396626575126267,-0.25869462880897703,0.08576552313624679,0.247170884726214,-0.03027800914093626,0.24362109732935933,0.3784239589893601
23.71690225,-0.00144374069513609,-0.24071229799047703,0.01912848292572277,0.2759291727392179,-0.05254898537013412,0.22178604434863994,0.379342899685283
23.769891972,0.0016793962442390373,-0.23721743282978686,0.024097428823152457,0.27238209791239054,-0.053441821038114234,0.2217748344755617,0.37947059582134823
23.803741927,-0.03155787299252997,-0.18129014116561223,0.05315020299799853,0.14588773969512714,-0.12481866264805894,0.17950889433016962,0.3827110424883982
23.854606624000002,0.07325047412543928,-0.24648022975388,0.1013981180368981,0.23501736607478363,-0.0332376593278905,0.2426899096368062,0.3723117595362324
23.906462665000003,0.07166489322261876,-0.245425972134362,0.10011472197912967,0.23431375718074376,-0.032231340901829296,0.24185276111448223,0.3679541186530767
23.939575429,-1.7316758675325737e-05,-0.23171314333986126,0.02498493325859028,0.2679025213042853,-0.05226302579223971,0.22031767732895133,0.3710260194102307
23.973619218,-0.06354391169013374,-0.149395850061069,0.005701761676042337,0.1107305025231978,-0.10631808424925294,0.15971175606291962,0.3733322534974323
24.016320700999998,-0.0036751818311466867,-0.2337953848772879,0.020340005103454708,0.2704924014859928,-0.05201523864951519,0.22005464002661876,0.36595474911547493
24.049571033,0.022521951433941735,-0.21148672782365252,0.07369580466594779,0.19104040167037853,-0.061893457947974434,0.21768487839022713,0.3571690380530473
24.090927359,-0.04427886380244831,-0.18722057155844554,0.03791003380826812,0.15450782487849068,-0.12028406226256577,0.1788967029165043,0.361380313542095
24.143492456999997,-0.012203737150622935,-0.23939552012968593,0.008913534396935829,0.27704307064598027,-0.04978438361869126,0.21846026853240433,0.3462632433405428
24.195801492999998,-0.07367224445716661,-0.1589258140473518,-0.008552986496100009,0.12178588654545673,-0.10465269080727953,0.15937466285789767,0.342608516122195
24.2341454,0.05698578213821468,-0.2536559784840497,0.0807154902355765,0.24444010347405357,-0.029885048647417926,0.23797530962534097,0.32014677180205386
24.269394157,-0.010304907246471248,-0.23794739107977855,0.011120447990812838,0.2758482208146242,-0.052036723745624194,0.2171296018373224,0.3157210746762282
24.30327892,-0.04291413940417939,-0.18855771182753156,0.03950758265275944,0.15655235197876988,-0.12381039117033651,0.17902731791818605,0.3196788125499062
24.354300019,-0.06794241598444059,-0.15526979142469435,-0.0007676832013842955,0.11823393139708392,-0.10762353343187134,0.1595983723145534,0.31038444027177364
24.405574795,-0.040493499563027086,-0.18537543870998588,0.043527178682623756,0.15356583035795326,-0.12500439006753672,0.17854555560893098,0.298253010135081
24.457552906,-0.06572132968775107,-0.15244144967154485,0.0032105684252258,0.11561373895096633,-0.10954523222388494,0.1595292678579636,0.2884731873503932
24.49066877,-0.06188647643349192,-0.14901095542744555,0.00853791559537201,0.11219586850378165,-0.11177371505919192,0.15982432489514134,0.27467218715462804
24.523756262,0.06868680186679747,-0.23866100650066494,0.09850833407195517,0.22952482881953595,-0.03688843929572141,0.23421314490403577,0.2568742764052148
24.575830456,-0.05731469304205031,-0.14473669273086406,0.014817160800941228,0.10784602349206722,-0.11402218763899812,0.16044337900319233,0.26310102000843005
24.628039594999997,0.006490453770527486,-0.2170818325139816,0.035308234180148564,0.2550378527176134,-0.06062844607438138,0.2147124761638486,0.24352783970917127
24.679846998,0.0361047072303967,-0.19550205438406368,0.09377469039820505,0.1758536112110986,-0.07356008749412797,0.21375312720414336,0.23072769948157262
24.722349878,0.006909769245918332,-0.21336096372439103,0.03572620340056007,0.25151980852016576,-0.06078440542843239,0.21347743998636243,0.22044899304973994
24.754964346999998,-0.05601867298465902,-0.13991175070760944,0.01646306716018818,0.10328038583119464,-0.11564528007055892,0.16024955421641401,0.21985155180637045
24.788404937,0.07024214987977392,-0.23018591033954391,0.10030269546899541,0.2214462053190275,-0.03878282778440879,0.23030957437271793,0.20249800987739006
24.828027959,0.028906129371743892,-0.19800502349193977,0.08296172100885676,0.17871494617491954,-0.07118958478567826,0.21218837588717493,0.2007974012629633
24.868425603,0.026095716767442868,-0.20017757209517803,0.07884257246309742,0.18095953061230263,-0.07121213395817123,0.21176473099522286,0.1919969608846045
24.902370925,-0.06370887269332884,-0.14601053964761862,0.003904973053426091,0.10949365165389974,-0.11443410375804988,0.15979042921101158,0.18770668398139229
24.942193504,-0.06326492273959468,-0.14640067787403627,0.00352518401434074,0.10969818108281515,-0.114327504888352,0.15994534537405225,0.1823909222606569
24.976596113,-0.06314945255444984,-0.14680661362051098,0.003061510915743545,0.1098799869596952,-0.11427693241157444,0.16006562467512064,0.1767317383460731
25.012623067,-0.0640177117841546,-0.1474458066913046,0.0015142382741521448,0.11043011575128468,-0.113724557103763,0.15951520998049315,0.1676570275620216
25.062781091,-0.06433372079562168,-0.14806428013010436,0.0007195049626756059,0.11101267357342197,-0.11417986424578695,0.1589470238990883,0.15462041655972178
25.097544666,0.06436799778017178,-0.2359961837740915,0.08720862784999117,0.22704684949258924,-0.03715882868197699,0.22512859962047221,0.13663882552308224
25.144144054,-0.06368667139579681,-0.14830299077888426,0.000510383074505765,0.11086212264410412,-0.11368930745476093,0.1590457276040318,0.14320007922050246
25.195365425000002,0.06503568397017201,-0.23573168155644386,0.08719375576688672,0.22680057865258652,-0.03706401951115232,0.22330369248539655,0.11732318864133973
25.246752020000002,0.06494022308562386,-0.23565097837512788,0.08666642810632108,0.22688141856896943,-0.0370425330503252,0.2216396661224397,0.10197304706727706
25.290587183000003,-0.03613766262767953,-0.17754634494161822,0.04167796626661888,0.1448550183539255,-0.12840275908872792,0.17441294710115576,0.10832389277578469
25.335619445000003,-0.06599947947494908,-0.14899828387543002,-0.00401863815886278,0.11169811335619408,-0.11232803458880272,0.15600447677072246,0.0942346257630632
25.37469172,-0.06747149549301022,-0.1497338899829929,-0.0066166701488719415,0.11259144872016881,-0.1115271096678764,0.1552668082423206,0.08401676966554424
25.408442970000003,-0.04038888762223765,-0.17912555285015314,0.034471034314820306,0.14675820450366442,-0.12630125593182262,0.1718194247362015,0.07675910014244727
25.444279189000003,0.02008244263363951,-0.2059531672019905,0.0638942785382687,0.18694418566164245,-0.06872030900561583,0.20199615538315321,0.06041208490986975
25.496124024000004,0.021870501008744915,-0.20543818099480876,0.06577368868695121,0.186629343113755,-0.07053567093213761,0.20064989517811405,0.04480456650425772
25.546558375000004,-0.06670337756758227,-0.14862323244689873,-0.007572637769827656,0.1118808885314733,-0.11138370487158257,0.15216890947440365,0.0432240279907228
25.579877848000002,0.02239186130248799,-0.2040172732776034,0.06541521382965644,0.18569269404751304,-0.06889605765046933,0.1973299923614609,0.01920054313157388
25.613535637000002,0.06215520107333037,-0.2353888076862671,0.07832606705883113,0.22897667035567246,-0.033602786128982286,0.20901281566060398,0.0035070405247429395
25.662935728,-0.0013713536209385552,-0.21648460650692283,0.011541341681641289,0.25702701916620585,-0.053047823023258035,0.19540365556122066,0.002655282431661009
25.715491528,-0.0038374382067645424,-0.21662221610090188,0.0075781545138270505,0.25768037341892014,-0.05056250783077331,0.19270764026694398,-0.013776628810878334
25.76693272,-0.0755489429970959,-0.14945216993527025,-0.021215648836937114,0.1137987689202779,-0.1054556328833974,0.14487403600448098,-0.01850952826425288
25.803414577999998,-0.011315090196382067,-0.21945864925873365,-0.004357873624382644,0.2609388284294014,-0.04493472033348726,0.19359706074981886,-0.011077640051462941
25.836878294999998,-0.011142428739216116,-0.21929897372423549,-0.0054871010628419125,0.2608215015652125,-0.04307620624365384,0.19395758430318802,-0.009922154320089206
25.870177741,-0.04833146077615345,-0.17787999516603423,0.016445279999444673,0.14689894745932483,-0.1195809194374453,0.154391128035488,-0.06703308391529006
25.906834358999998,0.014553205188741621,-0.20591627062792925,0.049949796425630855,0.18896754011601535,-0.06145104921352826,0.18836959155646663,-0.04517514222887707
25.93909883,0.018400798928754684,-0.2042628670128434,0.054318928932568906,0.18712615040625413,-0.06135248175042569,0.18869979738748677,-0.04480972848343757
25.971706861999998,-0.06789718730815728,-0.1453636554422924,-0.015542666867787948,0.10939079404096548,-0.10481479241350504,0.14030676140128925,-0.06530123302551004
26.005064004999998,-0.034970487638997586,-0.17103095216329667,0.0315269111549829,0.13922111731824494,-0.11963758521712699,0.15235683165016753,-0.08553705287551878
26.041965956,-0.06163548849815012,-0.1418824184597257,-0.007935873917432756,0.10544539709448121,-0.10354288669281263,0.14124575305456136,-0.06381867731998178
26.076242440999998,-0.05944755642011468,-0.14043167624447297,-0.005279770802076379,0.10380130629244019,-0.10252819065197316,0.1416836173905409,-0.0629303559579101
26.120833153,0.014048549630191955,-0.2076496414027587,0.02207839711817011,0.24868900961753124,-0.0377703438802654,0.1973030486517707,-0.0049580812865177275
26.16519856,-0.026413658785474504,-0.16534724486079627,0.04061137514531242,0.13265414680499152,-0.11461178477698435,0.15344040439164983,-0.08126322357232768
26.208218808,0.07643160304567759,-0.22751927409317177,0.08580601665541417,0.22248521220360318,-0.014406834809310851,0.2077737842009829,-0.0017990971387065664
26.254793639000003,0.016745070437105998,-0.20672158446455252,0.022294306201740523,0.24816451047737656,-0.032009195837513583,0.19877460494218124,-0.0012439647368424345
26.298336978000002,-0.05775577914379512,-0.13823773496250713,-0.007243409462501614,0.10104363841310575,-0.09407620855801531,0.1442229110401651,-0.05684273877954083
26.350721355,0.018317375003569003,-0.20742460558230078,0.02083073502215541,0.24924898791765088,-0.028279210253674237,0.19996118119064285,0.0011214559459270387
26.403000827,-0.05738863597700227,-0.13859550000125756,-0.009964565736904366,0.10122518102189705,-0.0905256280796279,0.14534781343950373,-0.054295305522371974
26.457260604,-0.026223116111833995,-0.16537413059329426,0.03156902529785154,0.1317697049194858,-0.1026641827131263,0.15545097293196755,-0.07284198695037938
26.500261779,-0.05771826111595238,-0.1391940045111978,-0.01390364880935933,0.10171342168993723,-0.08619287540336555,0.146357139351118,-0.051302714304272495
26.552707191,0.03224430908206955,-0.20048771121578499,0.05851937260656934,0.1837929638078046,-0.0413255665565214,0.1922746868281681,-0.030476289899063886
26.603815789,-0.059993853813643715,-0.13997777384748752,-0.020193921123851467,0.1025401461204262,-0.08139014787394987,0.14705694108408757,-0.048139573466319634
26.659644599,-0.061806394508847305,-0.14043780111517284,-0.024166247833361364,0.10304574918889148,-0.07915053562554335,0.14736065120020228,-0.04679313544935829
26.691211457,-0.06446738931246128,-0.14069990871619342,-0.02960687242317729,0.10342960283128094,-0.07550446043934553,0.14752110737056498,-0.0446074391602174
26.725133414000002,-0.06618918124400781,-0.14107281568222968,-0.032805782549464556,0.10384468267813929,-0.07431962220867419,0.14773288111869232,-0.04386707384099182
26.758806224,0.02416842935640631,-0.20421567546095987,0.040073933725332495,0.1888846312781063,-0.030305554887834544,0.19311811675368376,-0.02386306240666599
26.792598481000002,0.07185235989082048,-0.2380507033033196,0.05694215065664881,0.2377379975071123,0.011911235476148911,0.21131324912827423,0.014625294982960228
26.844247575,-0.06887453003728497,-0.14105345057470922,-0.03991756194916704,0.10405616023417831,-0.06977962368807941,0.14822625906712986,-0.04087202928013686
26.877303357000002,0.07201533467783909,-0.2388993427160792,0.053954414745996625,0.2395597714586348,0.015305454037585887,0.21184063733708125,0.016815641796698984
26.909477944000002,-0.037609113058439565,-0.16680741548656577,-0.000684026304816947,0.13315346975685363,-0.07967514836855401,0.15663736648336093,-0.057508091571978504
26.942806238000003,0.01840271280391567,-0.21552249757939487,-0.003377731281068137,0.2622237512686788,-0.0006448351704720912,0.20680286719257057,0.017663183752449314
26.974952215000002,0.07450199252445211,-0.23927613600151443,0.054131369160344375,0.24109043891912588,0.01798659120480341,0.21252494307742817,0.01880564196878741
27.006909603,-0.03584793632839708,-0.16525818833781644,-0.0010063870820669197,0.13175436250265427,-0.0765601939197195,0.15672475463241997,-0.054922705282433815
27.044338936,0.0233038091003359,-0.2152691233012272,0.0002577767831983181,0.2630133617479657,0.0011956571213162235,0.20792574876726183,0.019193525889838577
27.077209228999997,-0.060421227311422396,-0.13746107159286527,-0.03422046027264014,0.10105646799478384,-0.06716626741660572,0.14952939902316345,-0.03775779525650457
27.111341947999996,-0.021635002485901722,-0.16264179097190012,0.01549937889879901,0.12938903826008857,-0.08050429831864112,0.15733811477904572,-0.0556748157120698
27.144114011999996,-0.04919273663513631,-0.13486391403960243,-0.020801550248732797,0.09901671413656526,-0.06763315848708014,0.14986039939263424,-0.03661292128752485
27.175822014999994,-0.01415179420052089,-0.16034532378330482,0.02458468483006562,0.12759386914943427,-0.08007647411094,0.1572864755042386,-0.054416624077090796
27.209228987999996,-0.012338506875758763,-0.15954025343216943,0.026712674344534403,0.1270468851900815,-0.07994125972204118,0.15722147866813843,-0.054055970265304676
27.261626954999997,0.0477623649332629,-0.21227561249410715,0.02880908793086955,0.26285829136346295,-0.0009628147521490992,0.21006281712338537,0.01969109585900569
27.311581607999997,-0.01849753406645683,-0.1582238365244885,0.01734034831682949,0.12651197776483064,-0.07502789368535687,0.15655144516654793,-0.05128517707449879
27.363368030999997,0.09051983189609021,-0.23806207097400978,0.06762928409496846,0.2457640102680767,0.02089132598278675,0.21521901820410172,0.02212788011471458
